; Generated with MatterSlice 1.0
; filamentDiameter = 3
; extrusionWidth = 0.35
; firstLayerExtrusionWidth = 0.7
; layerThickness = 0.2
; firstLayerThickness = 0.25
; automatic settings before start_gcode
G21 ; set units to millimeters
M107 ; fan off
M190 S65 ; wait for bed temperature to be reached
M104 T0 S230 ; start heating extruder 0
T0 ; set the active extruder to 0
; settings from start_gcode
G28 ; home all axes
G1 Z5 F5000 ; lift nozzle
; automatic settings after start_gcode
M109 T0 S185 ; wait for extruder 0 to reach temperature
T0 ; set the active extruder to 0
G90 ; use absolute coordinates
G92 E0 ; reset the expected extruder position
M82 ; use absolute distance for extrusion
; Layer count: 133
; LAYER:0
M107
G0 F9000 X164.27 Y117.852 Z0.25
G0 X164.27 Y117.852
; TYPE:SKIRT
G1 Z0.25
G1 F1800 E0
G1 F1080 X164.27 Y123.651 E0.14357
G1 X172.67 Y123.651 E0.35153
G1 X172.67 Y153.351 E1.08683
G1 X172.27 Y153.351 E1.09673
G1 X172.27 Y154.151 E1.11654
G1 X164.27 Y154.151 E1.3146
G1 X164.27 Y157.15 E1.38884
G1 X151.464 Y158.751 E1.70835
G1 X146.759 Y158.751 E1.82484
G1 X133.67 Y157.299 E2.15088
G1 X133.67 Y152.151 E2.27833
G1 X125.47 Y152.151 E2.48134
G1 X125.47 Y151.551 E2.49619
G1 X125.27 Y151.551 E2.50114
G1 X125.27 Y122.451 E3.22159
G1 X133.67 Y122.451 E3.42955
G1 X133.67 Y117.703 E3.5471
G1 X146.759 Y116.251 E3.87313
G1 X151.464 Y116.251 E3.98962
G1 X164.27 Y117.852 E4.30913
G0 F9000 X163.57 Y118.47
G1 F1080 X163.57 Y124.351 E4.45473
G1 X171.97 Y124.351 E4.66269
G1 X171.97 Y152.651 E5.36333
G1 X171.57 Y152.651 E5.37323
G1 X171.57 Y153.451 E5.39304
G1 X163.57 Y153.451 E5.59109
G1 X163.57 Y156.532 E5.66737
G1 X151.421 Y158.051 E5.97049
G1 X146.798 Y158.051 E6.08495
G1 X134.37 Y156.672 E6.39452
G1 X134.37 Y151.451 E6.52378
G1 X126.17 Y151.451 E6.72679
G1 X126.17 Y150.851 E6.74164
G1 X125.97 Y150.851 E6.74659
G1 X125.97 Y123.151 E7.43238
G1 X134.37 Y123.151 E7.64034
G1 X134.37 Y118.33 E7.75969
G1 X146.798 Y116.951 E8.06927
G1 X151.421 Y116.951 E8.18372
G1 X163.57 Y118.47 E8.48684
G0 F9000 X162.87 Y119.088
G1 F1080 X162.87 Y125.051 E8.63447
G1 X171.27 Y125.051 E8.84243
G1 X171.27 Y151.951 E9.50841
G1 X170.87 Y151.951 E9.51831
G1 X170.87 Y152.751 E9.53812
G1 X162.87 Y152.751 E9.73618
G1 X162.87 Y155.914 E9.81448
G1 X151.377 Y157.351 E10.10124
G1 X146.836 Y157.351 E10.21366
G1 X135.07 Y156.046 E10.50674
G1 X135.07 Y150.751 E10.63783
G1 X126.87 Y150.751 E10.84084
G1 X126.87 Y150.151 E10.8557
G1 X126.67 Y150.151 E10.86065
G1 X126.67 Y123.851 E11.51177
G1 X135.07 Y123.851 E11.71973
G1 X135.07 Y118.956 E11.84092
G1 X146.836 Y117.651 E12.134
G1 X151.377 Y117.651 E12.24643
G1 X162.87 Y119.088 E12.53318
G0 F9000 X162.17 Y119.706
G1 F1080 X162.17 Y125.751 E12.68284
G1 X170.57 Y125.751 E12.8908
G1 X170.57 Y151.251 E13.52211
G1 X170.17 Y151.251 E13.53202
G1 X170.17 Y152.051 E13.55182
G1 X162.17 Y152.051 E13.74988
G1 X162.17 Y155.296 E13.83022
G1 X151.334 Y156.651 E14.10058
G1 X146.875 Y156.651 E14.21097
G1 X135.77 Y155.419 E14.48759
G1 X135.77 Y150.051 E14.62049
G1 X127.57 Y150.051 E14.8235
G1 X127.57 Y149.451 E14.83836
G1 X127.37 Y149.451 E14.84331
G1 X127.37 Y124.551 E15.45977
G1 X135.77 Y124.551 E15.66773
G1 X135.77 Y119.583 E15.79073
G1 X146.875 Y118.351 E16.06734
G1 X151.334 Y118.351 E16.17774
G1 X162.17 Y119.706 E16.4481
G0 F9000 X161.47 Y120.323
G1 F1080 X161.47 Y126.451 E16.59981
G1 X169.87 Y126.451 E16.80777
G1 X169.87 Y150.551 E17.40443
G1 X169.47 Y150.551 E17.41433
G1 X169.47 Y151.351 E17.43414
G1 X161.47 Y151.351 E17.6322
G1 X161.47 Y154.679 E17.71459
G1 X151.29 Y155.951 E17.96858
G1 X146.914 Y155.951 E18.07692
G1 X136.47 Y154.792 E18.33707
G1 X136.47 Y149.351 E18.47178
G1 X128.27 Y149.351 E18.67479
G1 X128.27 Y148.751 E18.68964
G1 X128.07 Y148.751 E18.69459
G1 X128.07 Y125.251 E19.27639
G1 X136.47 Y125.251 E19.48436
G1 X136.47 Y120.21 E19.60916
G1 X146.914 Y119.051 E19.86931
G1 X151.29 Y119.051 E19.97765
G1 X161.47 Y120.323 E20.23164
G0 F9000 X160.77 Y120.941
G1 F1080 X160.77 Y127.151 E20.38539
G1 X169.17 Y127.151 E20.59335
G1 X169.17 Y149.851 E21.15534
G1 X168.77 Y149.851 E21.16524
G1 X168.77 Y150.651 E21.18505
G1 X160.77 Y150.651 E21.38311
G1 X160.77 Y154.061 E21.46753
G1 X151.246 Y155.251 E21.70516
G1 X146.952 Y155.251 E21.81146
G1 X137.17 Y154.166 E22.05513
G1 X137.17 Y148.651 E22.19166
G1 X128.97 Y148.651 E22.39468
G1 X128.97 Y148.051 E22.40953
G1 X128.77 Y148.051 E22.41448
G1 X128.77 Y125.951 E22.96162
G1 X137.17 Y125.951 E23.16958
G1 X137.17 Y120.836 E23.29622
G1 X146.952 Y119.751 E23.53988
G1 X151.246 Y119.751 E23.64619
G1 X160.77 Y120.941 E23.88381
G0 F9000 X160.07 Y121.559
G1 F1080 X160.07 Y127.851 E24.03958
G1 X168.47 Y127.851 E24.24755
G1 X168.47 Y149.151 E24.77488
G1 X168.07 Y149.151 E24.78478
G1 X168.07 Y149.951 E24.80459
G1 X160.07 Y149.951 E25.00265
G1 X160.07 Y153.443 E25.0891
G1 X151.203 Y154.551 E25.31033
G1 X146.991 Y154.551 E25.41461
G1 X137.87 Y153.539 E25.64181
G1 X137.87 Y147.951 E25.78015
G1 X129.67 Y147.951 E25.98317
G1 X129.67 Y147.351 E25.99802
G1 X129.47 Y147.351 E26.00297
G1 X129.47 Y126.651 E26.51545
G1 X137.87 Y126.651 E26.72341
G1 X137.87 Y121.463 E26.85185
G1 X146.991 Y120.451 E27.07905
G1 X151.203 Y120.451 E27.18333
G1 X160.07 Y121.559 E27.40456
G0 F9000 X159.37 Y122.177
G1 F1080 X159.37 Y128.551 E27.56237
G1 X167.77 Y128.551 E27.77033
G1 X167.77 Y148.451 E28.263
G1 X167.37 Y148.451 E28.2729
G1 X167.37 Y149.251 E28.29271
G1 X159.37 Y149.251 E28.49077
G1 X159.37 Y152.825 E28.57925
G1 X151.159 Y153.851 E28.78412
G1 X147.03 Y153.851 E28.88634
G1 X138.57 Y152.913 E29.09707
G1 X138.57 Y147.251 E29.23725
G1 X130.37 Y147.251 E29.44026
G1 X130.37 Y146.651 E29.45511
G1 X130.17 Y146.651 E29.46007
G1 X130.17 Y127.351 E29.93788
G1 X138.57 Y127.351 E30.14585
G1 X138.57 Y122.089 E30.27612
G1 X147.03 Y121.151 E30.48685
G1 X151.159 Y121.151 E30.58908
G1 X159.37 Y122.177 E30.79394
G0 F9000 X149.278 Y133.818
; TYPE:WALL-OUTER
G1 F1080 X149.278 Y141.183 E30.97628
G1 X148.722 Y141.183 E30.99004
G1 X148.722 Y133.818 E31.17238
G1 X149.278 Y133.818 E31.18615
G0 F9000 X138.078 Y133.836
; TYPE:SUPPORT
G1 F3600 X137.883 Y133.641 E31.18956
G0 F9000 X136.659 Y140.902
G1 F3600 X136.717 Y140.96 E31.19058
G0 F9000 X144.86 Y144.86
G1 F3600 X147.559 Y147.559 E31.23782
G0 F9000 X147.559 Y147.401
G0 X151.669 Y147.287
G0 X151.669 Y147.287
G0 X151.688 Y147.445
G1 F3600 X145.853 Y141.61 E31.33997
G0 F9000 X145.87 Y141.77
G0 X147.47 Y141.773
G0 X147.531 Y142.374
G0 X150.469 Y142.374
G0 X150.428 Y141.781
G0 X150.267 Y141.781
G1 F3600 X153.078 Y144.593 E31.38919
G0 F9000 X150.531 Y133.561
G1 F3600 X150.267 Y133.296 E31.39382
G0 F9000 X149.799 Y132.828
G1 F3600 X144.859 Y127.888 E31.4803
G0 F9000 X145.02 Y127.888
G0 X148.653 Y127.601
G0 X148.653 Y127.601
G0 X148.653 Y127.44
G1 F3600 X153.079 Y131.866 E31.55778
G0 F9000 X152.92 Y131.866
G0 X148.768 Y132.726
G0 X147.531 Y132.627
G0 X146.169 Y133.266
G0 X146.152 Y133.424
G1 F3600 X144.859 Y132.131 E31.58042
G0 F9000 X160.296 Y134.841
G1 F3600 X161.479 Y136.023 E31.60112
G0 F9000 X159.859 Y138.645
G1 F3600 X161.173 Y139.96 E31.62413
G0 F9000 X161.453 Y140.24
G1 F3600 X161.479 Y140.265 E31.62458
G0 F9000 X161.32 Y140.311
G0 X159.62 Y142.488
G0 X159.62 Y142.488
G0 X159.458 Y142.488
G1 F3600 X159.931 Y142.96 E31.63285
G0 F9000 X147.73 Y141.829
; TYPE:SUPPORT-INTERFACE
G1 F3600 X147.298 Y142.261 E31.64041
G0 F9000 X146.704 Y142.361
G1 F3600 X147.73 Y141.334 E31.65838
G0 F9000 X147.73 Y140.839
G1 F3600 X146.209 Y142.361 E31.68502
G0 F9000 X145.714 Y142.361
G1 F3600 X147.73 Y140.344 E31.72032
G0 F9000 X147.73 Y139.849
G1 F3600 X145.219 Y142.361 E31.76429
G0 F9000 X144.724 Y142.361
G1 F3600 X147.73 Y139.354 E31.81692
G0 F9000 X147.73 Y138.859
G1 F3600 X144.229 Y142.361 E31.87822
G0 F9000 X143.858 Y142.236
G1 F3600 X147.73 Y138.364 E31.946
G0 F9000 X147.73 Y137.869
G1 F3600 X143.858 Y141.741 E32.01379
G0 F9000 X143.858 Y141.246
G1 F3600 X147.731 Y137.373 E32.08159
G0 F9000 X147.731 Y136.878
G1 F3600 X143.858 Y140.751 E32.14939
G0 F9000 X143.858 Y140.256
G1 F3600 X147.731 Y136.383 E32.21719
G0 F9000 X147.731 Y135.888
G1 F3600 X143.858 Y139.761 E32.28499
G0 F9000 X143.858 Y139.266
G1 F3600 X147.731 Y135.393 E32.35279
G0 F9000 X147.731 Y134.899
G1 F3600 X143.858 Y138.771 E32.42058
G0 F9000 X143.858 Y138.276
G1 F3600 X147.731 Y134.404 E32.48838
G0 F9000 X147.731 Y133.909
G1 F3600 X143.858 Y137.781 E32.55617
G0 F9000 X143.859 Y137.286
G1 F3600 X147.731 Y133.414 E32.62395
G0 F9000 X147.718 Y132.931
G1 F3600 X143.859 Y136.791 E32.69152
G0 F9000 X143.859 Y136.296
G1 F3600 X147.347 Y132.808 E32.75258
G0 F9000 X146.976 Y132.684
G1 F3600 X143.859 Y135.801 E32.80715
G0 F9000 X143.859 Y135.306
G1 F3600 X146.525 Y132.64 E32.85382
G0 F9000 X146.03 Y132.64
G1 F3600 X143.859 Y134.811 E32.89182
G0 F9000 X143.859 Y134.316
G1 F3600 X145.535 Y132.64 E32.92116
G0 F9000 X145.04 Y132.64
G1 F3600 X143.859 Y133.821 E32.94184
G0 F9000 X143.859 Y133.326
G1 F3600 X144.545 Y132.64 E32.95385
G0 F9000 X144.05 Y132.64
G1 F3600 X143.859 Y132.831 E32.95719
G0 F9000 X150.267 Y133.353
G1 F3600 X150.821 Y132.798 E32.9669
G0 F9000 X151.475 Y132.64
G1 F3600 X150.267 Y133.848 E32.98805
G0 F9000 X150.267 Y134.343
G1 F3600 X151.969 Y132.64 E33.01785
G0 F9000 X152.464 Y132.64
G1 F3600 X150.267 Y134.838 E33.05632
G0 F9000 X150.267 Y135.333
G1 F3600 X152.959 Y132.641 E33.10345
G0 F9000 X153.454 Y132.641
G1 F3600 X150.267 Y135.828 E33.15924
G0 F9000 X150.267 Y136.323
G1 F3600 X153.949 Y132.641 E33.2237
G0 F9000 X154.079 Y133.006
G1 F3600 X150.267 Y136.818 E33.29043
G0 F9000 X150.267 Y137.313
G1 F3600 X154.079 Y133.501 E33.35716
G0 F9000 X154.079 Y133.996
G1 F3600 X150.267 Y137.808 E33.4239
G0 F9000 X150.267 Y138.303
G1 F3600 X154.079 Y134.491 E33.49063
G0 F9000 X154.079 Y134.985
G1 F3600 X150.267 Y138.797 E33.55736
G0 F9000 X150.267 Y139.292
G1 F3600 X154.079 Y135.48 E33.6241
G0 F9000 X154.079 Y135.975
G1 F3600 X150.267 Y139.787 E33.69083
G0 F9000 X150.267 Y140.282
G1 F3600 X154.079 Y136.47 E33.75756
G0 F9000 X154.079 Y136.965
G1 F3600 X150.267 Y140.777 E33.8243
G0 F9000 X150.267 Y141.272
G1 F3600 X154.079 Y137.46 E33.89103
G0 F9000 X154.079 Y137.955
G1 F3600 X150.267 Y141.767 E33.95776
G0 F9000 X150.458 Y142.071
G1 F3600 X154.079 Y138.45 E34.02115
G0 F9000 X154.079 Y138.945
G1 F3600 X150.789 Y142.235 E34.07875
G0 F9000 X151.158 Y142.361
G1 F3600 X154.079 Y139.44 E34.12988
G0 F9000 X154.079 Y139.935
G1 F3600 X151.653 Y142.361 E34.17235
G0 F9000 X152.148 Y142.361
G1 F3600 X154.079 Y140.43 E34.20616
G0 F9000 X154.079 Y140.925
G1 F3600 X152.643 Y142.361 E34.2313
G0 F9000 X153.138 Y142.361
G1 F3600 X154.079 Y141.42 E34.24777
G0 F9000 X154.079 Y141.915
G1 F3600 X153.633 Y142.361 E34.25558
; LAYER:1
G0 F9000 X150.235 Y141.067 Z0.45
; TYPE:WALL-INNER
G1 F720 X147.766 Y141.067 E34.28003
G1 X147.766 Y133.934 E34.35067
G1 X150.235 Y133.934 E34.37512
G1 X150.235 Y141.067 E34.44576
G0 F9000 X149.885 Y140.717
G1 F720 X148.116 Y140.717 E34.46327
G1 X148.116 Y134.284 E34.52698
G1 X149.885 Y134.284 E34.5445
G1 X149.885 Y140.717 E34.6082
G0 F9000 X150.585 Y141.417
; TYPE:WALL-OUTER
G1 F600 X147.416 Y141.417 E34.63959
G1 X147.416 Y133.584 E34.71716
G1 X150.585 Y133.584 E34.74854
G1 X150.585 Y141.417 E34.82611
G0 F9000 X149.769 Y140.285
; TYPE:FILL
G1 F720 X149.452 Y140.602 E34.83055
G0 F9000 X148.958 Y140.601
G1 F720 X149.769 Y139.79 E34.84191
G0 F9000 X149.769 Y139.295
G1 F720 X148.463 Y140.601 E34.8602
G0 F9000 X148.23 Y140.34
G1 F720 X149.769 Y138.8 E34.88176
G0 F9000 X149.769 Y138.305
G1 F720 X148.23 Y139.845 E34.90332
G0 F9000 X148.23 Y139.35
G1 F720 X149.769 Y137.81 E34.92488
G0 F9000 X149.768 Y137.316
G1 F720 X148.23 Y138.855 E34.94643
G0 F9000 X148.23 Y138.36
G1 F720 X149.768 Y136.821 E34.96797
G0 F9000 X149.768 Y136.326
G1 F720 X148.23 Y137.865 E34.98952
G0 F9000 X148.23 Y137.37
G1 F720 X149.768 Y135.831 E35.01107
G0 F9000 X149.768 Y135.336
G1 F720 X148.23 Y136.875 E35.03261
G0 F9000 X148.23 Y136.38
G1 F720 X149.768 Y134.841 E35.05416
G0 F9000 X149.716 Y134.399
G1 F720 X148.23 Y135.885 E35.07497
G0 F9000 X148.23 Y135.39
G1 F720 X149.221 Y134.399 E35.08885
G0 F9000 X148.726 Y134.399
G1 F720 X148.23 Y134.895 E35.09579
G0 F9000 X148.23 Y134.4
G1 F720 X148.231 Y134.399 E35.09581
G0 F9000 X145.852 Y141.61
; TYPE:SUPPORT
G1 F720 X151.688 Y147.445 E35.17753
G0 F9000 X151.669 Y147.287
G0 X152.92 Y144.593
G0 X152.92 Y144.593
G0 X153.078 Y144.593
G1 F720 X150.717 Y142.232 E35.2106
G0 F9000 X150.717 Y142.392
G0 X147.559 Y147.401
G0 X147.559 Y147.401
G0 X147.559 Y147.559
G1 F720 X144.86 Y144.86 E35.2484
G0 F9000 X159.458 Y142.488
G1 F720 X159.931 Y142.96 E35.25502
G0 F9000 X159.931 Y142.801
G0 X161.32 Y140.311
G0 X161.32 Y140.311
G0 X161.479 Y140.265
G1 F720 X161.453 Y140.24 E35.25537
G0 F9000 X161.173 Y139.96
G1 F720 X159.859 Y138.645 E35.27378
G0 F9000 X159.859 Y137.601
G0 X161.32 Y136.023
G0 X161.32 Y136.023
G0 X161.479 Y136.023
G1 F720 X160.296 Y134.841 E35.29034
G0 F9000 X153.079 Y131.866
G1 F720 X148.653 Y127.44 E35.35233
G0 F9000 X148.653 Y127.601
G0 X145.02 Y127.888
G0 X145.02 Y127.888
G0 X144.859 Y127.888
G1 F720 X149.739 Y132.768 E35.42067
G0 F9000 X149.739 Y132.609
G0 X149.392 Y132.672
G0 X146.4 Y132.568
G0 X146.172 Y133.267
G0 X146.153 Y133.425
G1 F720 X144.859 Y132.131 E35.4388
G0 F9000 X138.078 Y133.836
G1 F720 X137.883 Y133.641 E35.44153
G0 F9000 X136.659 Y140.902
G1 F720 X136.717 Y140.96 E35.44234
G0 F9000 X151.399 Y141.13
; TYPE:SUPPORT-INTERFACE
G1 F720 X154.079 Y138.45 E35.47987
G0 F9000 X154.079 Y137.955
G1 F720 X151.399 Y140.635 E35.51741
G0 F9000 X151.399 Y140.14
G1 F720 X154.079 Y137.46 E35.55494
G0 F9000 X154.079 Y136.965
G1 F720 X151.399 Y139.645 E35.59247
G0 F9000 X151.399 Y139.15
G1 F720 X154.079 Y136.47 E35.63001
G0 F9000 X154.079 Y135.975
G1 F720 X151.399 Y138.655 E35.66754
G0 F9000 X151.399 Y138.16
G1 F720 X154.079 Y135.48 E35.70507
G0 F9000 X154.079 Y134.985
G1 F720 X151.399 Y137.665 E35.74261
G0 F9000 X151.399 Y137.17
G1 F720 X154.079 Y134.491 E35.78013
G0 F9000 X154.079 Y133.996
G1 F720 X151.399 Y136.675 E35.81766
G0 F9000 X151.399 Y136.18
G1 F720 X154.079 Y133.501 E35.85518
G0 F9000 X154.079 Y133.006
G1 F720 X151.399 Y135.686 E35.89272
G0 F9000 X151.399 Y135.191
G1 F720 X153.949 Y132.641 E35.92843
G0 F9000 X153.454 Y132.641
G1 F720 X151.399 Y134.696 E35.95721
G0 F9000 X151.399 Y134.201
G1 F720 X152.959 Y132.641 E35.97906
G0 F9000 X152.464 Y132.641
G1 F720 X151.399 Y133.706 E35.99397
G0 F9000 X151.399 Y133.211
G1 F720 X151.969 Y132.641 E36.00196
G0 F9000 X151.474 Y132.641
G1 F720 X151.399 Y132.716 E36.00301
G0 F9000 X151.56 Y132.716
G0 X153.92 Y138.945
G0 X153.92 Y138.945
G0 X154.079 Y138.945
G1 F720 X151.399 Y141.625 E36.04054
G0 F9000 X151.399 Y142.12
G1 F720 X154.079 Y139.44 E36.07807
G0 F9000 X154.079 Y139.935
G1 F720 X151.653 Y142.361 E36.11205
G0 F9000 X152.148 Y142.361
G1 F720 X154.079 Y140.43 E36.13909
G0 F9000 X154.079 Y140.925
G1 F720 X152.643 Y142.361 E36.1592
G0 F9000 X153.138 Y142.361
G1 F720 X154.079 Y141.42 E36.17238
G0 F9000 X154.079 Y141.915
G1 F720 X153.633 Y142.361 E36.17863
G0 F9000 X146.6 Y141.97
G1 F720 X146.209 Y142.36 E36.1841
G0 F9000 X145.714 Y142.36
G1 F720 X146.6 Y141.475 E36.1965
G0 F9000 X146.6 Y140.98
G1 F720 X145.219 Y142.361 E36.21584
G0 F9000 X144.724 Y142.361
G1 F720 X146.6 Y140.485 E36.24211
G0 F9000 X146.6 Y139.99
G1 F720 X144.229 Y142.361 E36.27532
G0 F9000 X143.858 Y142.236
G1 F720 X146.6 Y139.495 E36.31371
G0 F9000 X146.6 Y139
G1 F720 X143.858 Y141.741 E36.35211
G0 F9000 X143.858 Y141.246
G1 F720 X146.6 Y138.505 E36.3905
G0 F9000 X146.6 Y138.01
G1 F720 X143.858 Y140.751 E36.4289
G0 F9000 X143.858 Y140.256
G1 F720 X146.6 Y137.515 E36.46729
G0 F9000 X146.6 Y137.02
G1 F720 X143.858 Y139.761 E36.50568
G0 F9000 X143.858 Y139.266
G1 F720 X146.6 Y136.525 E36.54408
G0 F9000 X146.6 Y136.03
G1 F720 X143.858 Y138.771 E36.58247
G0 F9000 X143.858 Y138.276
G1 F720 X146.6 Y135.535 E36.62087
G0 F9000 X146.6 Y135.04
G1 F720 X143.858 Y137.781 E36.65926
G0 F9000 X143.859 Y137.286
G1 F720 X146.6 Y134.545 E36.69765
G0 F9000 X146.6 Y134.05
G1 F720 X143.859 Y136.791 E36.73604
G0 F9000 X143.859 Y136.296
G1 F720 X146.6 Y133.555 E36.77442
G0 F9000 X146.6 Y133.06
G1 F720 X143.859 Y135.801 E36.81281
G0 F9000 X143.859 Y135.306
G1 F720 X146.525 Y132.64 E36.85015
G0 F9000 X146.03 Y132.64
G1 F720 X143.859 Y134.811 E36.88055
G0 F9000 X143.859 Y134.316
G1 F720 X145.535 Y132.64 E36.90403
G0 F9000 X145.04 Y132.64
G1 F720 X143.859 Y133.821 E36.92057
G0 F9000 X143.859 Y133.326
G1 F720 X144.545 Y132.64 E36.93017
G0 F9000 X144.05 Y132.64
G1 F720 X143.859 Y132.831 E36.93285
; LAYER:2
M106 S255
G0 F9000 X146.76 Y133.881 Z0.65
; TYPE:WALL-INNER
G1 F720 X151.24 Y133.881 E36.97721
G1 X151.24 Y141.12 E37.0489
G1 X146.76 Y141.12 E37.09327
G1 X146.76 Y133.881 E37.16495
G0 F9000 X147.11 Y134.231
G1 F720 X150.89 Y134.231 E37.20239
G1 X150.89 Y140.77 E37.26714
G1 X147.11 Y140.77 E37.30458
G1 X147.11 Y134.231 E37.36933
G0 F9000 X146.41 Y133.531
; TYPE:WALL-OUTER
G1 F600 X151.59 Y133.531 E37.42063
G1 X151.59 Y141.47 E37.49925
G1 X146.41 Y141.47 E37.55055
G1 X146.41 Y133.531 E37.62917
G0 F9000 X147.223 Y134.354
; TYPE:FILL
G1 F720 X150.774 Y137.904 E37.67889
G0 F9000 X150.774 Y137.409
G1 F720 X147.71 Y134.346 E37.72179
G0 F9000 X148.205 Y134.346
G1 F720 X150.774 Y136.914 E37.75777
G0 F9000 X150.774 Y136.419
G1 F720 X148.7 Y134.346 E37.78681
G0 F9000 X149.194 Y134.345
G1 F720 X150.774 Y135.925 E37.80893
G0 F9000 X150.774 Y135.43
G1 F720 X149.689 Y134.345 E37.82413
G0 F9000 X150.184 Y134.345
G1 F720 X150.774 Y134.935 E37.83239
G0 F9000 X150.774 Y134.44
G1 F720 X150.679 Y134.345 E37.83372
G0 F9000 X147.223 Y134.849
G1 F720 X150.774 Y138.399 E37.88345
G0 F9000 X150.774 Y138.894
G1 F720 X147.223 Y135.344 E37.93317
G0 F9000 X147.223 Y135.839
G1 F720 X150.774 Y139.389 E37.9829
G0 F9000 X150.774 Y139.884
G1 F720 X147.223 Y136.334 E38.03262
G0 F9000 X147.223 Y136.829
G1 F720 X150.774 Y140.379 E38.08234
G0 F9000 X150.555 Y140.655
G1 F720 X147.223 Y137.324 E38.129
G0 F9000 X147.223 Y137.819
G1 F720 X150.06 Y140.655 E38.16873
G0 F9000 X149.565 Y140.655
G1 F720 X147.223 Y138.314 E38.20152
G0 F9000 X147.223 Y138.809
G1 F720 X149.07 Y140.655 E38.22738
G0 F9000 X148.574 Y140.654
G1 F720 X147.223 Y139.304 E38.24629
G0 F9000 X147.223 Y139.799
G1 F720 X148.079 Y140.654 E38.25827
G0 F9000 X147.584 Y140.654
G1 F720 X147.223 Y140.294 E38.26332
G0 F9000 X145.443 Y132.715
; TYPE:SUPPORT
G1 F720 X144.859 Y132.131 E38.2715
G0 F9000 X145.02 Y132.131
G0 X145.02 Y127.888
G0 X145.02 Y127.888
G0 X144.859 Y127.888
G1 F720 X149.686 Y132.716 E38.33911
G0 F9000 X149.686 Y132.556
G0 X152.92 Y131.866
G0 X152.92 Y131.866
G0 X153.079 Y131.866
G1 F720 X148.653 Y127.44 E38.4011
G0 F9000 X138.078 Y133.836
G1 F720 X137.883 Y133.641 E38.40383
G0 F9000 X136.659 Y140.902
G1 F720 X136.717 Y140.96 E38.40464
G0 F9000 X144.86 Y144.86
G1 F720 X147.559 Y147.559 E38.44244
G0 F9000 X147.559 Y147.401
G0 X151.669 Y147.287
G0 X151.669 Y147.287
G0 X151.688 Y147.445
G1 F720 X146.528 Y142.285 E38.5147
G0 F9000 X146.528 Y142.445
G0 X150.77 Y142.445
G0 X150.77 Y142.445
G0 X150.77 Y142.284
G1 F720 X153.079 Y144.594 E38.54705
G0 F9000 X159.458 Y142.488
G1 F720 X159.931 Y142.96 E38.55367
G0 F9000 X159.931 Y142.801
G0 X161.32 Y140.311
G0 X161.32 Y140.311
G0 X161.479 Y140.265
G1 F720 X161.453 Y140.24 E38.55402
G0 F9000 X161.173 Y139.96
G1 F720 X159.859 Y138.645 E38.57243
G0 F9000 X159.859 Y137.601
G0 X161.32 Y136.023
G0 X161.32 Y136.023
G0 X161.479 Y136.023
G1 F720 X160.296 Y134.841 E38.58899
G0 F9000 X145.593 Y135.056
; TYPE:SUPPORT-INTERFACE
G1 F720 X143.859 Y136.791 E38.61328
G0 F9000 X143.859 Y136.296
G1 F720 X145.593 Y134.561 E38.63758
G0 F9000 X145.593 Y134.066
G1 F720 X143.859 Y135.801 E38.66187
G0 F9000 X143.859 Y135.306
G1 F720 X145.593 Y133.571 E38.68616
G0 F9000 X145.593 Y133.076
G1 F720 X143.859 Y134.811 E38.71045
G0 F9000 X143.859 Y134.316
G1 F720 X145.534 Y132.641 E38.73391
G0 F9000 X145.039 Y132.641
G1 F720 X143.859 Y133.821 E38.75044
G0 F9000 X143.859 Y133.326
G1 F720 X144.545 Y132.64 E38.76004
G0 F9000 X144.05 Y132.64
G1 F720 X143.859 Y132.831 E38.76272
G0 F9000 X144.02 Y132.831
G0 X145.435 Y135.551
G0 X145.435 Y135.551
G0 X145.593 Y135.551
G1 F720 X143.859 Y137.286 E38.78701
G0 F9000 X143.858 Y137.781
G1 F720 X145.593 Y136.046 E38.81131
G0 F9000 X145.593 Y136.541
G1 F720 X143.858 Y138.276 E38.83561
G0 F9000 X143.858 Y138.771
G1 F720 X145.593 Y137.036 E38.8599
G0 F9000 X145.593 Y137.531
G1 F720 X143.858 Y139.266 E38.8842
G0 F9000 X143.858 Y139.761
G1 F720 X145.593 Y138.026 E38.9085
G0 F9000 X145.593 Y138.521
G1 F720 X143.858 Y140.256 E38.9328
G0 F9000 X143.858 Y140.751
G1 F720 X145.593 Y139.016 E38.9571
G0 F9000 X145.593 Y139.511
G1 F720 X143.858 Y141.246 E38.9814
G0 F9000 X143.858 Y141.741
G1 F720 X145.593 Y140.006 E39.0057
G0 F9000 X145.593 Y140.501
G1 F720 X143.858 Y142.236 E39.02999
G0 F9000 X144.229 Y142.361
G1 F720 X145.593 Y140.996 E39.0491
G0 F9000 X145.593 Y141.491
G1 F720 X144.724 Y142.361 E39.06128
G0 F9000 X145.219 Y142.361
G1 F720 X145.593 Y141.986 E39.06653
G0 F9000 X152.404 Y142.105
G1 F720 X154.079 Y140.43 E39.08998
G0 F9000 X154.079 Y139.935
G1 F720 X152.404 Y141.61 E39.11344
G0 F9000 X152.404 Y141.115
G1 F720 X154.079 Y139.44 E39.1369
G0 F9000 X154.079 Y138.945
G1 F720 X152.404 Y140.62 E39.16036
G0 F9000 X152.404 Y140.125
G1 F720 X154.079 Y138.45 E39.18382
G0 F9000 X154.079 Y137.955
G1 F720 X152.404 Y139.63 E39.20728
G0 F9000 X152.404 Y139.135
G1 F720 X154.079 Y137.46 E39.23073
G0 F9000 X154.079 Y136.965
G1 F720 X152.404 Y138.64 E39.25419
G0 F9000 X152.404 Y138.145
G1 F720 X154.079 Y136.47 E39.27765
G0 F9000 X154.079 Y135.975
G1 F720 X152.404 Y137.65 E39.30111
G0 F9000 X152.404 Y137.156
G1 F720 X154.079 Y135.48 E39.32457
G0 F9000 X154.079 Y134.985
G1 F720 X152.404 Y136.661 E39.34804
G0 F9000 X152.404 Y136.166
G1 F720 X154.079 Y134.491 E39.3715
G0 F9000 X154.079 Y133.996
G1 F720 X152.404 Y135.671 E39.39496
G0 F9000 X152.404 Y135.176
G1 F720 X154.079 Y133.501 E39.41841
G0 F9000 X154.079 Y133.006
G1 F720 X152.404 Y134.681 E39.44187
G0 F9000 X152.404 Y134.186
G1 F720 X153.949 Y132.641 E39.46351
G0 F9000 X153.454 Y132.641
G1 F720 X152.404 Y133.691 E39.47821
G0 F9000 X152.404 Y133.196
G1 F720 X152.959 Y132.64 E39.48599
G0 F9000 X152.464 Y132.64
G1 F720 X152.404 Y132.701 E39.48684
G0 F9000 X152.428 Y132.835
G0 X152.501 Y133.228
G0 X153.92 Y140.925
G0 X154.079 Y140.925
G1 F720 X152.643 Y142.361 E39.50695
G0 F9000 X153.138 Y142.361
G1 F720 X154.079 Y141.42 E39.52013
G0 F9000 X154.079 Y141.915
G1 F720 X153.633 Y142.361 E39.52638
; LAYER:3
G0 F9000 X152.321 Y141.338 Z0.85
G0 X152.246 Y141.173
G0 X152.246 Y141.173
; TYPE:WALL-INNER
G1 F720 X145.755 Y141.173 E39.59066
G1 X145.755 Y133.828 E39.6634
G1 X152.246 Y133.828 E39.72768
G1 X152.246 Y141.173 E39.80041
G0 F9000 X151.896 Y140.823
G1 F720 X146.105 Y140.823 E39.85776
G1 X146.105 Y134.178 E39.92357
G1 X151.896 Y134.178 E39.98091
G1 X151.896 Y140.823 E40.04672
G0 F9000 X152.596 Y141.523
; TYPE:WALL-OUTER
G1 F600 X145.405 Y141.523 E40.11793
G1 X145.405 Y133.478 E40.1976
G1 X152.596 Y133.478 E40.26881
G1 X152.596 Y141.523 E40.34848
G0 F9000 X152.321 Y141.338
G0 X151.779 Y140.255
G0 X151.779 Y140.255
; TYPE:FILL
G1 F720 X151.327 Y140.707 E40.35481
G0 F9000 X150.832 Y140.707
G1 F720 X151.779 Y139.76 E40.36808
G0 F9000 X151.779 Y139.265
G1 F720 X150.337 Y140.707 E40.38827
G0 F9000 X149.842 Y140.707
G1 F720 X151.779 Y138.77 E40.4154
G0 F9000 X151.779 Y138.275
G1 F720 X149.347 Y140.707 E40.44946
G0 F9000 X149.217 Y140.343
G1 F720 X151.779 Y137.78 E40.48535
G0 F9000 X151.779 Y137.285
G1 F720 X149.217 Y139.848 E40.52123
G0 F9000 X149.337 Y139.437
G1 F720 X148.661 Y138.761 E40.5307
G0 F9000 X148.781 Y138.798
G1 F720 X146.872 Y140.707 E40.55744
G0 F9000 X146.377 Y140.707
G1 F720 X148.781 Y138.303 E40.5911
G0 F9000 X149.217 Y138.363
G1 F720 X151.779 Y135.8 E40.62699
G0 F9000 X151.779 Y135.305
G1 F720 X149.217 Y137.868 E40.66288
G0 F9000 X149.337 Y137.535
G1 F720 X148.661 Y137.716 E40.66981
G0 F9000 X148.781 Y137.808
G1 F720 X146.219 Y140.371 E40.7057
G0 F9000 X146.219 Y139.876
G1 F720 X148.781 Y137.313 E40.74159
G0 F9000 X149.217 Y137.373
G1 F720 X151.779 Y134.81 E40.77747
G0 F9000 X151.779 Y134.315
G1 F720 X149.217 Y136.878 E40.81336
G0 F9000 X148.781 Y136.818
G1 F720 X146.219 Y139.381 E40.84925
G0 F9000 X146.219 Y138.886
G1 F720 X148.781 Y136.323 E40.88514
G0 F9000 X149.217 Y136.383
G1 F720 X151.307 Y134.293 E40.91441
G0 F9000 X150.812 Y134.293
G1 F720 X149.217 Y135.888 E40.93674
G0 F9000 X148.781 Y135.828
G1 F720 X146.219 Y138.391 E40.97263
G0 F9000 X146.219 Y137.896
G1 F720 X148.781 Y135.333 E41.00852
G0 F9000 X149.217 Y135.393
G1 F720 X150.317 Y134.293 E41.02392
G0 F9000 X149.822 Y134.293
G1 F720 X149.217 Y134.898 E41.0324
G0 F9000 X149.337 Y134.488
G1 F720 X149.179 Y134.348 E41.03512
G1 X149.07 Y134.292 E41.03666
G1 X148.662 Y134.856 E41.04355
G0 F9000 X148.781 Y134.838
G1 F720 X146.219 Y137.401 E41.07944
G0 F9000 X146.219 Y136.906
G1 F720 X148.781 Y134.343 E41.11533
G0 F9000 X148.337 Y134.293
G1 F720 X146.219 Y136.411 E41.14499
G0 F9000 X146.219 Y135.916
G1 F720 X147.842 Y134.293 E41.16772
G0 F9000 X147.347 Y134.293
G1 F720 X146.219 Y135.421 E41.18352
G0 F9000 X146.219 Y134.926
G1 F720 X146.852 Y134.293 E41.19238
G0 F9000 X146.357 Y134.293
G1 F720 X146.219 Y134.431 E41.19432
G0 F9000 X149.217 Y138.858
G1 F720 X151.779 Y136.295 E41.2302
G0 F9000 X151.779 Y136.79
G1 F720 X149.217 Y139.353 E41.26609
G0 F9000 X148.781 Y139.293
G1 F720 X147.367 Y140.707 E41.28589
G0 F9000 X147.862 Y140.707
G1 F720 X148.781 Y139.788 E41.29877
G0 F9000 X148.781 Y140.283
G1 F720 X148.357 Y140.707 E41.3047
G0 F9000 X148.357 Y142.498
G0 X146.58 Y142.498
G0 X146.58 Y142.498
G0 X146.58 Y142.337
; TYPE:SUPPORT
G1 F720 X151.688 Y147.445 E41.37624
G0 F9000 X151.669 Y147.287
G0 X152.92 Y144.594
G0 X152.92 Y144.594
G0 X153.079 Y144.594
G1 F720 X150.823 Y142.338 E41.40784
G0 F9000 X150.823 Y142.498
G0 X147.559 Y147.401
G0 X147.559 Y147.401
G0 X147.559 Y147.559
G1 F720 X144.86 Y144.86 E41.44564
G0 F9000 X159.458 Y142.488
G1 F720 X159.931 Y142.96 E41.45225
G0 F9000 X159.931 Y142.801
G0 X161.32 Y140.311
G0 X161.32 Y140.311
G0 X161.479 Y140.265
G1 F720 X161.453 Y140.24 E41.45261
G0 F9000 X161.173 Y139.96
G1 F720 X159.859 Y138.645 E41.47102
G0 F9000 X159.859 Y137.601
G0 X161.32 Y136.023
G0 X161.32 Y136.023
G0 X161.479 Y136.023
G1 F720 X160.296 Y134.841 E41.48758
G0 F9000 X153.078 Y131.865
G1 F720 X148.653 Y127.44 E41.54955
G0 F9000 X148.653 Y127.601
G0 X145.02 Y127.888
G0 X145.02 Y127.888
G0 X144.859 Y127.888
G1 F720 X149.633 Y132.663 E41.61642
G0 F9000 X149.633 Y132.503
G0 X145.391 Y132.503
G0 X145.391 Y132.503
G0 X145.391 Y132.663
G1 F720 X144.859 Y132.131 E41.62387
G0 F9000 X138.078 Y133.836
G1 F720 X137.883 Y133.641 E41.6266
G0 F9000 X136.659 Y140.902
G1 F720 X136.717 Y140.96 E41.62741
; LAYER:4
G0 F9000 X145.057 Y141.226 Z1.05
; TYPE:WALL-INNER
G1 F720 X145.057 Y133.775 E41.7012
G1 X152.944 Y133.775 E41.7793
G1 X152.944 Y141.226 E41.85309
G1 X145.057 Y141.226 E41.9312
G0 F9000 X145.407 Y140.876
G1 F720 X145.407 Y134.125 E41.99805
G1 X152.594 Y134.125 E42.06922
G1 X152.594 Y140.876 E42.13608
G1 X145.407 Y140.876 E42.20725
G0 F9000 X144.707 Y141.576
; TYPE:WALL-OUTER
G1 F600 X144.707 Y133.425 E42.28797
G1 X153.294 Y133.425 E42.37301
G1 X153.294 Y141.576 E42.45373
G1 X144.707 Y141.576 E42.53876
G0 F9000 X145.71 Y140.76
; TYPE:FILL
G1 F720 X145.521 Y140.571 E42.54141
G0 F9000 X145.521 Y140.076
G1 F720 X146.205 Y140.76 E42.55099
G0 F9000 X146.7 Y140.76
G1 F720 X145.521 Y139.581 E42.5675
G0 F9000 X145.521 Y139.086
G1 F720 X147.195 Y140.76 E42.59095
G0 F9000 X147.69 Y140.76
G1 F720 X145.521 Y138.591 E42.62132
G0 F9000 X145.521 Y138.096
G1 F720 X148.175 Y140.751 E42.6585
G0 F9000 X148.175 Y140.256
G1 F720 X145.521 Y137.601 E42.69567
G0 F9000 X145.521 Y137.106
G1 F720 X148.175 Y139.761 E42.73285
G0 F9000 X148.175 Y139.266
G1 F720 X145.521 Y136.611 E42.77003
G0 F9000 X145.521 Y136.116
G1 F720 X148.175 Y138.771 E42.8072
G0 F9000 X148.175 Y138.276
G1 F720 X145.521 Y135.621 E42.84438
G0 F9000 X145.521 Y135.126
G1 F720 X148.175 Y137.781 E42.88155
G0 F9000 X147.704 Y137.805
G1 F720 X150.294 Y140.394 E42.91782
G0 F9000 X150.165 Y140.76
G1 F720 X149.824 Y140.42 E42.92259
G0 F9000 X149.824 Y139.925
G1 F720 X150.66 Y140.76 E42.93429
G0 F9000 X151.155 Y140.76
G1 F720 X149.824 Y139.43 E42.95292
G0 F9000 X149.824 Y138.935
G1 F720 X151.65 Y140.76 E42.97849
G0 F9000 X152.145 Y140.76
G1 F720 X149.824 Y138.44 E43.01099
G0 F9000 X149.824 Y137.945
G1 F720 X152.477 Y140.598 E43.04814
G0 F9000 X152.477 Y140.103
G1 F720 X149.824 Y137.45 E43.0853
G0 F9000 X149.824 Y136.955
G1 F720 X152.477 Y139.608 E43.12245
G0 F9000 X152.477 Y139.113
G1 F720 X149.824 Y136.46 E43.15961
G0 F9000 X149.824 Y135.965
G1 F720 X152.477 Y138.618 E43.19676
G0 F9000 X152.477 Y138.123
G1 F720 X149.824 Y135.47 E43.23392
G0 F9000 X150.294 Y135.444
G1 F720 X149.089 Y134.239 E43.25079
G0 F9000 X148.827 Y134.239
G1 F720 X147.705 Y138.426 E43.29372
G0 F9000 X147.705 Y137.972
G1 F720 X150.294 Y137.278 E43.32026
G0 F9000 X148.175 Y137.286
G1 F720 X145.521 Y134.631 E43.35744
G0 F9000 X145.624 Y134.239
G1 F720 X148.175 Y136.791 E43.39317
G0 F9000 X148.175 Y136.296
G1 F720 X146.119 Y134.239 E43.42198
G0 F9000 X146.614 Y134.239
G1 F720 X148.175 Y135.801 E43.44384
G0 F9000 X148.175 Y135.306
G1 F720 X147.109 Y134.239 E43.45878
G0 F9000 X147.604 Y134.239
G1 F720 X148.175 Y134.811 E43.46678
G0 F9000 X148.175 Y134.316
G1 F720 X148.105 Y134.239 E43.46785
G1 X147.705 Y134.348 E43.47196
G0 F9000 X149.824 Y134.48
G1 F720 X152.477 Y137.133 E43.50911
G0 F9000 X152.477 Y136.638
G1 F720 X150.079 Y134.239 E43.5427
G0 F9000 X150.574 Y134.239
G1 F720 X152.477 Y136.143 E43.56936
G0 F9000 X152.477 Y135.648
G1 F720 X151.069 Y134.239 E43.58909
G0 F9000 X151.564 Y134.239
G1 F720 X152.477 Y135.153 E43.60188
G0 F9000 X152.477 Y134.658
G1 F720 X152.059 Y134.239 E43.60774
G0 F9000 X149.824 Y134.975
G1 F720 X152.477 Y137.628 E43.6449
G0 F9000 X136.717 Y140.96
; TYPE:SUPPORT
G1 F720 X136.659 Y140.902 E43.64571
G0 F9000 X138.078 Y133.836
G1 F720 X137.883 Y133.641 E43.64844
G0 F9000 X144.859 Y132.131
G1 F720 X145.337 Y132.609 E43.65514
G0 F9000 X145.337 Y132.45
G0 X149.58 Y132.45
G0 X149.58 Y132.45
G0 X149.58 Y132.61
G1 F720 X144.859 Y127.888 E43.72126
G0 F9000 X145.02 Y127.888
G0 X148.653 Y127.601
G0 X148.653 Y127.601
G0 X148.653 Y127.44
G1 F720 X153.079 Y131.866 E43.78325
G0 F9000 X150.876 Y142.39
G1 F720 X153.079 Y144.594 E43.81411
G0 F9000 X152.92 Y144.594
G0 X151.669 Y147.287
G0 X151.669 Y147.287
G0 X151.688 Y147.445
G1 F720 X146.634 Y142.391 E43.88489
G0 F9000 X146.634 Y142.551
G0 X145.02 Y144.86
G0 X145.02 Y144.86
G0 X144.86 Y144.86
G1 F720 X147.559 Y147.559 E43.92269
G0 F9000 X159.458 Y142.488
G1 F720 X159.931 Y142.96 E43.9293
G0 F9000 X159.931 Y142.801
G0 X161.32 Y140.311
G0 X161.32 Y140.311
G0 X161.479 Y140.265
G1 F720 X161.453 Y140.24 E43.92966
G0 F9000 X161.173 Y139.96
G1 F720 X159.859 Y138.645 E43.94807
G0 F9000 X159.859 Y137.601
G0 X161.32 Y136.023
G0 X161.32 Y136.023
G0 X161.479 Y136.023
G1 F720 X160.296 Y134.841 E43.96463
; LAYER:5
G0 F9000 X153.243 Y133.722 Z1.25
; TYPE:WALL-INNER
G1 F720 X153.243 Y141.279 E44.03947
G1 X144.758 Y141.279 E44.12349
G1 X144.758 Y133.722 E44.19833
G1 X153.243 Y133.722 E44.28236
G0 F9000 X152.893 Y134.072
G1 F720 X152.893 Y140.929 E44.35026
G1 X145.108 Y140.929 E44.42736
G1 X145.108 Y134.072 E44.49526
G1 X152.893 Y134.072 E44.57236
G0 F9000 X153.593 Y133.372
; TYPE:WALL-OUTER
G1 F600 X153.593 Y141.629 E44.65413
G1 X144.408 Y141.629 E44.74508
G1 X144.408 Y133.372 E44.82685
G1 X153.593 Y133.372 E44.91781
G0 F9000 X152.776 Y134.308
; TYPE:FILL
G1 F720 X150.829 Y136.255 E44.94508
G0 F9000 X150.829 Y135.76
G1 F720 X152.403 Y134.186 E44.96712
G0 F9000 X151.908 Y134.186
G1 F720 X150.829 Y135.265 E44.98223
G0 F9000 X150.829 Y134.771
G1 F720 X151.413 Y134.186 E44.99042
G0 F9000 X150.918 Y134.186
G1 F720 X150.829 Y134.276 E44.99167
G0 F9000 X149.036 Y134.186
G1 F720 X151.298 Y136.449 E45.02336
G0 F9000 X150.829 Y136.75
G1 F720 X152.776 Y134.803 E45.05063
G0 F9000 X152.776 Y135.298
G1 F720 X150.829 Y137.245 E45.0779
G0 F9000 X150.829 Y137.74
G1 F720 X152.776 Y135.793 E45.10516
G0 F9000 X152.776 Y136.288
G1 F720 X150.829 Y138.235 E45.13243
G0 F9000 X150.829 Y138.73
G1 F720 X152.776 Y136.783 E45.1597
G0 F9000 X152.776 Y137.278
G1 F720 X150.829 Y139.225 E45.18697
G0 F9000 X150.829 Y139.72
G1 F720 X152.776 Y137.773 E45.21423
G0 F9000 X152.776 Y138.268
G1 F720 X150.829 Y140.215 E45.2415
G0 F9000 X150.829 Y140.71
G1 F720 X152.776 Y138.763 E45.26877
G0 F9000 X152.776 Y139.258
G1 F720 X151.221 Y140.813 E45.29055
G0 F9000 X151.299 Y140.632
G1 F720 X150.623 Y140.813 E45.29748
G0 F9000 X150.689 Y140.813
G1 F720 X151.299 Y138.537 E45.32081
G0 F9000 X151.3 Y137.009
G1 F720 X146.699 Y138.241 E45.36798
G0 F9000 X147.169 Y138.431
G1 F720 X145.222 Y140.378 E45.39525
G0 F9000 X145.281 Y140.813
G1 F720 X147.169 Y138.925 E45.42169
G0 F9000 X147.169 Y139.42
G1 F720 X145.776 Y140.813 E45.4412
G0 F9000 X146.271 Y140.813
G1 F720 X147.169 Y139.915 E45.45377
G0 F9000 X147.169 Y140.41
G1 F720 X146.766 Y140.813 E45.45942
G0 F9000 X147.065 Y140.813
G1 F720 X148.841 Y134.186 E45.52736
G0 F9000 X148.31 Y134.186
G1 F720 X146.699 Y134.618 E45.54388
G0 F9000 X146.463 Y134.186
G1 F720 X145.222 Y135.428 E45.56126
G0 F9000 X145.222 Y135.923
G1 F720 X146.958 Y134.186 E45.58558
G0 F9000 X147.169 Y134.471
G1 F720 X145.222 Y136.418 E45.61285
G0 F9000 X145.222 Y136.913
G1 F720 X147.169 Y134.966 E45.64012
G0 F9000 X147.169 Y135.461
G1 F720 X145.222 Y137.408 E45.66739
G0 F9000 X145.222 Y137.903
G1 F720 X147.169 Y135.956 E45.69465
G0 F9000 X147.169 Y136.451
G1 F720 X145.222 Y138.398 E45.72192
G0 F9000 X145.222 Y138.893
G1 F720 X147.169 Y136.946 E45.74919
G0 F9000 X146.699 Y136.8
G1 F720 X150.713 Y140.813 E45.8054
G0 F9000 X151.716 Y140.813
G1 F720 X152.776 Y139.753 E45.82024
G0 F9000 X152.776 Y140.248
G1 F720 X152.211 Y140.813 E45.82816
G0 F9000 X152.706 Y140.813
G1 F720 X152.776 Y140.743 E45.82914
G0 F9000 X147.169 Y137.936
G1 F720 X145.222 Y139.883 E45.8564
G0 F9000 X145.222 Y139.388
G1 F720 X147.169 Y137.441 E45.88367
G0 F9000 X145.222 Y134.933
G1 F720 X145.968 Y134.186 E45.89413
G0 F9000 X145.473 Y134.186
G1 F720 X145.222 Y134.438 E45.89765
G0 F9000 X160.296 Y134.841
; TYPE:SUPPORT
G1 F720 X161.479 Y136.023 E45.91421
G0 F9000 X159.859 Y138.645
G1 F720 X161.173 Y139.96 E45.93262
G0 F9000 X161.453 Y140.24
G1 F720 X161.479 Y140.265 E45.93298
G0 F9000 X161.32 Y140.311
G0 X159.62 Y142.488
G0 X159.62 Y142.488
G0 X159.458 Y142.488
G1 F720 X159.931 Y142.96 E45.93959
G0 F9000 X153.079 Y144.594
G1 F720 X150.929 Y142.444 E45.9697
G0 F9000 X150.929 Y142.604
G0 X146.686 Y142.604
G0 X146.686 Y142.604
G0 X146.686 Y142.443
G1 F720 X151.688 Y147.445 E46.03976
G0 F9000 X151.669 Y147.287
G0 X147.559 Y147.401
G0 X147.559 Y147.401
G0 X147.559 Y147.559
G1 F720 X144.859 Y144.859 E46.07757
G0 F9000 X145.284 Y132.557
G1 F720 X144.859 Y132.131 E46.08353
G0 F9000 X145.02 Y132.131
G0 X145.02 Y127.888
G0 X145.02 Y127.888
G0 X144.859 Y127.888
G1 F720 X149.527 Y132.557 E46.14891
G0 F9000 X149.527 Y132.397
G0 X152.92 Y131.865
G0 X152.92 Y131.865
G0 X153.078 Y131.865
G1 F720 X148.653 Y127.44 E46.21088
G0 F9000 X138.078 Y133.836
G1 F720 X137.883 Y133.641 E46.21361
G0 F9000 X136.659 Y140.902
G1 F720 X136.717 Y140.96 E46.21443
; LAYER:6
G0 F9000 X144.458 Y141.332 Z1.45
; TYPE:WALL-INNER
G1 F720 X144.458 Y133.669 E46.29031
G1 X153.543 Y133.669 E46.38028
G1 X153.543 Y141.332 E46.45617
G1 X144.458 Y141.332 E46.54614
G0 F9000 X144.808 Y140.982
G1 F720 X144.808 Y134.019 E46.61509
G1 X153.193 Y134.019 E46.69813
G1 X153.193 Y140.982 E46.76708
G1 X144.808 Y140.982 E46.85012
G0 F9000 X144.108 Y141.682
; TYPE:WALL-OUTER
G1 F600 X144.108 Y133.319 E46.93294
G1 X153.893 Y133.319 E47.02984
G1 X153.893 Y141.682 E47.11266
G1 X144.108 Y141.682 E47.20956
G0 F9000 X144.922 Y140.468
; TYPE:FILL
G1 F720 X145.507 Y140.804 E47.21513
G1 X145.816 Y140.866 E47.21825
G0 F9000 X145.816 Y140.866
G1 F720 X144.922 Y139.973 E47.23076
G0 F9000 X144.922 Y139.478
G1 F720 X146.164 Y140.719 E47.24815
G0 F9000 X146.164 Y140.224
G1 F720 X144.922 Y138.983 E47.26554
G0 F9000 X144.922 Y138.488
G1 F720 X146.164 Y139.729 E47.28293
G0 F9000 X146.164 Y139.234
G1 F720 X144.922 Y137.993 E47.30031
G0 F9000 X144.922 Y137.497
G1 F720 X146.164 Y138.74 E47.31771
G0 F9000 X146.164 Y138.245
G1 F720 X144.922 Y137.002 E47.33512
G0 F9000 X144.922 Y136.507
G1 F720 X146.164 Y137.75 E47.35252
G0 F9000 X146.164 Y137.255
G1 F720 X144.922 Y136.012 E47.36992
G0 F9000 X144.922 Y135.517
G1 F720 X146.164 Y136.76 E47.38732
G0 F9000 X146.164 Y136.265
G1 F720 X144.922 Y135.022 E47.40472
G0 F9000 X144.922 Y134.527
G1 F720 X146.164 Y135.77 E47.42212
G0 F9000 X145.693 Y135.794
G1 F720 X150.766 Y140.866 E47.49316
G0 F9000 X150.675 Y140.866
G1 F720 X152.305 Y134.782 E47.55554
G0 F9000 X151.835 Y135.006
G1 F720 X153.077 Y136.248 E47.57293
G0 F9000 X153.077 Y135.753
G1 F720 X151.835 Y134.511 E47.59032
G0 F9000 X151.953 Y134.133
G1 F720 X153.077 Y135.258 E47.60607
G0 F9000 X153.077 Y134.763
G1 F720 X152.447 Y134.133 E47.6149
G0 F9000 X152.942 Y134.133
G1 F720 X153.077 Y134.268 E47.61679
G0 F9000 X151.835 Y135.501
G1 F720 X153.077 Y136.743 E47.63418
G0 F9000 X153.077 Y137.238
G1 F720 X151.835 Y135.996 E47.65157
G0 F9000 X151.835 Y136.491
G1 F720 X153.077 Y137.733 E47.66897
G0 F9000 X153.077 Y138.228
G1 F720 X151.835 Y136.986 E47.68636
G0 F9000 X151.835 Y137.481
G1 F720 X153.077 Y138.723 E47.70376
G0 F9000 X153.077 Y139.218
G1 F720 X151.835 Y137.976 E47.72115
G0 F9000 X151.835 Y138.471
G1 F720 X153.077 Y139.712 E47.73854
G0 F9000 X153.077 Y140.207
G1 F720 X151.835 Y138.966 E47.75592
G0 F9000 X151.835 Y139.461
G1 F720 X153.077 Y140.702 E47.77331
G0 F9000 X152.746 Y140.866
G1 F720 X151.835 Y139.956 E47.78606
G0 F9000 X151.835 Y140.451
G1 F720 X152.251 Y140.866 E47.79188
G0 F9000 X152.305 Y140.363
G1 F720 X150.427 Y140.866 E47.81114
G0 F9000 X147.051 Y140.866
G1 F720 X148.855 Y134.133 E47.88016
G0 F9000 X148.983 Y134.133
G1 F720 X152.305 Y137.455 E47.92669
G0 F9000 X152.305 Y136.739
G1 F720 X145.694 Y138.511 E47.99447
G0 F9000 X146.164 Y135.275
G1 F720 X145.024 Y134.134 E48.01044
G0 F9000 X145.519 Y134.134
G1 F720 X146.164 Y134.78 E48.01948
G0 F9000 X145.694 Y134.887
G1 F720 X148.507 Y134.133 E48.04832
G0 F9000 X146.164 Y134.285
G1 F720 X146.013 Y134.133 E48.05044
G0 F9000 X136.717 Y140.96
; TYPE:SUPPORT
G1 F720 X136.659 Y140.902 E48.05126
G0 F9000 X138.078 Y133.836
G1 F720 X137.883 Y133.641 E48.05399
G0 F9000 X144.859 Y132.131
G1 F720 X145.231 Y132.503 E48.0592
G0 F9000 X145.231 Y132.344
G0 X149.474 Y132.344
G0 X149.474 Y132.344
G0 X149.474 Y132.504
G1 F720 X144.859 Y127.888 E48.12384
G0 F9000 X145.02 Y127.888
G0 X148.653 Y127.601
G0 X148.653 Y127.601
G0 X148.653 Y127.44
G1 F720 X153.079 Y131.866 E48.18582
G0 F9000 X150.982 Y142.496
G1 F720 X153.079 Y144.594 E48.2152
G0 F9000 X152.92 Y144.594
G0 X151.669 Y147.287
G0 X151.669 Y147.287
G0 X151.688 Y147.445
G1 F720 X146.74 Y142.497 E48.28449
G0 F9000 X146.74 Y142.657
G0 X145.02 Y144.859
G0 X145.02 Y144.859
G0 X144.859 Y144.859
G1 F720 X147.559 Y147.559 E48.32231
G0 F9000 X159.458 Y142.488
G1 F720 X159.931 Y142.96 E48.32892
G0 F9000 X159.931 Y142.801
G0 X161.32 Y140.311
G0 X161.32 Y140.311
G0 X161.479 Y140.265
G1 F720 X161.453 Y140.24 E48.32928
G0 F9000 X161.173 Y139.96
G1 F720 X159.859 Y138.645 E48.34769
G0 F9000 X159.859 Y137.601
G0 X161.32 Y136.023
G0 X161.32 Y136.023
G0 X161.479 Y136.023
G1 F720 X160.296 Y134.841 E48.36425
; LAYER:7
G0 F9000 X153.842 Y133.616 Z1.65
; TYPE:WALL-INNER
G1 F720 X153.842 Y141.385 E48.44119
G1 X144.159 Y141.385 E48.53708
G1 X144.159 Y133.616 E48.61401
G1 X153.842 Y133.616 E48.70991
G0 F9000 X153.492 Y133.966
G1 F720 X153.492 Y141.035 E48.77991
G1 X144.509 Y141.035 E48.86887
G1 X144.509 Y133.966 E48.93887
G1 X153.492 Y133.966 E49.02783
G0 F9000 X154.192 Y133.266
; TYPE:WALL-OUTER
G1 F600 X154.192 Y141.735 E49.1117
G1 X143.809 Y141.735 E49.21452
G1 X143.809 Y133.266 E49.29839
G1 X154.192 Y133.266 E49.40121
G0 F9000 X153.376 Y134.203
; TYPE:FILL
G1 F720 X152.533 Y135.046 E49.41302
G0 F9000 X152.533 Y134.551
G1 F720 X153.004 Y134.08 E49.41961
G0 F9000 X152.493 Y134.08
G1 F720 X150.66 Y140.919 E49.48973
G0 F9000 X150.819 Y140.92
G1 F720 X144.623 Y134.724 E49.57651
G0 F9000 X144.623 Y134.541
G1 F720 X145.084 Y134.08 E49.58296
G0 F9000 X145.246 Y134.08
G1 F720 X144.623 Y136.406 E49.60681
G0 F9000 X144.623 Y136.521
G1 F720 X145.466 Y135.678 E49.61861
G0 F9000 X145.466 Y135.183
G1 F720 X144.623 Y136.026 E49.63042
G0 F9000 X144.623 Y135.531
G1 F720 X145.466 Y134.688 E49.64223
G0 F9000 X145.466 Y134.194
G1 F720 X144.623 Y135.036 E49.65403
G0 F9000 X144.623 Y135.174
G1 F720 X148.706 Y134.08 E49.69589
G0 F9000 X148.87 Y134.08
G1 F720 X147.037 Y140.918 E49.76599
G0 F9000 X145.869 Y140.92
G1 F720 X144.623 Y139.674 E49.78344
G0 F9000 X144.623 Y139.491
G1 F720 X145.466 Y138.648 E49.79525
G0 F9000 X145.466 Y138.153
G1 F720 X144.623 Y138.996 E49.80706
G0 F9000 X144.623 Y138.798
G1 F720 X153.376 Y136.452 E49.8968
G0 F9000 X153.376 Y136.678
G1 F720 X152.533 Y137.521 E49.9086
G0 F9000 X152.533 Y137.026
G1 F720 X153.376 Y136.183 E49.92041
G0 F9000 X153.376 Y135.688
G1 F720 X152.533 Y136.531 E49.93221
G0 F9000 X152.533 Y136.036
G1 F720 X153.376 Y135.193 E49.94402
G0 F9000 X153.376 Y134.698
G1 F720 X152.533 Y135.541 E49.95583
G0 F9000 X153.376 Y137.173
G1 F720 X152.533 Y138.016 E49.96763
G0 F9000 X152.533 Y138.511
G1 F720 X153.376 Y137.668 E49.97944
G0 F9000 X153.376 Y138.163
G1 F720 X152.533 Y139.006 E49.99124
G0 F9000 X152.533 Y139.501
G1 F720 X153.376 Y138.658 E50.00305
G0 F9000 X153.376 Y138.527
G1 F720 X148.93 Y134.08 E50.06532
G0 F9000 X145.466 Y136.173
G1 F720 X144.623 Y137.016 E50.07713
G0 F9000 X144.623 Y137.511
G1 F720 X145.466 Y136.668 E50.08894
G0 F9000 X145.466 Y137.163
G1 F720 X144.623 Y138.006 E50.10074
G0 F9000 X144.623 Y138.501
G1 F720 X145.466 Y137.658 E50.11255
G0 F9000 X145.466 Y139.143
G1 F720 X144.623 Y139.986 E50.12435
G0 F9000 X144.623 Y140.481
G1 F720 X145.466 Y139.638 E50.13616
G0 F9000 X145.466 Y140.133
G1 F720 X144.68 Y140.92 E50.14718
G0 F9000 X145.175 Y140.92
G1 F720 X145.466 Y140.628 E50.15126
G0 F9000 X150.228 Y140.919
G1 F720 X153.376 Y140.076 E50.18353
G0 F9000 X153.376 Y140.143
G1 F720 X152.6 Y140.92 E50.19441
G0 F9000 X152.533 Y140.491
G1 F720 X153.376 Y139.648 E50.20621
G0 F9000 X153.376 Y139.153
G1 F720 X152.533 Y139.996 E50.21802
G0 F9000 X153.376 Y140.638
G1 F720 X153.094 Y140.92 E50.22197
G0 F9000 X160.296 Y134.841
; TYPE:SUPPORT
G1 F720 X161.479 Y136.023 E50.23853
G0 F9000 X159.859 Y138.645
G1 F720 X161.173 Y139.96 E50.25694
G0 F9000 X161.453 Y140.24
G1 F720 X161.479 Y140.265 E50.2573
G0 F9000 X161.32 Y140.311
G0 X159.62 Y142.488
G0 X159.62 Y142.488
G0 X159.458 Y142.488
G1 F720 X159.931 Y142.96 E50.26391
G0 F9000 X153.078 Y144.593
G1 F720 X151.035 Y142.549 E50.29253
G0 F9000 X151.035 Y142.71
G0 X146.792 Y142.71
G0 X146.792 Y142.71
G0 X146.792 Y142.549
G1 F720 X151.688 Y147.445 E50.3611
G0 F9000 X151.669 Y147.287
G0 X147.559 Y147.401
G0 X147.559 Y147.401
G0 X147.559 Y147.559
G1 F720 X144.859 Y144.859 E50.39891
G0 F9000 X145.178 Y132.45
G1 F720 X144.859 Y132.131 E50.40338
G0 F9000 X145.02 Y132.131
G0 X145.02 Y127.888
G0 X145.02 Y127.888
G0 X144.859 Y127.888
G1 F720 X149.421 Y132.45 E50.46727
G0 F9000 X149.421 Y132.291
G0 X152.92 Y131.865
G0 X152.92 Y131.865
G0 X153.078 Y131.865
G1 F720 X148.653 Y127.44 E50.52924
G0 F9000 X138.078 Y133.836
G1 F720 X137.883 Y133.641 E50.53197
G0 F9000 X136.659 Y140.902
G1 F720 X136.717 Y140.96 E50.53279
; LAYER:8
G0 F9000 X143.86 Y141.438 Z1.85
; TYPE:WALL-INNER
G1 F720 X143.86 Y133.563 E50.61077
G1 X154.141 Y133.563 E50.71258
G1 X154.141 Y141.438 E50.79057
G1 X143.86 Y141.438 E50.89238
G0 F9000 X144.21 Y141.088
G1 F720 X144.21 Y133.913 E50.96344
G1 X153.791 Y133.913 E51.05832
G1 X153.791 Y141.088 E51.12937
G1 X144.21 Y141.088 E51.22425
G0 F9000 X143.51 Y141.788
; TYPE:WALL-OUTER
G1 F600 X143.51 Y133.213 E51.30917
G1 X154.491 Y133.213 E51.41791
G1 X154.491 Y141.788 E51.50283
G1 X143.51 Y141.788 E51.61158
G0 F9000 X144.437 Y140.973
; TYPE:FILL
G1 F720 X144.324 Y140.859 E51.61317
G0 F9000 X144.324 Y140.364
G1 F720 X144.932 Y140.973 E51.62169
G0 F9000 X145.167 Y140.712
G1 F720 X144.324 Y139.869 E51.63349
G0 F9000 X144.324 Y139.374
G1 F720 X145.167 Y140.217 E51.6453
G0 F9000 X145.167 Y139.722
G1 F720 X144.324 Y138.88 E51.6571
G0 F9000 X144.324 Y138.878
G1 F720 X148.122 Y137.86 E51.69604
G0 F9000 X148.121 Y138.222
G1 F720 X144.324 Y134.425 E51.74922
G0 F9000 X144.324 Y134.425
G1 F720 X145.167 Y135.268 E51.76102
G0 F9000 X145.167 Y134.773
G1 F720 X144.422 Y134.027 E51.77146
G0 F9000 X144.917 Y134.027
G1 F720 X145.167 Y134.278 E51.77497
G0 F9000 X145.26 Y134.028
G1 F720 X144.324 Y137.521 E51.81078
G0 F9000 X144.324 Y137.395
G1 F720 X145.167 Y138.237 E51.82258
G0 F9000 X145.167 Y137.742
G1 F720 X144.324 Y136.9 E51.83438
G0 F9000 X144.324 Y136.405
G1 F720 X145.167 Y137.248 E51.84619
G0 F9000 X145.167 Y136.753
G1 F720 X144.324 Y135.91 E51.85799
G0 F9000 X144.324 Y135.415
G1 F720 X145.167 Y136.258 E51.8698
G0 F9000 X145.167 Y135.763
G1 F720 X144.324 Y134.92 E51.8816
G0 F9000 X144.324 Y135.254
G1 F720 X148.122 Y134.237 E51.92054
G0 F9000 X147.887 Y134.027
G1 F720 X150.346 Y136.487 E51.95499
G0 F9000 X150.346 Y136.982
G1 F720 X147.652 Y134.288 E51.99272
G0 F9000 X147.652 Y134.783
G1 F720 X150.346 Y137.477 E52.03044
G0 F9000 X149.876 Y137.39
G1 F720 X153.675 Y136.372 E52.06939
G0 F9000 X153.675 Y136.351
G1 F720 X152.832 Y135.508 E52.0812
G0 F9000 X152.832 Y135.013
G1 F720 X153.675 Y135.856 E52.09301
G0 F9000 X153.675 Y135.361
G1 F720 X152.832 Y134.518 E52.10481
G0 F9000 X152.836 Y134.027
G1 F720 X153.675 Y134.866 E52.11656
G0 F9000 X153.675 Y134.371
G1 F720 X153.331 Y134.027 E52.12138
G0 F9000 X152.507 Y134.027
G1 F720 X150.646 Y140.972 E52.19258
G0 F9000 X150.872 Y140.973
G1 F720 X149.876 Y139.977 E52.20653
G0 F9000 X150.346 Y139.951
G1 F720 X147.652 Y137.257 E52.24426
G0 F9000 X147.652 Y136.762
G1 F720 X150.346 Y139.457 E52.282
G0 F9000 X150.346 Y138.962
G1 F720 X147.652 Y136.267 E52.31973
G0 F9000 X147.652 Y135.772
G1 F720 X150.346 Y138.467 E52.35747
G0 F9000 X150.346 Y137.972
G1 F720 X147.652 Y135.278 E52.3952
G0 F9000 X148.382 Y134.027
G1 F720 X150.346 Y135.992 E52.42271
G0 F9000 X150.346 Y135.497
G1 F720 X148.877 Y134.027 E52.44329
G0 F9000 X149.372 Y134.027
G1 F720 X150.346 Y135.002 E52.45694
G0 F9000 X149.876 Y135.026
G1 F720 X153.675 Y138.826 E52.51015
G0 F9000 X153.675 Y138.826
G1 F720 X152.832 Y137.983 E52.52196
G0 F9000 X152.832 Y137.488
G1 F720 X153.675 Y138.331 E52.53376
G0 F9000 X153.675 Y137.836
G1 F720 X152.832 Y136.993 E52.54557
G0 F9000 X152.832 Y136.498
G1 F720 X153.675 Y137.341 E52.55738
G0 F9000 X153.675 Y136.846
G1 F720 X152.832 Y136.003 E52.56918
G0 F9000 X152.832 Y138.478
G1 F720 X153.675 Y139.321 E52.58099
G0 F9000 X153.675 Y139.816
G1 F720 X152.832 Y138.973 E52.59279
G0 F9000 X152.832 Y139.468
G1 F720 X153.675 Y140.311 E52.6046
G0 F9000 X153.676 Y139.995
G1 F720 X150.03 Y140.972 E52.64198
G0 F9000 X149.882 Y140.973
G1 F720 X147.652 Y138.742 E52.67322
G0 F9000 X147.652 Y138.247
G1 F720 X150.346 Y140.941 E52.71095
G0 F9000 X150.346 Y140.446
G1 F720 X147.652 Y137.752 E52.74868
G0 F9000 X148.122 Y136.87
G1 F720 X147.023 Y140.972 E52.79073
G0 F9000 X147.652 Y140.722
G1 F720 X147.902 Y140.973 E52.79424
G0 F9000 X148.397 Y140.973
G1 F720 X147.652 Y140.227 E52.80468
G0 F9000 X147.652 Y139.732
G1 F720 X148.892 Y140.973 E52.82205
G0 F9000 X149.387 Y140.973
G1 F720 X147.652 Y139.237 E52.84636
G0 F9000 X145.922 Y140.973
G1 F720 X144.324 Y139.374 E52.86875
G0 F9000 X145.167 Y139.227
G1 F720 X144.324 Y138.385 E52.88054
G0 F9000 X144.324 Y137.89
G1 F720 X145.167 Y138.732 E52.89234
G0 F9000 X149.867 Y134.027
G1 F720 X150.346 Y134.507 E52.89906
G0 F9000 X152.832 Y139.963
G1 F720 X153.675 Y140.806 E52.91087
G0 F9000 X153.347 Y140.973
G1 F720 X152.832 Y140.458 E52.91808
G0 F9000 X152.832 Y140.953
G1 F720 X152.852 Y140.973 E52.91836
G0 F9000 X136.717 Y140.96
; TYPE:SUPPORT
G1 F720 X136.659 Y140.902 E52.91917
G0 F9000 X138.078 Y133.836
G1 F720 X137.883 Y133.641 E52.9219
G0 F9000 X144.859 Y132.131
G1 F720 X145.126 Y132.398 E52.92564
G0 F9000 X145.126 Y132.238
G0 X149.368 Y132.238
G0 X149.368 Y132.238
G0 X149.368 Y132.397
G1 F720 X144.859 Y127.888 E52.98879
G0 F9000 X145.02 Y127.888
G0 X148.653 Y127.601
G0 X148.653 Y127.601
G0 X148.653 Y127.44
G1 F720 X153.079 Y131.866 E53.05077
G0 F9000 X151.088 Y142.602
G1 F720 X153.079 Y144.594 E53.07867
G0 F9000 X152.92 Y144.594
G0 X151.669 Y147.287
G0 X151.669 Y147.287
G0 X151.688 Y147.445
G1 F720 X146.846 Y142.603 E53.14648
G0 F9000 X146.846 Y142.763
G0 X145.02 Y144.859
G0 X145.02 Y144.859
G0 X144.859 Y144.859
G1 F720 X147.559 Y147.559 E53.18429
G0 F9000 X159.458 Y142.488
G1 F720 X159.931 Y142.96 E53.19091
G0 F9000 X159.931 Y142.801
G0 X161.32 Y140.311
G0 X161.32 Y140.311
G0 X161.479 Y140.265
G1 F720 X161.453 Y140.24 E53.19127
G0 F9000 X161.173 Y139.96
G1 F720 X159.859 Y138.645 E53.20967
G0 F9000 X159.859 Y137.601
G0 X161.32 Y136.023
G0 X161.32 Y136.023
G0 X161.479 Y136.023
G1 F720 X160.296 Y134.841 E53.22624
; LAYER:9
G0 F9000 X154.441 Y133.51 Z2.05
; TYPE:WALL-INNER
G1 F720 X154.441 Y141.491 E53.30527
G1 X143.56 Y141.491 E53.41303
G1 X143.56 Y133.51 E53.49206
G1 X154.441 Y133.51 E53.59982
G0 F9000 X154.091 Y133.86
G1 F720 X154.091 Y141.141 E53.67192
G1 X143.91 Y141.141 E53.77274
G1 X143.91 Y133.86 E53.84484
G1 X154.091 Y133.86 E53.94567
G0 F9000 X154.791 Y133.16
; TYPE:WALL-OUTER
G1 F600 X154.791 Y141.841 E54.03163
G1 X143.21 Y141.841 E54.14632
G1 X143.21 Y133.16 E54.23229
G1 X154.791 Y133.16 E54.34697
G0 F9000 X153.975 Y134.099
; TYPE:FILL
G1 F720 X153.132 Y134.942 E54.35878
G0 F9000 X153.132 Y134.447
G1 F720 X153.689 Y133.975 E54.36537
G1 X153.975 Y134.176 E54.36883
G0 F9000 X153.975 Y134.594
G1 F720 X153.132 Y135.437 E54.38064
G0 F9000 X153.132 Y135.932
G1 F720 X153.975 Y135.089 E54.39244
G0 F9000 X153.975 Y135.584
G1 F720 X153.132 Y136.427 E54.40425
G0 F9000 X153.132 Y136.922
G1 F720 X153.975 Y136.079 E54.41606
G0 F9000 X153.975 Y136.292
G1 F720 X150.883 Y137.12 E54.44776
G0 F9000 X151.353 Y137.216
G1 F720 X147.544 Y141.026 E54.50111
G0 F9000 X147.049 Y141.026
G1 F720 X151.353 Y136.721 E54.56139
G0 F9000 X151.353 Y136.226
G1 F720 X146.646 Y140.934 E54.62732
G0 F9000 X147.009 Y141.025
G1 F720 X147.116 Y140.623 E54.63144
G0 F9000 X146.646 Y140.439
G1 F720 X151.353 Y135.731 E54.69737
G0 F9000 X151.353 Y135.237
G1 F720 X146.646 Y139.944 E54.76329
G0 F9000 X146.646 Y139.449
G1 F720 X151.353 Y134.742 E54.82921
G0 F9000 X151.353 Y134.247
G1 F720 X146.646 Y138.954 E54.89513
G0 F9000 X146.646 Y138.459
G1 F720 X151.129 Y133.975 E54.95792
G0 F9000 X150.634 Y133.975
G1 F720 X146.646 Y137.964 E55.01378
G0 F9000 X146.646 Y137.469
G1 F720 X150.139 Y133.975 E55.06271
G0 F9000 X149.645 Y133.975
G1 F720 X146.646 Y136.974 E55.10471
G0 F9000 X146.646 Y136.479
G1 F720 X149.15 Y133.975 E55.13978
G0 F9000 X148.655 Y133.974
G1 F720 X146.646 Y135.984 E55.16792
G0 F9000 X146.646 Y135.489
G1 F720 X148.16 Y133.974 E55.18913
G0 F9000 X147.665 Y133.974
G1 F720 X146.646 Y134.994 E55.20341
G0 F9000 X146.646 Y134.499
G1 F720 X147.17 Y133.974 E55.21075
G0 F9000 X146.675 Y133.974
G1 F720 X146.646 Y134.004 E55.21117
G0 F9000 X147.115 Y134.506
G1 F720 X144.024 Y135.335 E55.24286
G0 F9000 X144.024 Y135.141
G1 F720 X144.867 Y134.298 E55.25466
G0 F9000 X144.695 Y133.974
G1 F720 X144.024 Y134.646 E55.26407
G0 F9000 X144.024 Y134.151
G1 F720 X144.2 Y133.974 E55.26654
G0 F9000 X144.024 Y134.124
G1 F720 X147.116 Y137.216 E55.30984
G0 F9000 X147.115 Y138.13
G1 F720 X144.024 Y138.958 E55.34153
G0 F9000 X144.024 Y139.074
G1 F720 X145.975 Y141.026 E55.36886
G0 F9000 X144.867 Y140.733
G1 F720 X144.574 Y141.026 E55.37297
G0 F9000 X144.079 Y141.026
G1 F720 X144.867 Y140.238 E55.384
G0 F9000 X144.867 Y139.743
G1 F720 X144.024 Y140.586 E55.39581
G0 F9000 X144.024 Y140.091
G1 F720 X144.867 Y139.248 E55.40762
G0 F9000 X144.867 Y138.753
G1 F720 X144.024 Y139.596 E55.41942
G0 F9000 X144.024 Y139.101
G1 F720 X144.867 Y138.258 E55.43123
G0 F9000 X144.867 Y137.763
G1 F720 X144.024 Y138.606 E55.44303
G0 F9000 X144.024 Y138.641
G1 F720 X145.275 Y133.974 E55.49088
G0 F9000 X144.867 Y134.793
G1 F720 X144.024 Y135.636 E55.50269
G0 F9000 X144.024 Y136.131
G1 F720 X144.867 Y135.288 E55.51449
G0 F9000 X144.867 Y135.783
G1 F720 X144.024 Y136.626 E55.5263
G0 F9000 X144.024 Y137.121
G1 F720 X144.867 Y136.278 E55.53811
G0 F9000 X144.867 Y136.773
G1 F720 X144.024 Y137.616 E55.54991
G0 F9000 X144.024 Y138.111
G1 F720 X144.867 Y137.268 E55.56172
G0 F9000 X148.039 Y141.026
G1 F720 X151.352 Y137.712 E55.60812
G0 F9000 X151.352 Y138.207
G1 F720 X148.534 Y141.026 E55.6476
G0 F9000 X149.029 Y141.026
G1 F720 X151.352 Y138.702 E55.68014
G0 F9000 X151.352 Y139.197
G1 F720 X149.524 Y141.026 E55.70575
G0 F9000 X150.019 Y141.026
G1 F720 X151.352 Y139.692 E55.72442
G0 F9000 X151.352 Y140.187
G1 F720 X150.514 Y141.026 E55.73616
G0 F9000 X150.883 Y140.983
G1 F720 X150.967 Y141.026 E55.73676
G1 X151.352 Y140.682 E55.74187
G0 F9000 X150.883 Y140.744
G1 F720 X153.975 Y139.915 E55.77357
G0 F9000 X153.975 Y140.039
G1 F720 X153.131 Y140.883 E55.78539
G0 F9000 X153.483 Y141.026
G1 F720 X153.975 Y140.534 E55.79228
G0 F9000 X153.131 Y140.388
G1 F720 X153.975 Y139.544 E55.80411
G0 F9000 X153.975 Y139.126
G1 F720 X150.883 Y136.033 E55.84742
G0 F9000 X152.521 Y133.974
G1 F720 X150.883 Y140.089 E55.91011
G0 F9000 X153.131 Y139.893
G1 F720 X153.975 Y139.049 E55.92193
G0 F9000 X153.975 Y138.554
G1 F720 X153.131 Y139.398 E55.93375
G0 F9000 X153.131 Y138.903
G1 F720 X153.975 Y138.059 E55.94557
G0 F9000 X153.975 Y137.564
G1 F720 X153.131 Y138.408 E55.95739
G0 F9000 X153.131 Y137.913
G1 F720 X153.975 Y137.069 E55.96921
G0 F9000 X153.975 Y136.574
G1 F720 X153.132 Y137.417 E55.98101
G0 F9000 X160.296 Y134.841
; TYPE:SUPPORT
G1 F720 X161.479 Y136.023 E55.99757
G0 F9000 X159.859 Y138.645
G1 F720 X161.173 Y139.96 E56.01598
G0 F9000 X161.453 Y140.24
G1 F720 X161.479 Y140.265 E56.01634
G0 F9000 X161.32 Y140.311
G0 X159.62 Y142.488
G0 X159.62 Y142.488
G0 X159.458 Y142.488
G1 F720 X159.931 Y142.96 E56.02296
G0 F9000 X153.078 Y144.593
G1 F720 X151.141 Y142.655 E56.05009
G0 F9000 X151.141 Y142.816
G0 X146.898 Y142.816
G0 X146.898 Y142.816
G0 X146.898 Y142.655
G1 F720 X151.688 Y147.445 E56.11718
G0 F9000 X151.669 Y147.287
G0 X147.559 Y147.401
G0 X147.559 Y147.401
G0 X147.559 Y147.559
G1 F720 X144.859 Y144.859 E56.15499
G0 F9000 X145.072 Y132.344
G1 F720 X144.859 Y132.131 E56.15797
G0 F9000 X145.02 Y132.131
G0 X145.02 Y127.888
G0 X145.02 Y127.888
G0 X144.859 Y127.888
G1 F720 X149.315 Y132.344 E56.22038
G0 F9000 X149.315 Y132.185
G0 X152.92 Y131.865
G0 X152.92 Y131.865
G0 X153.078 Y131.865
G1 F720 X148.653 Y127.44 E56.28235
G0 F9000 X138.078 Y133.836
G1 F720 X137.883 Y133.641 E56.28508
G0 F9000 X136.659 Y140.902
G1 F720 X136.717 Y140.96 E56.28589
; LAYER:10
G0 F9000 X143.261 Y141.544 Z2.25
; TYPE:WALL-INNER
G1 F720 X143.261 Y133.457 E56.36598
G1 X154.74 Y133.457 E56.47966
G1 X154.74 Y141.544 E56.55974
G1 X143.261 Y141.544 E56.67342
G0 F9000 X143.611 Y141.194
G1 F720 X143.611 Y133.807 E56.74657
G1 X154.39 Y133.807 E56.85331
G1 X154.39 Y141.194 E56.92647
G1 X143.611 Y141.194 E57.03321
G0 F9000 X142.911 Y141.894
; TYPE:WALL-OUTER
G1 F600 X142.911 Y133.107 E57.12023
G1 X155.09 Y133.107 E57.24084
G1 X155.09 Y141.894 E57.32786
G1 X142.911 Y141.894 E57.44846
G0 F9000 X144.048 Y141.079
; TYPE:FILL
G1 F720 X143.725 Y140.755 E57.45299
G0 F9000 X143.725 Y140.26
G1 F720 X144.543 Y141.079 E57.46446
G0 F9000 X144.567 Y140.608
G1 F720 X143.725 Y139.765 E57.47626
G0 F9000 X143.725 Y139.756
G1 F720 X145.289 Y133.92 E57.53609
G0 F9000 X145.639 Y134.255
G1 F720 X152.358 Y140.974 E57.63019
G0 F9000 X151.968 Y141.079
G1 F720 X145.639 Y134.75 E57.71883
G0 F9000 X146.11 Y134.776
G1 F720 X143.725 Y135.415 E57.74328
G0 F9000 X143.725 Y135.31
G1 F720 X144.567 Y136.153 E57.75508
G0 F9000 X144.567 Y135.658
G1 F720 X143.725 Y134.815 E57.76688
G0 F9000 X143.725 Y134.32
G1 F720 X144.567 Y135.163 E57.77867
G0 F9000 X144.567 Y134.668
G1 F720 X143.821 Y133.921 E57.78913
G0 F9000 X143.821 Y133.921
G1 F720 X146.11 Y136.21 E57.82119
G0 F9000 X145.639 Y136.235
G1 F720 X150.483 Y141.079 E57.88903
G0 F9000 X150.978 Y141.079
G1 F720 X145.639 Y135.74 E57.9638
G0 F9000 X145.639 Y135.245
G1 F720 X151.473 Y141.079 E58.0455
G0 F9000 X151.889 Y140.474
G1 F720 X154.274 Y139.835 E58.06996
G0 F9000 X154.273 Y139.919
G1 F720 X153.43 Y139.076 E58.08176
G0 F9000 X153.43 Y138.581
G1 F720 X154.273 Y139.424 E58.09357
G0 F9000 X154.273 Y139.424
G1 F720 X151.889 Y137.04 E58.12696
G0 F9000 X151.889 Y136.851
G1 F720 X154.274 Y136.212 E58.15141
G0 F9000 X154.274 Y136.455
G1 F720 X153.43 Y135.611 E58.16323
G0 F9000 X153.43 Y135.116
G1 F720 X154.274 Y135.96 E58.17505
G0 F9000 X154.274 Y135.465
G1 F720 X153.43 Y134.621 E58.18687
G0 F9000 X153.43 Y134.126
G1 F720 X154.274 Y134.97 E58.19869
G0 F9000 X154.274 Y134.475
G1 F720 X153.72 Y133.921 E58.20645
G0 F9000 X153.721 Y133.922
G1 F720 X154.274 Y134.475 E58.21419
G0 F9000 X154.274 Y133.98
G1 F720 X154.216 Y133.922 E58.215
G0 F9000 X152.536 Y133.921
G1 F720 X151.89 Y136.332 E58.23972
G0 F9000 X152.358 Y136.519
G1 F720 X149.76 Y133.921 E58.27611
G0 F9000 X149.265 Y133.921
G1 F720 X152.358 Y137.014 E58.31942
G0 F9000 X152.358 Y137.509
G1 F720 X148.771 Y133.921 E58.36967
G0 F9000 X148.276 Y133.921
G1 F720 X152.358 Y138.004 E58.42684
G0 F9000 X152.358 Y138.499
G1 F720 X147.781 Y133.921 E58.49095
G0 F9000 X147.286 Y133.921
G1 F720 X152.358 Y138.994 E58.56199
G0 F9000 X152.358 Y139.489
G1 F720 X146.791 Y133.921 E58.63996
G0 F9000 X146.296 Y133.921
G1 F720 X152.358 Y139.984 E58.72487
G0 F9000 X152.358 Y140.479
G1 F720 X145.801 Y133.921 E58.8167
G0 F9000 X144.567 Y134.173
G1 F720 X144.316 Y133.921 E58.82023
G0 F9000 X143.725 Y135.805
G1 F720 X144.567 Y136.648 E58.83202
G0 F9000 X144.567 Y137.143
G1 F720 X143.725 Y136.3 E58.84382
G0 F9000 X143.725 Y136.795
G1 F720 X144.567 Y137.638 E58.85562
G0 F9000 X144.567 Y138.133
G1 F720 X143.725 Y137.29 E58.86742
G0 F9000 X143.725 Y137.785
G1 F720 X144.567 Y138.628 E58.87922
G0 F9000 X144.567 Y139.123
G1 F720 X143.725 Y138.28 E58.89102
G0 F9000 X143.725 Y138.775
G1 F720 X144.567 Y139.618 E58.90282
G0 F9000 X144.567 Y140.113
G1 F720 X143.725 Y139.27 E58.91462
G0 F9000 X143.725 Y139.038
G1 F720 X146.11 Y138.399 E58.93907
G0 F9000 X145.639 Y138.215
G1 F720 X148.503 Y141.079 E58.97918
G0 F9000 X148.998 Y141.079
G1 F720 X145.639 Y137.72 E59.02622
G0 F9000 X145.639 Y137.225
G1 F720 X149.493 Y141.079 E59.0802
G0 F9000 X149.988 Y141.079
G1 F720 X145.639 Y136.73 E59.14111
G0 F9000 X145.639 Y138.71
G1 F720 X148.008 Y141.079 E59.17428
G0 F9000 X147.513 Y141.079
G1 F720 X145.639 Y139.205 E59.20053
G0 F9000 X145.639 Y139.7
G1 F720 X147.018 Y141.079 E59.21984
G0 F9000 X146.523 Y141.079
G1 F720 X145.639 Y140.195 E59.23222
G0 F9000 X145.639 Y140.69
G1 F720 X146.028 Y141.079 E59.23767
G0 F9000 X146.028 Y141.078
G1 F720 X143.725 Y138.775 E59.26992
G0 F9000 X150.255 Y133.921
G1 F720 X152.358 Y136.024 E59.29937
G0 F9000 X152.358 Y135.529
G1 F720 X150.75 Y133.921 E59.32189
G0 F9000 X151.245 Y133.921
G1 F720 X152.358 Y135.034 E59.33748
G0 F9000 X152.358 Y134.539
G1 F720 X151.74 Y133.921 E59.34614
G0 F9000 X152.235 Y133.921
G1 F720 X152.358 Y134.044 E59.34786
G0 F9000 X153.43 Y136.106
G1 F720 X154.274 Y136.95 E59.35968
G0 F9000 X154.274 Y137.445
G1 F720 X153.43 Y136.601 E59.3715
G0 F9000 X153.43 Y137.096
G1 F720 X154.273 Y137.939 E59.38331
G0 F9000 X154.273 Y138.434
G1 F720 X153.43 Y137.591 E59.39511
G0 F9000 X153.43 Y138.086
G1 F720 X154.273 Y138.929 E59.40692
G0 F9000 X153.43 Y139.571
G1 F720 X154.273 Y140.414 E59.41872
G0 F9000 X154.273 Y140.909
G1 F720 X153.43 Y140.066 E59.43053
G0 F9000 X153.43 Y140.561
G1 F720 X153.948 Y141.079 E59.43779
G0 F9000 X154.241 Y141.078
G1 F720 X154.274 Y140.955 E59.43905
G0 F9000 X153.453 Y141.079
G1 F720 X153.43 Y141.056 E59.43937
G0 F9000 X136.717 Y140.96
; TYPE:SUPPORT
G1 F720 X136.659 Y140.902 E59.44018
G0 F9000 X138.078 Y133.836
G1 F720 X137.883 Y133.641 E59.44291
G0 F9000 X144.859 Y132.131
G1 F720 X145.02 Y132.292 E59.44517
G0 F9000 X145.02 Y132.132
G0 X149.262 Y132.132
G0 X149.262 Y132.132
G0 X149.262 Y132.291
G1 F720 X144.859 Y127.888 E59.50683
G0 F9000 X145.02 Y127.888
G0 X148.653 Y127.601
G0 X148.653 Y127.601
G0 X148.653 Y127.44
G1 F720 X153.079 Y131.866 E59.56882
G0 F9000 X151.194 Y142.708
G1 F720 X153.079 Y144.594 E59.59522
G0 F9000 X152.92 Y144.594
G0 X151.669 Y147.287
G0 X151.669 Y147.287
G0 X151.688 Y147.445
G1 F720 X146.951 Y142.708 E59.66156
G0 F9000 X146.951 Y142.869
G0 X145.02 Y144.859
G0 X145.02 Y144.859
G0 X144.859 Y144.859
G1 F720 X147.559 Y147.559 E59.69938
G0 F9000 X159.458 Y142.488
G1 F720 X159.931 Y142.96 E59.70599
G0 F9000 X159.931 Y142.801
G0 X161.32 Y140.311
G0 X161.32 Y140.311
G0 X161.479 Y140.265
G1 F720 X161.453 Y140.24 E59.70635
G0 F9000 X161.173 Y139.96
G1 F720 X159.859 Y138.645 E59.72476
G0 F9000 X159.859 Y137.601
G0 X161.32 Y136.023
G0 X161.32 Y136.023
G0 X161.479 Y136.023
G1 F720 X160.296 Y134.841 E59.74132
; LAYER:11
G0 F9000 X148.063 Y133.404 Z2.45
; TYPE:WALL-INNER
G1 F720 X148.063 Y141.597 E59.82246
G1 X142.962 Y141.597 E59.87297
G1 X142.962 Y133.404 E59.95411
G1 X148.063 Y133.404 E60.00462
G0 F9000 X147.713 Y133.754
G1 F720 X147.713 Y141.247 E60.07882
G1 X143.312 Y141.247 E60.12241
G1 X143.312 Y133.754 E60.19661
G1 X147.713 Y133.754 E60.24019
G0 F9000 X148.413 Y133.054
; TYPE:WALL-OUTER
G1 F600 X148.413 Y141.947 E60.32826
G1 X142.612 Y141.947 E60.38571
G1 X142.612 Y133.054 E60.47378
G1 X148.413 Y133.054 E60.53122
G0 F9000 X147.597 Y134.043
; TYPE:FILL
G1 F720 X144.634 Y137.006 E60.57272
G0 F9000 X144.268 Y136.876
G1 F720 X143.426 Y137.719 E60.58452
G0 F9000 X143.426 Y137.224
G1 F720 X144.268 Y136.381 E60.59632
G0 F9000 X144.634 Y136.511
G1 F720 X147.276 Y133.869 E60.63332
G0 F9000 X146.781 Y133.869
G1 F720 X144.634 Y136.016 E60.66339
G0 F9000 X144.268 Y135.886
G1 F720 X143.426 Y136.729 E60.67519
G0 F9000 X143.426 Y136.234
G1 F720 X144.268 Y135.391 E60.68699
G0 F9000 X144.634 Y135.521
G1 F720 X146.286 Y133.869 E60.71012
G0 F9000 X145.791 Y133.869
G1 F720 X144.634 Y135.026 E60.72633
G0 F9000 X144.268 Y134.896
G1 F720 X143.426 Y135.739 E60.73812
G0 F9000 X143.425 Y135.495
G1 F720 X145.103 Y135.045 E60.75533
G0 F9000 X145.104 Y135.205
G1 F720 X143.768 Y133.868 E60.77405
G0 F9000 X143.812 Y133.868
G1 F720 X143.426 Y134.254 E60.77945
G0 F9000 X143.426 Y134.749
G1 F720 X144.268 Y133.906 E60.79125
G0 F9000 X144.634 Y134.036
G1 F720 X144.801 Y133.869 E60.79359
G0 F9000 X145.296 Y133.869
G1 F720 X144.634 Y134.531 E60.80286
G0 F9000 X144.268 Y134.401
G1 F720 X143.426 Y135.244 E60.81466
G0 F9000 X145.104 Y134.61
G1 F720 X143.426 Y140.872 E60.87886
G0 F9000 X143.426 Y140.689
G1 F720 X144.268 Y139.846 E60.89066
G0 F9000 X144.633 Y139.976
G1 F720 X147.597 Y137.013 E60.93216
G0 F9000 X147.597 Y136.518
G1 F720 X144.633 Y139.481 E60.97367
G0 F9000 X144.268 Y139.351
G1 F720 X143.426 Y140.194 E60.98547
G0 F9000 X143.426 Y139.699
G1 F720 X144.268 Y138.856 E60.99727
G0 F9000 X144.633 Y138.986
G1 F720 X147.597 Y136.023 E61.03877
G0 F9000 X147.597 Y135.528
G1 F720 X144.633 Y138.491 E61.08027
G0 F9000 X144.268 Y138.361
G1 F720 X143.426 Y139.204 E61.09207
G0 F9000 X143.426 Y139.118
G1 F720 X145.104 Y138.669 E61.10927
G0 F9000 X144.633 Y137.996
G1 F720 X147.597 Y135.033 E61.15078
G0 F9000 X147.597 Y134.538
G1 F720 X144.633 Y137.501 E61.19228
G0 F9000 X144.268 Y137.371
G1 F720 X143.426 Y138.214 E61.20408
G0 F9000 X143.426 Y138.476
G1 F720 X145.104 Y140.154 E61.22758
G0 F9000 X144.633 Y140.471
G1 F720 X147.597 Y137.508 E61.26908
G0 F9000 X147.597 Y138.003
G1 F720 X144.633 Y140.966 E61.31059
G0 F9000 X144.963 Y141.132
G1 F720 X147.597 Y138.498 E61.34748
G0 F9000 X147.597 Y138.993
G1 F720 X145.458 Y141.132 E61.37743
G0 F9000 X145.953 Y141.132
G1 F720 X147.597 Y139.488 E61.40046
G0 F9000 X147.597 Y139.983
G1 F720 X146.448 Y141.131 E61.41654
G0 F9000 X146.943 Y141.131
G1 F720 X147.597 Y140.478 E61.42569
G0 F9000 X147.597 Y140.973
G1 F720 X147.438 Y141.131 E61.42791
G0 F9000 X144.268 Y140.836
G1 F720 X143.973 Y141.132 E61.43205
G0 F9000 X143.478 Y141.132
G1 F720 X144.268 Y140.341 E61.44312
G0 F9000 X143.426 Y138.709
G1 F720 X144.268 Y137.866 E61.45492
G1 F1800 E58.45492
G1 Z3.45
G0 F9000 X149.937 Y141.597
; TYPE:WALL-INNER
G1 Z2.45
G1 F1800 E61.45492
G1 F720 X149.937 Y133.404 E61.53606
G1 X155.039 Y133.404 E61.58658
G1 X155.039 Y141.597 E61.66772
G1 X149.937 Y141.597 E61.71824
G0 F9000 X150.287 Y141.247
G1 F720 X150.287 Y133.754 E61.79244
G1 X154.689 Y133.754 E61.83604
G1 X154.689 Y141.247 E61.91024
G1 X150.287 Y141.247 E61.95383
G0 F9000 X149.587 Y141.947
; TYPE:WALL-OUTER
G1 F600 X149.587 Y133.054 E62.0419
G1 X155.389 Y133.054 E62.09936
G1 X155.389 Y141.947 E62.18743
G1 X149.587 Y141.947 E62.24488
G0 F9000 X150.407 Y141.132
; TYPE:FILL
G1 F720 X153.365 Y138.175 E62.2863
G0 F9000 X153.729 Y138.305
G1 F720 X154.573 Y137.461 E62.29812
G0 F9000 X154.573 Y136.966
G1 F720 X153.729 Y137.81 E62.30994
G0 F9000 X153.365 Y137.68
G1 F720 X150.4 Y140.644 E62.35146
G0 F9000 X150.4 Y140.149
G1 F720 X153.365 Y137.185 E62.39298
G0 F9000 X153.729 Y137.315
G1 F720 X154.573 Y136.471 E62.4048
G0 F9000 X154.573 Y136.132
G1 F720 X152.895 Y136.581 E62.422
G0 F9000 X153.365 Y136.69
G1 F720 X150.4 Y139.654 E62.46352
G0 F9000 X150.4 Y139.159
G1 F720 X153.365 Y136.195 E62.50503
G0 F9000 X153.729 Y136.325
G1 F720 X154.573 Y135.481 E62.51685
G0 F9000 X154.573 Y134.986
G1 F720 X153.729 Y135.83 E62.52867
G0 F9000 X153.365 Y135.7
G1 F720 X150.4 Y138.664 E62.57019
G0 F9000 X150.4 Y138.169
G1 F720 X153.365 Y135.205 E62.61171
G0 F9000 X153.729 Y135.335
G1 F720 X154.573 Y134.491 E62.62353
G0 F9000 X154.573 Y134.774
G1 F720 X153.667 Y133.868 E62.63622
G0 F9000 X153.216 Y133.868
G1 F720 X150.4 Y136.684 E62.67566
G0 F9000 X150.4 Y137.179
G1 F720 X153.365 Y134.215 E62.71717
G0 F9000 X153.729 Y134.345
G1 F720 X154.205 Y133.869 E62.72384
G0 F9000 X154.573 Y133.996
G1 F720 X153.729 Y134.84 E62.73566
G0 F9000 X153.365 Y134.71
G1 F720 X150.4 Y137.674 E62.77718
G0 F9000 X150.4 Y136.189
G1 F720 X152.721 Y133.868 E62.80968
G0 F9000 X152.226 Y133.868
G1 F720 X150.4 Y135.694 E62.83526
G0 F9000 X150.4 Y135.199
G1 F720 X151.731 Y133.868 E62.8539
G0 F9000 X151.236 Y133.868
G1 F720 X150.4 Y134.704 E62.8656
G0 F9000 X150.4 Y134.209
G1 F720 X150.741 Y133.868 E62.87038
G0 F9000 X153.729 Y136.82
G1 F720 X154.573 Y135.976 E62.8822
G0 F9000 X154.572 Y137.957
G1 F720 X153.729 Y138.8 E62.89401
G0 F9000 X153.365 Y138.67
G1 F720 X150.902 Y141.132 E62.92849
G0 F9000 X151.397 Y141.132
G1 F720 X153.365 Y139.164 E62.95606
G0 F9000 X153.729 Y139.295
G1 F720 X154.572 Y138.452 E62.96786
G0 F9000 X154.572 Y138.947
G1 F720 X153.729 Y139.79 E62.97967
G0 F9000 X153.365 Y139.659
G1 F720 X151.892 Y141.132 E63.0003
G0 F9000 X152.387 Y141.132
G1 F720 X153.365 Y140.154 E63.01399
G0 F9000 X153.729 Y140.285
G1 F720 X154.572 Y139.442 E63.0258
G0 F9000 X154.572 Y139.723
G1 F720 X152.895 Y138.046 E63.04929
G0 F9000 X152.895 Y140.205
G1 F720 X154.573 Y139.755 E63.06649
G0 F9000 X154.573 Y139.841
G1 F720 X154.227 Y141.131 E63.07972
G0 F9000 X154.367 Y141.132
G1 F720 X154.572 Y140.927 E63.08259
G0 F9000 X154.572 Y140.432
G1 F720 X153.872 Y141.132 E63.09239
G0 F9000 X153.729 Y140.78
G1 F720 X154.572 Y139.937 E63.1042
G0 F9000 X153.365 Y140.649
G1 F720 X152.882 Y141.132 E63.11096
G0 F9000 X160.296 Y134.841
; TYPE:SUPPORT
G1 F720 X161.479 Y136.023 E63.12752
G0 F9000 X159.859 Y138.645
G1 F720 X161.173 Y139.96 E63.14593
G0 F9000 X161.453 Y140.24
G1 F720 X161.479 Y140.265 E63.14629
G0 F9000 X161.32 Y140.311
G0 X159.62 Y142.488
G0 X159.62 Y142.488
G0 X159.458 Y142.488
G1 F720 X159.931 Y142.96 E63.15291
G0 F9000 X153.078 Y144.593
G1 F720 X151.247 Y142.762 E63.17855
G0 F9000 X151.247 Y142.922
G0 X147.004 Y142.922
G0 X147.004 Y142.922
G0 X147.004 Y142.762
G1 F720 X151.688 Y147.445 E63.24414
G0 F9000 X151.669 Y147.287
G0 X147.559 Y147.401
G0 X147.559 Y147.401
G0 X147.559 Y147.559
G1 F720 X144.859 Y144.859 E63.28196
G0 F9000 X144.966 Y132.238
G1 F720 X144.859 Y132.131 E63.28345
G0 F9000 X145.02 Y132.131
G0 X145.02 Y127.888
G0 X145.02 Y127.888
G0 X144.859 Y127.888
G1 F720 X149.209 Y132.238 E63.34438
G0 F9000 X149.209 Y132.079
G0 X152.92 Y131.865
G0 X152.92 Y131.865
G0 X153.078 Y131.865
G1 F720 X148.653 Y127.44 E63.40635
G0 F9000 X138.078 Y133.836
G1 F720 X137.883 Y133.641 E63.40908
G0 F9000 X136.659 Y140.902
G1 F720 X136.717 Y140.96 E63.40989
; LAYER:12
G0 F9000 X142.663 Y141.65 Z2.65
; TYPE:WALL-INNER
G1 F720 X142.663 Y133.351 E63.49208
G1 X147.057 Y133.351 E63.53559
G1 X147.057 Y141.65 E63.61777
G1 X142.663 Y141.65 E63.66129
G0 F9000 X143.013 Y141.3
G1 F720 X143.013 Y133.701 E63.73654
G1 X146.707 Y133.701 E63.77312
G1 X146.707 Y141.3 E63.84837
G1 X143.013 Y141.3 E63.88496
G0 F9000 X142.313 Y142
; TYPE:WALL-OUTER
G1 F600 X142.313 Y133.001 E63.97407
G1 X147.407 Y133.001 E64.02452
G1 X147.407 Y142 E64.11364
G1 X142.313 Y142 E64.16408
G0 F9000 X143.165 Y141.185
; TYPE:FILL
G1 F720 X143.126 Y141.146 E64.16463
G0 F9000 X143.343 Y141.183
G1 F720 X144.777 Y135.831 E64.2195
G0 F9000 X144.307 Y135.892
G1 F720 X146.591 Y138.177 E64.25149
G0 F9000 X146.591 Y137.682
G1 F720 X144.307 Y135.397 E64.28349
G0 F9000 X143.969 Y135.554
G1 F720 X143.126 Y134.712 E64.29529
G0 F9000 X143.126 Y134.217
G1 F720 X143.969 Y135.059 E64.30708
G0 F9000 X144.307 Y134.902
G1 F720 X146.591 Y137.186 E64.33907
G0 F9000 X146.591 Y136.691
G1 F720 X144.307 Y134.407 E64.37106
G0 F9000 X143.969 Y134.564
G1 F720 X143.22 Y133.815 E64.38155
G0 F9000 X143.715 Y133.815
G1 F720 X144.777 Y134.877 E64.39642
G0 F9000 X144.777 Y135.133
G1 F720 X143.127 Y135.575 E64.41334
G0 F9000 X143.126 Y135.702
G1 F720 X143.969 Y136.544 E64.42514
G0 F9000 X144.307 Y136.387
G1 F720 X146.591 Y138.672 E64.45713
G0 F9000 X146.591 Y139.167
G1 F720 X144.307 Y136.882 E64.48913
G0 F9000 X143.969 Y137.039
G1 F720 X143.126 Y136.197 E64.50092
G0 F9000 X143.126 Y136.692
G1 F720 X143.969 Y137.535 E64.51273
G0 F9000 X144.307 Y137.377
G1 F720 X146.591 Y139.662 E64.54472
G0 F9000 X146.591 Y140.157
G1 F720 X144.307 Y137.873 E64.57671
G0 F9000 X143.969 Y138.03
G1 F720 X143.126 Y137.187 E64.58852
G0 F9000 X143.126 Y137.682
G1 F720 X143.969 Y138.525 E64.60032
G0 F9000 X144.307 Y138.368
G1 F720 X146.591 Y140.652 E64.63231
G0 F9000 X146.591 Y141.146
G1 F720 X144.307 Y138.863 E64.66429
G0 F9000 X143.969 Y139.02
G1 F720 X143.126 Y138.177 E64.6761
G0 F9000 X143.126 Y138.177
G1 F720 X144.777 Y139.827 E64.69921
G0 F9000 X144.307 Y139.852
G1 F720 X145.639 Y141.185 E64.71787
G0 F9000 X146.134 Y141.185
G1 F720 X144.307 Y139.358 E64.74346
G0 F9000 X143.969 Y139.514
G1 F720 X143.126 Y138.672 E64.75526
G0 F9000 X143.126 Y139.167
G1 F720 X143.969 Y140.009 E64.76706
G0 F9000 X144.307 Y140.347
G1 F720 X145.144 Y141.185 E64.77879
G0 F9000 X144.65 Y141.185
G1 F720 X144.307 Y140.842 E64.78359
G0 F9000 X143.969 Y140.999
G1 F720 X143.126 Y140.157 E64.79539
G0 F9000 X143.126 Y139.662
G1 F720 X143.969 Y140.504 E64.80719
G0 F9000 X143.66 Y141.185
G1 F720 X143.126 Y140.652 E64.81466
G0 F9000 X143.127 Y139.199
G1 F720 X144.777 Y138.756 E64.83158
G0 F9000 X143.969 Y136.049
G1 F720 X143.126 Y135.207 E64.84338
G0 F9000 X143.969 Y134.069
G1 F720 X143.715 Y133.816 E64.84693
G0 F9000 X144.307 Y133.912
G1 F720 X146.591 Y136.196 E64.87892
G0 F9000 X146.591 Y135.701
G1 F720 X144.705 Y133.816 E64.90532
G0 F9000 X145.2 Y133.816
G1 F720 X146.591 Y135.206 E64.9248
G0 F9000 X146.591 Y134.711
G1 F720 X145.695 Y133.816 E64.93734
G0 F9000 X146.19 Y133.816
G1 F720 X146.591 Y134.216 E64.94295
G1 F1800 E61.94295
G1 Z3.65
G0 F9000 X150.944 Y133.351
; TYPE:WALL-INNER
G1 Z2.65
G1 F1800 E64.94295
G1 F720 X155.338 Y133.351 E64.98646
G1 X155.338 Y141.65 E65.06865
G1 X150.944 Y141.65 E65.11216
G1 X150.944 Y133.351 E65.19435
G0 F9000 X151.294 Y133.701
G1 F720 X154.988 Y133.701 E65.23093
G1 X154.988 Y141.3 E65.30618
G1 X151.294 Y141.3 E65.34276
G1 X151.294 Y133.701 E65.41801
G0 F9000 X150.594 Y133.001
; TYPE:WALL-OUTER
G1 F600 X155.688 Y133.001 E65.46846
G1 X155.688 Y142 E65.55758
G1 X150.594 Y142 E65.60802
G1 X150.594 Y133.001 E65.69714
G0 F9000 X151.634 Y133.815
; TYPE:FILL
G1 F720 X153.692 Y135.873 E65.72596
G0 F9000 X154.03 Y135.716
G1 F720 X154.871 Y136.557 E65.73774
G0 F9000 X154.871 Y136.062
G1 F720 X154.03 Y135.221 E65.74952
G0 F9000 X153.692 Y135.378
G1 F720 X152.129 Y133.815 E65.77141
G0 F9000 X152.624 Y133.815
G1 F720 X153.692 Y134.883 E65.78636
G0 F9000 X154.03 Y134.726
G1 F720 X154.871 Y135.567 E65.79814
G0 F9000 X154.871 Y136.052
G1 F720 X153.222 Y136.494 E65.81505
G0 F9000 X153.692 Y136.368
G1 F720 X151.408 Y134.084 E65.84704
G0 F9000 X151.408 Y134.579
G1 F720 X153.692 Y136.863 E65.87902
G0 F9000 X154.03 Y136.706
G1 F720 X154.871 Y137.547 E65.8908
G0 F9000 X154.871 Y137.052
G1 F720 X154.03 Y136.211 E65.90258
G0 F9000 X154.03 Y137.201
G1 F720 X154.871 Y138.042 E65.91436
G0 F9000 X154.871 Y138.537
G1 F720 X154.03 Y137.696 E65.92614
G0 F9000 X153.692 Y137.853
G1 F720 X151.408 Y135.569 E65.95812
G0 F9000 X151.408 Y135.074
G1 F720 X153.692 Y137.358 E65.99011
G0 F9000 X154.03 Y138.191
G1 F720 X154.871 Y139.032 E66.00189
G0 F9000 X154.872 Y138.724
G1 F720 X154.213 Y141.185 E66.02712
G0 F9000 X154.054 Y141.185
G1 F720 X154.03 Y141.161 E66.02745
G0 F9000 X153.559 Y141.185
G1 F720 X151.408 Y139.034 E66.05758
G0 F9000 X151.408 Y138.539
G1 F720 X153.692 Y140.823 E66.08957
G0 F9000 X154.03 Y140.666
G1 F720 X154.549 Y141.185 E66.09684
G0 F9000 X154.871 Y141.012
G1 F720 X154.03 Y140.171 E66.10861
G0 F9000 X153.692 Y140.328
G1 F720 X151.408 Y138.044 E66.1406
G0 F9000 X151.408 Y137.549
G1 F720 X153.692 Y139.833 E66.17259
G0 F9000 X154.03 Y139.676
G1 F720 X154.871 Y140.517 E66.18437
G0 F9000 X154.871 Y140.022
G1 F720 X154.03 Y139.181 E66.19614
G0 F9000 X153.692 Y139.338
G1 F720 X151.408 Y137.054 E66.22813
G0 F9000 X151.408 Y136.559
G1 F720 X153.692 Y138.843 E66.26012
G0 F9000 X154.03 Y138.686
G1 F720 X154.871 Y139.527 E66.2719
G0 F9000 X154.872 Y139.675
G1 F720 X153.222 Y140.117 E66.28881
G0 F9000 X153.064 Y141.185
G1 F720 X151.408 Y139.529 E66.312
G0 F9000 X151.408 Y140.024
G1 F720 X152.569 Y141.185 E66.32826
G0 F9000 X152.074 Y141.185
G1 F720 X151.408 Y140.519 E66.33759
G0 F9000 X151.408 Y141.014
G1 F720 X151.579 Y141.185 E66.33999
G0 F9000 X153.222 Y138.373
G1 F720 X154.871 Y140.022 E66.36308
G0 F9000 X153.692 Y138.348
G1 F720 X151.408 Y136.064 E66.39507
G0 F9000 X153.119 Y133.815
G1 F720 X153.692 Y134.388 E66.40309
G0 F9000 X154.03 Y134.231
G1 F720 X154.871 Y135.072 E66.41487
G0 F9000 X154.871 Y135.072
G1 F720 X153.615 Y133.816 E66.43246
G0 F9000 X153.614 Y133.815
G1 F720 X153.692 Y133.893 E66.43355
G0 F9000 X154.109 Y133.815
G1 F720 X154.871 Y134.577 E66.44423
G0 F9000 X154.871 Y134.083
G1 F720 X154.604 Y133.815 E66.44797
G0 F9000 X136.717 Y140.96
; TYPE:SUPPORT
G1 F720 X136.659 Y140.902 E66.44878
G0 F9000 X138.078 Y133.836
G1 F720 X137.883 Y133.641 E66.45151
G0 F9000 X144.859 Y132.131
G1 F720 X144.914 Y132.186 E66.45228
G0 F9000 X144.93 Y132.026
G0 X145.02 Y127.888
G0 X145.02 Y127.888
G0 X144.859 Y127.888
G1 F720 X149.778 Y132.808 E66.52118
G0 F9000 X149.619 Y132.808
G0 X149.526 Y132.834
G0 X149.578 Y131.985
G0 X152.92 Y131.866
G0 X153.079 Y131.866
G1 F720 X148.653 Y127.44 E66.58317
G0 F9000 X147.057 Y142.815
G1 F720 X151.688 Y147.445 E66.64802
G0 F9000 X151.669 Y147.287
G0 X152.92 Y144.594
G0 X152.92 Y144.594
G0 X153.079 Y144.594
G1 F720 X151.3 Y142.815 E66.67293
G0 F9000 X151.3 Y142.975
G0 X147.559 Y147.401
G0 X147.559 Y147.401
G0 X147.559 Y147.559
G1 F720 X144.859 Y144.859 E66.71075
G0 F9000 X159.458 Y142.488
G1 F720 X159.931 Y142.96 E66.71736
G0 F9000 X159.931 Y142.801
G0 X161.32 Y140.311
G0 X161.32 Y140.311
G0 X161.479 Y140.265
G1 F720 X161.453 Y140.24 E66.71772
G0 F9000 X161.173 Y139.96
G1 F720 X159.859 Y138.645 E66.73613
G0 F9000 X159.859 Y137.601
G0 X161.32 Y136.023
G0 X161.32 Y136.023
G0 X161.479 Y136.023
G1 F720 X160.296 Y134.841 E66.75269
; LAYER:13
G0 F9000 X146.051 Y133.298 Z2.85
; TYPE:WALL-INNER
G1 F720 X146.051 Y141.703 E66.83593
G1 X142.363 Y141.703 E66.87245
G1 X142.363 Y133.298 E66.95568
G1 X146.051 Y133.298 E66.9922
G0 F9000 X145.701 Y133.648
G1 F720 X145.701 Y141.353 E67.06851
G1 X142.713 Y141.353 E67.0981
G1 X142.713 Y133.648 E67.1744
G1 X145.701 Y133.648 E67.20399
G0 F9000 X146.401 Y132.948
; TYPE:WALL-OUTER
G1 F600 X146.401 Y142.053 E67.29416
G1 X142.013 Y142.053 E67.33761
G1 X142.013 Y132.948 E67.42778
G1 X146.401 Y132.948 E67.47123
G0 F9000 X145.403 Y133.762
; TYPE:FILL
G1 F720 X144.008 Y135.157 E67.49077
G0 F9000 X143.67 Y135
G1 F720 X142.827 Y135.843 E67.50257
G0 F9000 X142.827 Y135.656
G1 F720 X144.478 Y135.213 E67.5195
G0 F9000 X144.478 Y134.578
G1 F720 X143.662 Y133.762 E67.53093
G0 F9000 X143.423 Y133.762
G1 F720 X142.827 Y134.358 E67.53928
G0 F9000 X142.827 Y134.853
G1 F720 X143.67 Y134.01 E67.55108
G0 F9000 X144.008 Y134.167
G1 F720 X144.413 Y133.762 E67.55675
G0 F9000 X144.908 Y133.762
G1 F720 X144.008 Y134.662 E67.56936
G0 F9000 X143.67 Y134.505
G1 F720 X142.827 Y135.348 E67.58117
G0 F9000 X143.67 Y135.495
G1 F720 X142.827 Y136.338 E67.59297
G0 F9000 X142.827 Y136.833
G1 F720 X143.67 Y135.99 E67.60478
G0 F9000 X144.008 Y136.147
G1 F720 X145.585 Y134.57 E67.62686
G0 F9000 X145.585 Y134.075
G1 F720 X144.008 Y135.652 E67.64895
G0 F9000 X143.67 Y136.485
G1 F720 X142.827 Y137.328 E67.66076
G0 F9000 X142.827 Y137.823
G1 F720 X143.67 Y136.98 E67.67256
G0 F9000 X144.008 Y137.136
G1 F720 X145.585 Y135.56 E67.69464
G0 F9000 X145.585 Y135.065
G1 F720 X144.008 Y136.642 E67.71673
G0 F9000 X144.478 Y136.946
G1 F720 X143.329 Y141.236 E67.76071
G0 F9000 X143.372 Y141.238
G1 F720 X143.67 Y140.939 E67.76489
G0 F9000 X144.008 Y141.096
G1 F720 X145.585 Y139.519 E67.78697
G0 F9000 X145.585 Y139.024
G1 F720 X144.008 Y140.601 E67.80906
G0 F9000 X143.67 Y140.444
G1 F720 X142.877 Y141.237 E67.82017
G0 F9000 X142.827 Y140.793
G1 F720 X143.67 Y139.949 E67.83198
G0 F9000 X144.008 Y140.106
G1 F720 X145.585 Y138.529 E67.85406
G0 F9000 X145.585 Y138.035
G1 F720 X144.008 Y139.611 E67.87614
G0 F9000 X143.67 Y139.454
G1 F720 X142.827 Y140.298 E67.88796
G0 F9000 X142.827 Y139.803
G1 F720 X143.67 Y138.959 E67.89977
G0 F9000 X144.008 Y139.116
G1 F720 X145.585 Y137.54 E67.92185
G0 F9000 X145.585 Y137.045
G1 F720 X144.008 Y138.621 E67.94393
G0 F9000 X143.67 Y138.464
G1 F720 X142.827 Y139.308 E67.95574
G0 F9000 X142.827 Y139.279
G1 F720 X144.478 Y138.836 E67.97267
G0 F9000 X144.478 Y139.528
G1 F720 X142.827 Y137.877 E67.99579
G0 F9000 X142.827 Y138.318
G1 F720 X143.67 Y137.474 E68.0076
G0 F9000 X144.008 Y137.631
G1 F720 X145.585 Y136.055 E68.02968
G0 F9000 X145.585 Y136.55
G1 F720 X144.008 Y138.126 E68.05176
G0 F9000 X143.67 Y137.969
G1 F720 X142.827 Y138.813 E68.06357
G0 F9000 X144.362 Y141.238
G1 F720 X145.585 Y140.014 E68.08071
G0 F9000 X145.585 Y140.509
G1 F720 X144.857 Y141.238 E68.09091
G0 F9000 X145.352 Y141.238
G1 F720 X145.585 Y141.004 E68.09418
G0 F9000 X142.827 Y133.863
G1 F720 X142.927 Y133.763 E68.09558
G1 F1800 E65.09558
G1 Z3.85
G0 F9000 X151.95 Y133.298
; TYPE:WALL-INNER
G1 Z2.85
G1 F1800 E68.09558
G1 F720 X155.638 Y133.298 E68.1321
G1 X155.638 Y141.703 E68.21534
G1 X151.95 Y141.703 E68.25186
G1 X151.95 Y133.298 E68.3351
G0 F9000 X152.3 Y133.648
G1 F720 X155.288 Y133.648 E68.36469
G1 X155.288 Y141.353 E68.44099
G1 X152.3 Y141.353 E68.47058
G1 X152.3 Y133.648 E68.54688
G0 F9000 X151.6 Y132.948
; TYPE:WALL-OUTER
G1 F600 X155.988 Y132.948 E68.59033
G1 X155.988 Y142.053 E68.6805
G1 X151.6 Y142.053 E68.72396
G1 X151.6 Y132.948 E68.81412
G0 F9000 X152.826 Y133.763
; TYPE:FILL
G1 F720 X152.414 Y134.176 E68.8199
G0 F9000 X152.414 Y134.671
G1 F720 X153.322 Y133.762 E68.83262
G0 F9000 X153.562 Y133.763
G1 F720 X155.172 Y135.373 E68.85517
G0 F9000 X155.172 Y135.377
G1 F720 X154.329 Y136.22 E68.86698
G0 F9000 X153.991 Y136.063
G1 F720 X152.414 Y137.64 E68.88906
G0 F9000 X152.414 Y137.146
G1 F720 X153.991 Y135.568 E68.91116
G0 F9000 X154.329 Y135.725
G1 F720 X155.172 Y134.882 E68.92296
G0 F9000 X155.172 Y134.387
G1 F720 X154.329 Y135.23 E68.93477
G0 F9000 X153.991 Y135.073
G1 F720 X152.414 Y136.651 E68.95686
G0 F9000 X152.414 Y136.156
G1 F720 X153.991 Y134.578 E68.97895
G0 F9000 X154.329 Y134.735
G1 F720 X155.172 Y133.892 E68.99076
G0 F9000 X154.807 Y133.762
G1 F720 X154.329 Y134.24 E68.99745
G0 F9000 X153.991 Y134.083
G1 F720 X152.414 Y135.661 E69.01955
G0 F9000 X152.414 Y135.166
G1 F720 X153.817 Y133.762 E69.0392
G0 F9000 X155.172 Y135.872
G1 F720 X154.329 Y136.715 E69.05101
G0 F9000 X153.991 Y136.558
G1 F720 X152.414 Y138.135 E69.07309
G0 F9000 X152.414 Y138.63
G1 F720 X153.991 Y137.053 E69.09518
G0 F9000 X154.329 Y137.21
G1 F720 X155.172 Y136.367 E69.10699
G0 F9000 X155.172 Y135.971
G1 F720 X153.521 Y136.413 E69.12391
G0 F9000 X153.991 Y137.548
G1 F720 X152.414 Y139.125 E69.146
G0 F9000 X152.414 Y139.62
G1 F720 X153.991 Y138.043 E69.16808
G0 F9000 X154.329 Y138.2
G1 F720 X155.172 Y137.357 E69.17989
G0 F9000 X155.172 Y137.604
G1 F720 X154.199 Y141.237 E69.21713
G0 F9000 X154.329 Y141.17
G1 F720 X155.172 Y140.327 E69.22894
G0 F9000 X155.172 Y140.323
G1 F720 X153.521 Y138.672 E69.25206
G0 F9000 X153.991 Y138.538
G1 F720 X152.414 Y140.115 E69.27415
G0 F9000 X152.414 Y140.61
G1 F720 X153.991 Y139.033 E69.29623
G0 F9000 X154.329 Y139.19
G1 F720 X155.172 Y138.347 E69.30804
G0 F9000 X155.172 Y137.852
G1 F720 X154.329 Y138.695 E69.31985
G0 F9000 X155.172 Y138.842
G1 F720 X154.329 Y139.685 E69.33165
G0 F9000 X153.991 Y139.528
G1 F720 X152.414 Y141.105 E69.35374
G0 F9000 X152.776 Y141.238
G1 F720 X153.991 Y140.023 E69.37075
G0 F9000 X154.329 Y140.18
G1 F720 X155.172 Y139.337 E69.38256
G0 F9000 X155.172 Y139.595
G1 F720 X153.521 Y140.037 E69.39949
G0 F9000 X153.991 Y140.518
G1 F720 X153.271 Y141.238 E69.40957
G0 F9000 X153.766 Y141.238
G1 F720 X153.991 Y141.013 E69.41272
G0 F9000 X154.329 Y140.675
G1 F720 X155.172 Y139.832 E69.42453
G0 F9000 X155.172 Y140.822
G1 F720 X154.756 Y141.238 E69.43035
G0 F9000 X154.329 Y137.705
G1 F720 X155.172 Y136.862 E69.44216
G0 F9000 X160.296 Y134.841
; TYPE:SUPPORT
G1 F720 X161.479 Y136.023 E69.45872
G0 F9000 X159.859 Y138.645
G1 F720 X161.173 Y139.96 E69.47713
G0 F9000 X161.453 Y140.24
G1 F720 X161.479 Y140.265 E69.47749
G0 F9000 X161.32 Y140.311
G0 X159.62 Y142.488
G0 X159.62 Y142.488
G0 X159.458 Y142.488
G1 F720 X159.931 Y142.96 E69.4841
G0 F9000 X153.078 Y144.593
G1 F720 X151.353 Y142.868 E69.50826
G0 F9000 X150.784 Y142.299
G1 F720 X149.925 Y141.44 E69.52029
G0 F9000 X149.925 Y141.601
G0 X147.11 Y143.028
G0 X147.11 Y143.028
G0 X147.11 Y142.868
G1 F720 X151.688 Y147.445 E69.5844
G0 F9000 X151.669 Y147.287
G0 X147.559 Y147.401
G0 X147.559 Y147.401
G0 X147.559 Y147.559
G1 F720 X144.859 Y144.859 E69.62221
G0 F9000 X150.531 Y133.56
G1 F720 X144.859 Y127.888 E69.70165
G0 F9000 X145.02 Y127.888
G0 X148.653 Y127.601
G0 X148.653 Y127.601
G0 X148.653 Y127.44
G1 F720 X153.079 Y131.866 E69.76364
G0 F9000 X152.92 Y131.866
G0 X145.02 Y132.063
G0 X145.02 Y132.063
G0 X144.86 Y132.132
G1 F720 X144.859 Y132.131 E69.76365
G0 F9000 X138.078 Y133.836
G1 F720 X137.883 Y133.641 E69.76638
G0 F9000 X136.659 Y140.902
G1 F720 X136.717 Y140.96 E69.76719
; LAYER:14
G0 F9000 X142.064 Y141.756 Z3.05
; TYPE:WALL-INNER
G1 F720 X142.064 Y133.245 E69.85148
G1 X145.045 Y133.245 E69.881
G1 X145.045 Y141.756 E69.96528
G1 X142.064 Y141.756 E69.9948
G0 F9000 X142.414 Y141.406
G1 F720 X142.414 Y133.595 E70.07215
G1 X144.695 Y133.595 E70.09474
G1 X144.695 Y141.406 E70.1721
G1 X142.414 Y141.406 E70.19468
G0 F9000 X141.714 Y142.106
; TYPE:WALL-OUTER
G1 F600 X141.714 Y132.895 E70.2859
G1 X145.395 Y132.895 E70.32235
G1 X145.395 Y142.106 E70.41357
G1 X141.714 Y142.106 E70.45002
G0 F9000 X142.776 Y141.291
; TYPE:FILL
G1 F720 X142.528 Y141.043 E70.4535
G0 F9000 X142.528 Y140.548
G1 F720 X143.271 Y141.291 E70.4639
G0 F9000 X143.314 Y141.29
G1 F720 X144.579 Y136.568 E70.51231
G0 F9000 X144.579 Y136.659
G1 F720 X143.709 Y135.789 E70.5245
G0 F9000 X143.371 Y135.946
G1 F720 X142.527 Y135.103 E70.53631
G0 F9000 X142.527 Y134.608
G1 F720 X143.371 Y135.451 E70.54812
G0 F9000 X143.709 Y135.294
G1 F720 X144.579 Y136.164 E70.56031
G0 F9000 X144.579 Y135.669
G1 F720 X143.709 Y134.8 E70.57248
G0 F9000 X143.371 Y134.956
G1 F720 X142.527 Y134.113 E70.5843
G0 F9000 X142.619 Y133.71
G1 F720 X143.371 Y134.462 E70.59483
G0 F9000 X143.709 Y134.305
G1 F720 X144.579 Y135.174 E70.60701
G0 F9000 X144.579 Y135.186
G1 F720 X142.528 Y135.735 E70.62803
G0 F9000 X142.527 Y135.598
G1 F720 X143.371 Y136.441 E70.63985
G0 F9000 X143.709 Y136.284
G1 F720 X144.579 Y137.154 E70.65203
G0 F9000 X144.579 Y137.649
G1 F720 X143.709 Y136.779 E70.66421
G0 F9000 X143.371 Y136.936
G1 F720 X142.527 Y136.093 E70.67603
G0 F9000 X142.527 Y136.588
G1 F720 X143.371 Y137.431 E70.68784
G0 F9000 X143.709 Y137.274
G1 F720 X144.579 Y138.144 E70.70002
G0 F9000 X144.579 Y138.639
G1 F720 X143.709 Y137.769 E70.71221
G0 F9000 X143.371 Y137.926
G1 F720 X142.527 Y137.083 E70.72402
G0 F9000 X142.528 Y137.578
G1 F720 X143.371 Y138.421 E70.73583
G0 F9000 X143.709 Y138.264
G1 F720 X144.579 Y139.134 E70.74801
G0 F9000 X144.579 Y138.81
G1 F720 X142.528 Y139.359 E70.76904
G0 F9000 X142.528 Y139.558
G1 F720 X143.371 Y140.401 E70.78084
G0 F9000 X143.709 Y140.244
G1 F720 X144.579 Y141.114 E70.79303
G0 F9000 X144.261 Y141.291
G1 F720 X143.709 Y140.739 E70.80076
G0 F9000 X143.371 Y140.896
G1 F720 X142.528 Y140.053 E70.81257
G0 F9000 X143.371 Y139.906
G1 F720 X142.528 Y139.063 E70.82437
G0 F9000 X142.528 Y138.568
G1 F720 X143.371 Y139.411 E70.83618
G0 F9000 X143.709 Y139.254
G1 F720 X144.579 Y140.124 E70.84836
G0 F9000 X144.579 Y139.629
G1 F720 X143.709 Y138.759 E70.86055
G0 F9000 X143.371 Y138.916
G1 F720 X142.528 Y138.073 E70.87235
G0 F9000 X142.528 Y137.578
G1 F720 X144.579 Y139.629 E70.90108
G0 F9000 X143.709 Y139.749
G1 F720 X144.579 Y140.619 E70.91326
G0 F9000 X143.766 Y141.291
G1 F720 X143.709 Y141.234 E70.91406
G0 F9000 X144.579 Y134.679
G1 F720 X143.709 Y133.81 E70.92624
G0 F9000 X143.609 Y133.709
G1 F720 X144.579 Y134.679 E70.93982
G0 F9000 X144.579 Y134.184
G1 F720 X144.104 Y133.709 E70.94647
G0 F9000 X143.371 Y133.967
G1 F720 X143.114 Y133.709 E70.95008
G1 F1800 E67.95008
G1 Z4.05
G0 F9000 X152.956 Y133.245
; TYPE:WALL-INNER
G1 Z3.05
G1 F1800 E70.95008
G1 F720 X155.937 Y133.245 E70.9796
G1 X155.937 Y141.756 E71.06389
G1 X152.956 Y141.756 E71.09341
G1 X152.956 Y133.245 E71.17769
G0 F9000 X153.306 Y133.595
G1 F720 X155.587 Y133.595 E71.20028
G1 X155.587 Y141.406 E71.27763
G1 X153.306 Y141.406 E71.30022
G1 X153.306 Y133.595 E71.37757
G0 F9000 X152.606 Y132.895
; TYPE:WALL-OUTER
G1 F600 X156.287 Y132.895 E71.41402
G1 X156.287 Y142.106 E71.50524
G1 X152.606 Y142.106 E71.54169
G1 X152.606 Y132.895 E71.63291
G0 F9000 X153.509 Y133.71
; TYPE:FILL
G1 F720 X154.289 Y134.491 E71.64384
G0 F9000 X154.627 Y134.334
G1 F720 X155.471 Y135.177 E71.65565
G0 F9000 X155.471 Y134.682
G1 F720 X154.627 Y133.839 E71.66747
G0 F9000 X154.289 Y133.996
G1 F720 X154.004 Y133.71 E71.67147
G0 F9000 X153.509 Y133.71
G1 F720 X155.471 Y135.672 E71.69894
G0 F9000 X155.471 Y135.672
G1 F720 X154.627 Y134.828 E71.71076
G0 F9000 X154.289 Y134.985
G1 F720 X153.42 Y134.116 E71.72293
G0 F9000 X153.42 Y134.611
G1 F720 X154.289 Y135.48 E71.7351
G0 F9000 X154.627 Y135.323
G1 F720 X155.471 Y136.167 E71.74692
G0 F9000 X155.47 Y135.891
G1 F720 X153.42 Y136.441 E71.76794
G0 F9000 X153.42 Y136.591
G1 F720 X154.289 Y137.46 E71.78011
G0 F9000 X154.627 Y137.303
G1 F720 X155.471 Y138.147 E71.79193
G0 F9000 X155.471 Y137.652
G1 F720 X154.627 Y136.808 E71.80375
G0 F9000 X154.289 Y136.965
G1 F720 X153.42 Y136.096 E71.81592
G0 F9000 X153.42 Y135.601
G1 F720 X154.289 Y136.47 E71.82809
G0 F9000 X154.627 Y136.313
G1 F720 X155.471 Y137.157 E71.83991
G0 F9000 X155.471 Y136.662
G1 F720 X154.627 Y135.818 E71.85173
G0 F9000 X154.289 Y135.975
G1 F720 X153.42 Y135.106 E71.86391
G0 F9000 X153.42 Y137.086
G1 F720 X154.29 Y137.956 E71.87609
G0 F9000 X154.628 Y137.799
G1 F720 X155.471 Y138.642 E71.8879
G0 F9000 X155.471 Y139.137
G1 F720 X154.628 Y138.294 E71.8997
G0 F9000 X154.29 Y138.451
G1 F720 X153.42 Y137.581 E71.91189
G0 F9000 X153.42 Y138.076
G1 F720 X154.29 Y138.946 E71.92407
G0 F9000 X154.628 Y138.789
G1 F720 X155.471 Y139.632 E71.93588
G0 F9000 X155.471 Y139.514
G1 F720 X153.42 Y140.064 E71.9569
G0 F9000 X153.42 Y140.055
G1 F720 X154.29 Y140.926 E71.9691
G0 F9000 X154.628 Y140.769
G1 F720 X155.15 Y141.291 E71.97641
G0 F9000 X155.471 Y141.117
G1 F720 X154.628 Y140.274 E71.98821
G0 F9000 X154.29 Y140.431
G1 F720 X153.42 Y139.56 E72.0004
G0 F9000 X153.42 Y139.065
G1 F720 X154.29 Y139.936 E72.0126
G0 F9000 X154.628 Y139.779
G1 F720 X155.471 Y140.622 E72.0244
G0 F9000 X155.471 Y140.622
G1 F720 X153.42 Y138.571 E72.05313
G0 F9000 X153.42 Y138.571
G1 F720 X154.29 Y139.441 E72.06531
G0 F9000 X154.628 Y139.284
G1 F720 X155.471 Y140.127 E72.07712
G0 F9000 X154.628 Y141.264
G1 F720 X154.655 Y141.291 E72.07749
G0 F9000 X154.185 Y141.29
G1 F720 X155.471 Y136.487 E72.12673
G0 F9000 X155.471 Y134.187
G1 F720 X154.994 Y133.71 E72.13341
G0 F9000 X153.42 Y140.55
G1 F720 X154.16 Y141.291 E72.14378
G0 F9000 X153.664 Y141.29
G1 F720 X153.42 Y141.045 E72.14721
G0 F9000 X136.717 Y140.96
; TYPE:SUPPORT
G1 F720 X136.659 Y140.902 E72.14802
G0 F9000 X138.078 Y133.836
G1 F720 X137.883 Y133.641 E72.15075
G0 F9000 X144.859 Y127.888
G1 F720 X150.531 Y133.561 E72.2302
G0 F9000 X150.531 Y133.401
G0 X151.562 Y132.738
G0 X151.59 Y131.879
G0 X152.92 Y131.866
G0 X153.079 Y131.866
G1 F720 X148.653 Y127.44 E72.29218
G0 F9000 X149.926 Y141.441
G1 F720 X153.079 Y144.594 E72.33634
G0 F9000 X152.92 Y144.594
G0 X151.669 Y147.287
G0 X151.669 Y147.287
G0 X151.688 Y147.445
G1 F720 X146.209 Y141.966 E72.41307
G0 F9000 X146.37 Y141.966
G0 X146.353 Y142
G0 X146.411 Y143.122
G0 X145.02 Y144.859
G0 X144.859 Y144.859
G1 F720 X147.559 Y147.559 E72.45088
G0 F9000 X159.458 Y142.488
G1 F720 X159.931 Y142.96 E72.4575
G0 F9000 X159.931 Y142.801
G0 X161.32 Y140.311
G0 X161.32 Y140.311
G0 X161.479 Y140.265
G1 F720 X161.453 Y140.24 E72.45786
G0 F9000 X161.173 Y139.96
G1 F720 X159.859 Y138.645 E72.47627
G0 F9000 X159.859 Y137.601
G0 X161.32 Y136.023
G0 X161.32 Y136.023
G0 X161.479 Y136.023
G1 F720 X160.296 Y134.841 E72.49283
; LAYER:15
G0 F9000 X144.718 Y133.192 Z3.25
; TYPE:WALL-INNER
G1 F720 X144.718 Y141.809 E72.57816
G1 X141.765 Y141.809 E72.60741
G1 X141.765 Y133.192 E72.69274
G1 X144.718 Y133.192 E72.72198
G0 F9000 X144.368 Y133.542
G1 F720 X144.368 Y141.459 E72.80039
G1 X142.115 Y141.459 E72.8227
G1 X142.115 Y133.542 E72.9011
G1 X144.368 Y133.542 E72.92341
G0 F9000 X145.068 Y132.842
; TYPE:WALL-OUTER
G1 F600 X145.068 Y142.159 E73.01568
G1 X141.415 Y142.159 E73.05185
G1 X141.415 Y132.842 E73.14412
G1 X145.068 Y132.842 E73.18029
G0 F9000 X144.023 Y133.657
; TYPE:FILL
G1 F720 X143.409 Y134.271 E73.18889
G0 F9000 X143.072 Y134.113
G1 F720 X142.229 Y134.956 E73.2007
G0 F9000 X142.229 Y134.461
G1 F720 X143.034 Y133.656 E73.21197
G0 F9000 X143.409 Y133.776
G1 F720 X143.529 Y133.656 E73.21365
G0 F9000 X143.556 Y133.657
G1 F720 X144.252 Y134.353 E73.2234
G0 F9000 X144.252 Y134.418
G1 F720 X143.409 Y135.261 E73.23521
G0 F9000 X143.072 Y135.103
G1 F720 X142.229 Y135.946 E73.24701
G0 F9000 X142.229 Y135.816
G1 F720 X144.252 Y135.273 E73.26776
G0 F9000 X144.252 Y135.408
G1 F720 X143.409 Y136.251 E73.27956
G0 F9000 X143.072 Y136.093
G1 F720 X142.229 Y136.936 E73.29137
G0 F9000 X142.229 Y137.279
G1 F720 X144.251 Y139.302 E73.31969
G0 F9000 X144.251 Y139.368
G1 F720 X143.409 Y140.211 E73.33149
G0 F9000 X143.072 Y140.053
G1 F720 X142.229 Y140.895 E73.34329
G0 F9000 X142.276 Y141.344
G1 F720 X143.072 Y140.548 E73.35444
G0 F9000 X143.409 Y140.706
G1 F720 X144.251 Y139.863 E73.36624
G0 F9000 X144.251 Y140.358
G1 F720 X143.409 Y141.201 E73.37804
G0 F9000 X143.3 Y141.343
G1 F720 X144.252 Y137.789 E73.41447
G0 F9000 X144.251 Y137.883
G1 F720 X143.409 Y138.726 E73.42627
G0 F9000 X143.072 Y138.568
G1 F720 X142.229 Y139.411 E73.43808
G0 F9000 X142.229 Y139.439
G1 F720 X144.252 Y138.897 E73.45882
G0 F9000 X144.251 Y138.873
G1 F720 X143.409 Y139.716 E73.47062
G0 F9000 X143.072 Y139.558
G1 F720 X142.229 Y140.401 E73.48242
G0 F9000 X142.229 Y139.906
G1 F720 X143.072 Y139.063 E73.49423
G0 F9000 X143.409 Y139.221
G1 F720 X144.251 Y138.378 E73.50603
G0 F9000 X143.409 Y138.231
G1 F720 X144.252 Y137.388 E73.51784
G0 F9000 X144.252 Y136.893
G1 F720 X143.409 Y137.736 E73.52964
G0 F9000 X143.072 Y137.578
G1 F720 X142.229 Y138.421 E73.54145
G0 F9000 X142.229 Y137.926
G1 F720 X143.072 Y137.083 E73.55325
G0 F9000 X143.409 Y137.241
G1 F720 X144.252 Y136.398 E73.56506
G0 F9000 X144.252 Y135.903
G1 F720 X143.409 Y136.746 E73.57687
G0 F9000 X143.072 Y136.588
G1 F720 X142.229 Y137.431 E73.58867
G0 F9000 X142.229 Y136.441
G1 F720 X143.072 Y135.598 E73.60048
G0 F9000 X143.409 Y135.756
G1 F720 X144.252 Y134.913 E73.61229
G0 F9000 X143.409 Y134.766
G1 F720 X144.252 Y133.923 E73.62409
G0 F9000 X143.072 Y134.608
G1 F720 X142.229 Y135.451 E73.6359
G0 F9000 X142.229 Y133.966
G1 F720 X142.539 Y133.656 E73.64024
G0 F9000 X143.072 Y138.073
G1 F720 X142.229 Y138.916 E73.65205
G0 F9000 X143.072 Y141.043
G1 F720 X142.771 Y141.344 E73.65626
G0 F9000 X143.761 Y141.344
G1 F720 X144.251 Y140.853 E73.66313
G1 F1800 E70.66313
G1 Z4.25
G0 F9000 X153.283 Y141.809
; TYPE:WALL-INNER
G1 Z3.25
G1 F1800 E73.66313
G1 F720 X153.283 Y133.192 E73.74846
G1 X156.236 Y133.192 E73.77771
G1 X156.236 Y141.809 E73.86304
G1 X153.283 Y141.809 E73.89229
G0 F9000 X153.633 Y141.459
G1 F720 X153.633 Y133.542 E73.97069
G1 X155.886 Y133.542 E73.993
G1 X155.886 Y141.459 E74.0714
G1 X153.633 Y141.459 E74.09371
G0 F9000 X152.933 Y142.159
; TYPE:WALL-OUTER
G1 F600 X152.933 Y132.842 E74.18598
G1 X156.586 Y132.842 E74.22215
G1 X156.586 Y142.159 E74.31442
G1 X152.933 Y142.159 E74.35059
G0 F9000 X153.746 Y141.258
; TYPE:FILL
G1 F720 X154.59 Y140.414 E74.36241
G0 F9000 X154.927 Y140.572
G1 F720 X155.77 Y139.729 E74.37422
G0 F9000 X155.77 Y139.434
G1 F720 X153.747 Y139.976 E74.39496
G0 F9000 X153.746 Y139.773
G1 F720 X154.59 Y138.929 E74.40678
G0 F9000 X154.927 Y139.087
G1 F720 X155.77 Y138.244 E74.41859
G0 F9000 X155.77 Y137.749
G1 F720 X154.927 Y138.592 E74.43039
G0 F9000 X154.59 Y138.434
G1 F720 X153.746 Y139.278 E74.44221
G0 F9000 X153.746 Y138.897
G1 F720 X155.77 Y140.921 E74.47056
G0 F9000 X155.77 Y140.719
G1 F720 X155.146 Y141.343 E74.4793
G0 F9000 X154.927 Y141.067
G1 F720 X155.77 Y140.224 E74.49111
G0 F9000 X154.927 Y140.077
G1 F720 X155.77 Y139.234 E74.50291
G0 F9000 X155.77 Y138.739
G1 F720 X154.927 Y139.582 E74.51472
G0 F9000 X154.59 Y139.424
G1 F720 X153.746 Y140.268 E74.52654
G0 F9000 X153.746 Y140.763
G1 F720 X154.59 Y139.919 E74.53836
G0 F9000 X154.59 Y140.909
G1 F720 X154.155 Y141.344 E74.54445
G0 F9000 X154.17 Y141.343
G1 F720 X155.77 Y135.372 E74.60567
G0 F9000 X155.769 Y135.275
G1 F720 X154.927 Y136.118 E74.61747
G0 F9000 X154.59 Y135.959
G1 F720 X153.747 Y136.802 E74.62927
G0 F9000 X153.747 Y136.353
G1 F720 X155.77 Y135.811 E74.65001
G0 F9000 X155.769 Y135.77
G1 F720 X154.927 Y136.613 E74.66181
G0 F9000 X154.59 Y136.454
G1 F720 X153.747 Y137.297 E74.67362
G0 F9000 X153.746 Y137.793
G1 F720 X154.59 Y136.949 E74.68544
G0 F9000 X154.927 Y137.108
G1 F720 X155.769 Y136.265 E74.69724
G0 F9000 X155.769 Y135.97
G1 F720 X153.747 Y133.948 E74.72555
G0 F9000 X153.747 Y133.832
G1 F720 X153.923 Y133.657 E74.72801
G0 F9000 X154.417 Y133.657
G1 F720 X153.747 Y134.327 E74.7374
G0 F9000 X153.747 Y134.822
G1 F720 X154.59 Y133.979 E74.7492
G0 F9000 X154.927 Y134.138
G1 F720 X155.407 Y133.657 E74.75593
G0 F9000 X155.769 Y133.79
G1 F720 X154.927 Y134.633 E74.76773
G0 F9000 X154.59 Y134.474
G1 F720 X153.747 Y135.317 E74.77954
G0 F9000 X153.747 Y135.812
G1 F720 X154.59 Y134.969 E74.79134
G0 F9000 X154.927 Y135.128
G1 F720 X155.769 Y134.285 E74.80314
G0 F9000 X155.769 Y134.78
G1 F720 X154.927 Y135.623 E74.81494
G0 F9000 X154.59 Y135.464
G1 F720 X153.747 Y136.307 E74.82675
G0 F9000 X154.59 Y137.444
G1 F720 X153.746 Y138.288 E74.83857
G0 F9000 X153.746 Y138.783
G1 F720 X154.59 Y137.939 E74.85039
G0 F9000 X154.927 Y138.097
G1 F720 X155.769 Y137.255 E74.86218
G0 F9000 X155.769 Y136.76
G1 F720 X154.927 Y137.602 E74.87397
G0 F9000 X155.77 Y141.214
G1 F720 X155.64 Y141.344 E74.87579
G0 F9000 X161.479 Y136.023
; TYPE:SUPPORT
G1 F720 X160.296 Y134.841 E74.89235
G0 F9000 X159.859 Y138.645
G1 F720 X161.173 Y139.96 E74.91076
G0 F9000 X161.453 Y140.24
G1 F720 X161.479 Y140.265 E74.91112
G0 F9000 X161.32 Y140.311
G0 X159.62 Y142.488
G0 X159.62 Y142.488
G0 X159.458 Y142.488
G1 F720 X159.931 Y142.96 E74.91774
G0 F9000 X153.079 Y144.594
G1 F720 X149.926 Y141.441 E74.96189
G0 F9000 X149.926 Y141.601
G0 X146.043 Y141.671
G0 X146.043 Y141.671
G0 X145.882 Y141.639
G1 F720 X151.688 Y147.445 E75.04321
G0 F9000 X151.669 Y147.287
G0 X147.559 Y147.401
G0 X147.559 Y147.401
G0 X147.559 Y147.559
G1 F720 X144.859 Y144.859 E75.08102
G0 F9000 X146.152 Y133.424
G1 F720 X145.882 Y133.154 E75.0848
G0 F9000 X146.043 Y133.154
G0 X150.531 Y133.401
G0 X150.531 Y133.401
G0 X150.531 Y133.561
G1 F720 X144.859 Y127.888 E75.16424
G0 F9000 X145.02 Y127.888
G0 X148.653 Y127.601
G0 X148.653 Y127.601
G0 X148.653 Y127.44
G1 F720 X153.079 Y131.866 E75.22623
G0 F9000 X138.078 Y133.836
G1 F720 X137.883 Y133.641 E75.22896
G0 F9000 X136.659 Y140.902
G1 F720 X136.717 Y140.96 E75.22977
; LAYER:16
G0 F9000 X141.49 Y141.862 Z3.45
; TYPE:WALL-INNER
G1 F720 X141.49 Y133.139 E75.31616
G1 X144.419 Y133.139 E75.34516
G1 X144.419 Y141.862 E75.43155
G1 X141.49 Y141.862 E75.46055
G0 F9000 X141.84 Y141.512
G1 F720 X141.84 Y133.489 E75.54
G1 X144.069 Y133.489 E75.56208
G1 X144.069 Y141.512 E75.64153
G1 X141.84 Y141.512 E75.6636
G0 F9000 X141.14 Y142.212
; TYPE:WALL-OUTER
G1 F600 X141.14 Y132.789 E75.75692
G1 X144.769 Y132.789 E75.79286
G1 X144.769 Y142.212 E75.88617
G1 X141.14 Y142.212 E75.92211
G0 F9000 X142.387 Y141.397
; TYPE:FILL
G1 F720 X141.954 Y140.964 E75.92817
G0 F9000 X141.954 Y140.469
G1 F720 X142.771 Y141.287 E75.93962
G0 F9000 X143.109 Y141.13
G1 F720 X143.377 Y141.397 E75.94337
G0 F9000 X143.286 Y141.396
G1 F720 X143.954 Y138.904 E75.96892
G0 F9000 X143.953 Y138.977
G1 F720 X141.953 Y139.513 E75.98942
G0 F9000 X141.954 Y139.479
G1 F720 X142.771 Y140.297 E76.00087
G0 F9000 X143.109 Y140.14
G1 F720 X143.953 Y140.983 E76.01269
G0 F9000 X143.871 Y141.396
G1 F720 X143.109 Y140.635 E76.02335
G0 F9000 X142.771 Y140.792
G1 F720 X141.954 Y139.974 E76.0348
G0 F9000 X142.771 Y139.802
G1 F720 X141.954 Y138.984 E76.04625
G0 F9000 X141.954 Y138.489
G1 F720 X142.771 Y139.307 E76.0577
G0 F9000 X143.109 Y139.15
G1 F720 X143.953 Y139.993 E76.06951
G0 F9000 X143.953 Y139.498
G1 F720 X143.109 Y138.655 E76.08132
G0 F9000 X142.771 Y138.812
G1 F720 X141.954 Y137.994 E76.09277
G0 F9000 X141.954 Y137.499
G1 F720 X142.771 Y138.317 E76.10422
G0 F9000 X143.109 Y138.16
G1 F720 X143.953 Y139.003 E76.11604
G0 F9000 X143.953 Y139.003
G1 F720 X141.954 Y137.004 E76.14403
G0 F9000 X141.954 Y137.004
G1 F720 X142.771 Y137.822 E76.15548
G0 F9000 X143.109 Y137.665
G1 F720 X143.953 Y138.508 E76.16729
G0 F9000 X143.953 Y138.013
G1 F720 X143.11 Y137.17 E76.1791
G0 F9000 X142.772 Y137.327
G1 F720 X141.954 Y136.509 E76.19056
G0 F9000 X141.954 Y136.014
G1 F720 X142.772 Y136.832 E76.20201
G0 F9000 X143.11 Y136.675
G1 F720 X143.953 Y137.518 E76.21382
G0 F9000 X143.953 Y137.023
G1 F720 X143.11 Y136.18 E76.22562
G0 F9000 X142.772 Y136.337
G1 F720 X141.954 Y135.519 E76.23708
G0 F9000 X141.953 Y135.889
G1 F720 X143.953 Y135.354 E76.25758
G0 F9000 X143.953 Y135.538
G1 F720 X143.11 Y134.696 E76.26938
G0 F9000 X142.772 Y134.853
G1 F720 X141.954 Y134.034 E76.28085
G0 F9000 X142.018 Y133.603
G1 F720 X142.772 Y134.358 E76.29141
G0 F9000 X143.11 Y134.201
G1 F720 X143.953 Y135.043 E76.30321
G0 F9000 X143.953 Y134.548
G1 F720 X143.11 Y133.706 E76.31501
G0 F9000 X142.772 Y133.863
G1 F720 X142.513 Y133.604 E76.31864
G0 F9000 X143.503 Y133.604
G1 F720 X143.953 Y134.054 E76.32494
G1 X143.503 Y133.604 E76.33124
G0 F9000 X143.11 Y135.191
G1 F720 X143.953 Y136.033 E76.34304
G0 F9000 X143.953 Y136.528
G1 F720 X143.11 Y135.686 E76.35484
G0 F9000 X142.772 Y135.842
G1 F720 X141.954 Y135.024 E76.3663
G0 F9000 X141.954 Y134.529
G1 F720 X142.772 Y135.348 E76.37776
G0 F9000 X143.109 Y139.645
G1 F720 X143.953 Y140.488 E76.38957
G1 F1800 E73.38957
G1 Z4.45
G0 F9000 X153.582 Y141.862
; TYPE:WALL-INNER
G1 Z3.45
G1 F1800 E76.38957
G1 F720 X153.582 Y133.139 E76.47596
G1 X156.511 Y133.139 E76.50496
G1 X156.511 Y141.862 E76.59135
G1 X153.582 Y141.862 E76.62035
G0 F9000 X153.932 Y141.512
G1 F720 X153.932 Y133.489 E76.6998
G1 X156.161 Y133.489 E76.72188
G1 X156.161 Y141.512 E76.80133
G1 X153.932 Y141.512 E76.8234
G0 F9000 X153.232 Y142.212
; TYPE:WALL-OUTER
G1 F600 X153.232 Y132.789 E76.91672
