; Generated with MatterSlice 1.0
; filamentDiameter = 3
; extrusionWidth = 0.35
; firstLayerExtrusionWidth = 0.7
; layerThickness = 0.2
; firstLayerThickness = 0.25
; automatic settings before start_gcode
G21 ; set units to millimeters
M107 ; fan off
M190 S65 ; wait for bed temperature to be reached
M104 T0 S230 ; start heating extruder 0
T0 ; set the active extruder to 0
; settings from start_gcode
G28 ; home all axes
G1 Z5 F5000 ; lift nozzle
; automatic settings after start_gcode
M109 T0 S185 ; wait for extruder 0 to reach temperature
T0 ; set the active extruder to 0
G90 ; use absolute coordinates
G92 E0 ; reset the expected extruder position
M82 ; use absolute distance for extrusion
; Layer count: 133
; LAYER:0
M107
G0 F9000 X165.013 Y117.234 Z0.25
G0 X165.013 Y117.234
; TYPE:SKIRT
G1 Z0.25
G1 F1800 E0
G1 F1080 X165.013 Y157.768 E1.00352
G1 X151.551 Y159.451 E1.3394
G1 X146.563 Y159.451 E1.46289
G1 X132.813 Y157.926 E1.80539
G1 X132.813 Y116.955 E2.81973
G1 X146.831 Y115.551 E3.16851
G1 X151.551 Y115.551 E3.28537
G1 X165.013 Y117.234 E3.62125
G0 F9000 X164.313 Y117.852
G1 F1080 X164.313 Y157.15 E4.59416
G1 X151.507 Y158.751 E4.91368
G1 X146.602 Y158.751 E5.03511
G1 X133.513 Y157.299 E5.36115
G1 X133.513 Y117.589 E6.34427
G1 X146.866 Y116.251 E6.67651
G1 X151.507 Y116.251 E6.79141
G1 X164.313 Y117.852 E7.11092
G0 F9000 X163.613 Y118.47
G1 F1080 X163.613 Y156.532 E8.05324
G1 X151.464 Y158.051 E8.35636
G1 X146.641 Y158.051 E8.47576
G1 X134.213 Y156.672 E8.78534
G1 X134.213 Y118.222 E9.73726
G1 X146.901 Y116.951 E10.05295
G1 X151.464 Y116.951 E10.16592
G1 X163.613 Y118.47 E10.46904
G0 F9000 X162.913 Y119.088
G1 F1080 X162.913 Y155.914 E11.38076
G1 X151.42 Y157.351 E11.66751
G1 X146.679 Y157.351 E11.78489
G1 X134.913 Y156.046 E12.07797
G1 X134.913 Y118.856 E12.9987
G1 X146.936 Y117.651 E13.29785
G1 X151.42 Y117.651 E13.40886
G1 X162.913 Y119.088 E13.69561
G0 F9000 X162.213 Y119.706
G1 F1080 X162.213 Y155.296 E14.57673
G1 X151.377 Y156.651 E14.84709
G1 X146.718 Y156.651 E14.96244
G1 X135.613 Y155.419 E15.23905
G1 X135.613 Y119.489 E16.12859
G1 X146.971 Y118.351 E16.41119
G1 X151.377 Y118.351 E16.52027
G1 X162.213 Y119.706 E16.79063
G0 F9000 X161.513 Y120.323
G1 F1080 X161.513 Y154.679 E17.6412
G1 X151.333 Y155.951 E17.89519
G1 X146.757 Y155.951 E18.00848
G1 X136.313 Y154.792 E18.26863
G1 X136.313 Y120.122 E19.12697
G1 X147.006 Y119.051 E19.39303
G1 X151.333 Y119.051 E19.50016
G1 X161.513 Y120.323 E19.75415
G0 F9000 X160.813 Y120.941
G1 F1080 X160.813 Y154.061 E20.57411
G1 X151.289 Y155.251 E20.81174
G1 X146.795 Y155.251 E20.923
G1 X137.013 Y154.166 E21.16666
G1 X137.013 Y120.756 E21.9938
G1 X147.041 Y119.751 E22.24332
G1 X151.289 Y119.751 E22.34848
G1 X160.813 Y120.941 E22.58611
G0 F9000 X160.113 Y121.559
G1 F1080 X160.113 Y153.443 E23.37547
G1 X151.246 Y154.551 E23.59671
G1 X146.834 Y154.551 E23.70594
G1 X137.713 Y153.539 E23.93313
G1 X137.713 Y121.389 E24.72909
G1 X147.076 Y120.451 E24.96205
G1 X151.246 Y120.451 E25.06529
G1 X160.113 Y121.559 E25.28652
G0 F9000 X159.413 Y122.177
G1 F1080 X159.413 Y152.825 E26.04529
G1 X151.202 Y153.851 E26.25015
G1 X146.873 Y153.851 E26.35732
G1 X138.413 Y152.913 E26.56806
G1 X138.413 Y122.022 E27.33284
G1 X147.111 Y121.151 E27.54925
G1 X151.202 Y121.151 E27.65054
G1 X159.413 Y122.177 E27.8554
G0 F9000 X149.278 Y133.818
; TYPE:WALL-OUTER
G1 F1080 X149.278 Y141.183 E28.03774
G1 X148.722 Y141.183 E28.05151
G1 X148.722 Y133.818 E28.23384
G1 X149.278 Y133.818 E28.24761
G0 F9000 X150.267 Y133.296
; TYPE:SUPPORT
G1 F3600 X150.531 Y133.561 E28.25224
G0 F9000 X149.799 Y132.828
G1 F3600 X144.702 Y127.731 E28.34147
G0 F9000 X144.863 Y127.777
G0 X148.654 Y127.601
G0 X148.654 Y127.601
G0 X148.654 Y127.441
G1 F3600 X153.121 Y131.908 E28.41967
G0 F9000 X152.963 Y131.908
G0 X148.93 Y132.727
G0 X147.531 Y132.627
G0 X146.191 Y133.286
G0 X146.172 Y133.444
G1 F3600 X144.702 Y131.974 E28.4454
G0 F9000 X145.841 Y141.598
G1 F3600 X151.693 Y147.45 E28.54785
G0 F9000 X151.674 Y147.292
G0 X152.963 Y144.637
G0 X152.963 Y144.637
G0 X153.122 Y144.637
G1 F3600 X150.267 Y141.781 E28.59784
G0 F9000 X150.428 Y141.781
G0 X150.504 Y141.74
G0 X150.469 Y142.374
G0 X144.863 Y144.703
G0 X144.703 Y144.703
G1 F3600 X147.56 Y147.56 E28.64785
G0 F9000 X147.257 Y142.302
; TYPE:SUPPORT-INTERFACE
G1 F3600 X147.73 Y141.829 E28.65613
G0 F9000 X147.73 Y141.334
G1 F3600 X146.704 Y142.361 E28.6741
G0 F9000 X146.209 Y142.361
G1 F3600 X147.73 Y140.839 E28.70074
G0 F9000 X147.73 Y140.344
G1 F3600 X145.714 Y142.361 E28.73604
G0 F9000 X145.219 Y142.361
G1 F3600 X147.73 Y139.849 E28.78001
G0 F9000 X147.73 Y139.354
G1 F3600 X144.724 Y142.361 E28.83264
G0 F9000 X144.229 Y142.361
G1 F3600 X147.73 Y138.859 E28.89394
G0 F9000 X147.73 Y138.364
G1 F3600 X143.902 Y142.192 E28.96095
G0 F9000 X143.902 Y141.697
G1 F3600 X147.73 Y137.869 E29.02796
G0 F9000 X147.731 Y137.373
G1 F3600 X143.902 Y141.202 E29.09499
G0 F9000 X143.902 Y140.707
G1 F3600 X147.731 Y136.878 E29.16203
G0 F9000 X147.731 Y136.383
G1 F3600 X143.902 Y140.212 E29.22906
G0 F9000 X143.902 Y139.717
G1 F3600 X147.731 Y135.888 E29.29609
G0 F9000 X147.731 Y135.393
G1 F3600 X143.902 Y139.222 E29.36312
G0 F9000 X143.902 Y138.727
G1 F3600 X147.731 Y134.899 E29.43014
G0 F9000 X147.731 Y134.404
G1 F3600 X143.902 Y138.233 E29.49717
G0 F9000 X143.902 Y137.738
G1 F3600 X147.731 Y133.909 E29.5642
G0 F9000 X147.731 Y133.414
G1 F3600 X143.902 Y137.243 E29.63123
G0 F9000 X143.902 Y136.748
G1 F3600 X147.728 Y132.921 E29.69822
G0 F9000 X147.357 Y132.798
G1 F3600 X143.902 Y136.253 E29.7587
G0 F9000 X143.902 Y135.758
G1 F3600 X146.986 Y132.674 E29.81269
G0 F9000 X146.524 Y132.641
G1 F3600 X143.902 Y135.263 E29.85859
G0 F9000 X143.902 Y134.768
G1 F3600 X146.029 Y132.641 E29.89583
G0 F9000 X145.534 Y132.641
G1 F3600 X143.902 Y134.273 E29.9244
G0 F9000 X143.902 Y133.778
G1 F3600 X145.039 Y132.641 E29.9443
G0 F9000 X144.544 Y132.641
G1 F3600 X143.902 Y133.283 E29.95554
G0 F9000 X143.902 Y132.788
G1 F3600 X144.049 Y132.641 E29.95812
G0 F9000 X150.267 Y133.353
G1 F3600 X150.875 Y132.745 E29.96876
G0 F9000 X151.475 Y132.64
G1 F3600 X150.267 Y133.848 E29.98991
G0 F9000 X150.267 Y134.343
G1 F3600 X151.969 Y132.64 E30.01971
G0 F9000 X152.464 Y132.64
G1 F3600 X150.267 Y134.838 E30.05818
G0 F9000 X150.267 Y135.333
G1 F3600 X152.959 Y132.641 E30.10531
G0 F9000 X153.454 Y132.641
G1 F3600 X150.267 Y135.828 E30.1611
G0 F9000 X150.267 Y136.323
G1 F3600 X153.922 Y132.668 E30.22509
G0 F9000 X153.922 Y133.163
G1 F3600 X150.267 Y136.818 E30.28907
G0 F9000 X150.267 Y137.313
G1 F3600 X153.922 Y133.658 E30.35306
G0 F9000 X153.922 Y134.153
G1 F3600 X150.267 Y137.808 E30.41704
G0 F9000 X150.267 Y138.303
G1 F3600 X153.922 Y134.647 E30.48103
G0 F9000 X153.922 Y135.142
G1 F3600 X150.267 Y138.797 E30.54502
G0 F9000 X150.267 Y139.292
G1 F3600 X153.922 Y135.637 E30.609
G0 F9000 X153.922 Y136.132
G1 F3600 X150.267 Y139.787 E30.67299
G0 F9000 X150.267 Y140.282
G1 F3600 X153.922 Y136.627 E30.73697
G0 F9000 X153.922 Y137.122
G1 F3600 X150.267 Y140.777 E30.80096
G0 F9000 X150.267 Y141.272
G1 F3600 X153.922 Y137.617 E30.86494
G0 F9000 X153.922 Y138.112
G1 F3600 X150.267 Y141.767 E30.92893
G0 F9000 X150.473 Y142.057
G1 F3600 X153.922 Y138.607 E30.98932
G0 F9000 X153.922 Y139.102
G1 F3600 X150.803 Y142.221 E31.04392
G0 F9000 X151.158 Y142.361
G1 F3600 X153.922 Y139.597 E31.09231
G0 F9000 X153.922 Y140.092
G1 F3600 X151.653 Y142.361 E31.13203
G0 F9000 X152.148 Y142.361
G1 F3600 X153.922 Y140.587 E31.16308
G0 F9000 X153.922 Y141.082
G1 F3600 X152.643 Y142.361 E31.18547
G0 F9000 X153.138 Y142.361
G1 F3600 X153.922 Y141.577 E31.1992
G0 F9000 X153.922 Y142.072
G1 F3600 X153.633 Y142.361 E31.20426
; LAYER:1
G0 F9000 X150.235 Y141.067 Z0.45
; TYPE:WALL-INNER
G1 F720 X147.766 Y141.067 E31.22871
G1 X147.766 Y133.934 E31.29935
G1 X150.235 Y133.934 E31.3238
G1 X150.235 Y141.067 E31.39443
G0 F9000 X149.885 Y140.717
G1 F720 X148.116 Y140.717 E31.41195
G1 X148.116 Y134.284 E31.47566
G1 X149.885 Y134.284 E31.49318
G1 X149.885 Y140.717 E31.55688
G0 F9000 X150.585 Y141.417
; TYPE:WALL-OUTER
G1 F600 X147.416 Y141.417 E31.58827
G1 X147.416 Y133.584 E31.66584
G1 X150.585 Y133.584 E31.69722
G1 X150.585 Y141.417 E31.77479
G0 F9000 X149.769 Y140.285
; TYPE:FILL
G1 F720 X149.452 Y140.602 E31.77923
G0 F9000 X148.958 Y140.601
G1 F720 X149.769 Y139.79 E31.79059
G0 F9000 X149.769 Y139.295
G1 F720 X148.463 Y140.601 E31.80888
G0 F9000 X148.23 Y140.34
G1 F720 X149.769 Y138.8 E31.83044
G0 F9000 X149.769 Y138.305
G1 F720 X148.23 Y139.845 E31.852
G0 F9000 X148.23 Y139.35
G1 F720 X149.769 Y137.81 E31.87356
G0 F9000 X149.768 Y137.316
G1 F720 X148.23 Y138.855 E31.8951
G0 F9000 X148.23 Y138.36
G1 F720 X149.768 Y136.821 E31.91665
G0 F9000 X149.768 Y136.326
G1 F720 X148.23 Y137.865 E31.9382
G0 F9000 X148.23 Y137.37
G1 F720 X149.768 Y135.831 E31.95974
G0 F9000 X149.768 Y135.336
G1 F720 X148.23 Y136.875 E31.98129
G0 F9000 X148.23 Y136.38
G1 F720 X149.768 Y134.841 E32.00284
G0 F9000 X149.716 Y134.399
G1 F720 X148.23 Y135.885 E32.02365
G0 F9000 X148.23 Y135.39
G1 F720 X149.221 Y134.399 E32.03753
G0 F9000 X148.726 Y134.399
G1 F720 X148.23 Y134.895 E32.04447
G0 F9000 X148.23 Y134.4
G1 F720 X148.231 Y134.399 E32.04449
G0 F9000 X145.842 Y141.599
; TYPE:SUPPORT
G1 F720 X151.693 Y147.45 E32.12643
G0 F9000 X151.674 Y147.292
G0 X152.963 Y144.637
G0 X152.963 Y144.637
G0 X153.122 Y144.637
G1 F720 X150.717 Y142.232 E32.16011
G0 F9000 X150.717 Y142.392
G0 X147.56 Y147.401
G0 X147.56 Y147.401
G0 X147.56 Y147.56
G1 F720 X144.703 Y144.703 E32.20012
G0 F9000 X146.172 Y133.444
G1 F720 X144.702 Y131.974 E32.22071
G0 F9000 X144.863 Y131.974
G0 X144.863 Y127.777
G0 X144.863 Y127.777
G0 X144.702 Y127.731
G1 F720 X149.739 Y132.768 E32.29125
G0 F9000 X149.739 Y132.609
G0 X152.963 Y131.908
G0 X152.963 Y131.908
G0 X153.121 Y131.908
G1 F720 X148.654 Y127.441 E32.35381
G0 F9000 X151.474 Y132.641
; TYPE:SUPPORT-INTERFACE
G1 F720 X151.399 Y132.716 E32.35486
G0 F9000 X151.399 Y133.211
G1 F720 X151.969 Y132.641 E32.36285
G0 F9000 X152.464 Y132.641
G1 F720 X151.399 Y133.706 E32.37776
G0 F9000 X151.399 Y134.201
G1 F720 X152.959 Y132.641 E32.39961
G0 F9000 X153.454 Y132.641
G1 F720 X151.399 Y134.696 E32.42839
G0 F9000 X151.399 Y135.191
G1 F720 X153.922 Y132.668 E32.46372
G0 F9000 X153.922 Y133.163
G1 F720 X151.399 Y135.686 E32.49906
G0 F9000 X151.399 Y136.18
G1 F720 X153.922 Y133.658 E32.53439
G0 F9000 X153.922 Y134.153
G1 F720 X151.399 Y136.675 E32.56971
G0 F9000 X151.399 Y137.17
G1 F720 X153.922 Y134.647 E32.60505
G0 F9000 X153.922 Y135.142
G1 F720 X151.399 Y137.665 E32.64038
G0 F9000 X151.399 Y138.16
G1 F720 X153.922 Y135.637 E32.67572
G0 F9000 X153.922 Y136.132
G1 F720 X151.399 Y138.655 E32.71105
G0 F9000 X151.399 Y139.15
G1 F720 X153.922 Y136.627 E32.74639
G0 F9000 X153.922 Y137.122
G1 F720 X151.399 Y139.645 E32.78172
G0 F9000 X151.399 Y140.14
G1 F720 X153.922 Y137.617 E32.81705
G0 F9000 X153.922 Y138.112
G1 F720 X151.399 Y140.635 E32.85239
G0 F9000 X151.399 Y141.13
G1 F720 X153.922 Y138.607 E32.88772
G0 F9000 X153.922 Y139.102
G1 F720 X151.399 Y141.625 E32.92306
G0 F9000 X151.399 Y142.12
G1 F720 X153.922 Y139.597 E32.95839
G0 F9000 X153.922 Y140.092
G1 F720 X151.653 Y142.361 E32.99017
G0 F9000 X152.148 Y142.361
G1 F720 X153.922 Y140.587 E33.01501
G0 F9000 X153.922 Y141.082
G1 F720 X152.643 Y142.361 E33.03293
G0 F9000 X153.138 Y142.361
G1 F720 X153.922 Y141.577 E33.04391
G0 F9000 X153.922 Y142.072
G1 F720 X153.633 Y142.361 E33.04795
G0 F9000 X146.6 Y141.97
G1 F720 X146.209 Y142.36 E33.05342
G0 F9000 X145.714 Y142.36
G1 F720 X146.6 Y141.475 E33.06582
G0 F9000 X146.6 Y140.98
G1 F720 X145.219 Y142.361 E33.08517
G0 F9000 X144.724 Y142.361
G1 F720 X146.6 Y140.485 E33.11144
G0 F9000 X146.6 Y139.99
G1 F720 X144.229 Y142.361 E33.14464
G0 F9000 X143.902 Y142.192
G1 F720 X146.6 Y139.495 E33.18242
G0 F9000 X146.6 Y139
G1 F720 X143.902 Y141.697 E33.2202
G0 F9000 X143.902 Y141.202
G1 F720 X146.6 Y138.505 E33.25798
G0 F9000 X146.6 Y138.01
G1 F720 X143.902 Y140.707 E33.29576
G0 F9000 X143.902 Y140.212
G1 F720 X146.6 Y137.515 E33.33354
G0 F9000 X146.6 Y137.02
G1 F720 X143.902 Y139.717 E33.37131
G0 F9000 X143.902 Y139.222
G1 F720 X146.6 Y136.525 E33.40909
G0 F9000 X146.6 Y136.03
G1 F720 X143.902 Y138.727 E33.44687
G0 F9000 X143.902 Y138.233
G1 F720 X146.6 Y135.535 E33.48466
G0 F9000 X146.6 Y135.04
G1 F720 X143.902 Y137.738 E33.52244
G0 F9000 X143.902 Y137.243
G1 F720 X146.6 Y134.545 E33.56023
G0 F9000 X146.6 Y134.05
G1 F720 X143.902 Y136.748 E33.59801
G0 F9000 X143.902 Y136.253
G1 F720 X146.6 Y133.555 E33.6358
G0 F9000 X146.6 Y133.06
G1 F720 X143.902 Y135.758 E33.67358
G0 F9000 X143.902 Y135.263
G1 F720 X146.525 Y132.64 E33.71032
G0 F9000 X146.03 Y132.64
G1 F720 X143.902 Y134.768 E33.74012
G0 F9000 X143.902 Y134.273
G1 F720 X145.535 Y132.64 E33.76299
G0 F9000 X145.039 Y132.641
G1 F720 X143.902 Y133.778 E33.77891
G0 F9000 X143.902 Y133.283
G1 F720 X144.544 Y132.641 E33.7879
G0 F9000 X144.049 Y132.641
G1 F720 X143.902 Y132.788 E33.78996
; LAYER:2
M106 S255
G0 F9000 X146.76 Y133.881 Z0.65
; TYPE:WALL-INNER
G1 F720 X151.24 Y133.881 E33.83433
G1 X151.24 Y141.12 E33.90602
G1 X146.76 Y141.12 E33.95038
G1 X146.76 Y133.881 E34.02207
G0 F9000 X147.11 Y134.231
G1 F720 X150.89 Y134.231 E34.0595
G1 X150.89 Y140.77 E34.12426
G1 X147.11 Y140.77 E34.16169
G1 X147.11 Y134.231 E34.22645
G0 F9000 X146.41 Y133.531
; TYPE:WALL-OUTER
G1 F600 X151.59 Y133.531 E34.27774
G1 X151.59 Y141.47 E34.35636
G1 X146.41 Y141.47 E34.40766
G1 X146.41 Y133.531 E34.48628
G0 F9000 X147.223 Y134.354
; TYPE:FILL
G1 F720 X150.774 Y137.904 E34.536
G0 F9000 X150.774 Y137.409
G1 F720 X147.71 Y134.346 E34.57891
G0 F9000 X148.205 Y134.346
G1 F720 X150.774 Y136.914 E34.61488
G0 F9000 X150.774 Y136.419
G1 F720 X148.7 Y134.346 E34.64392
G0 F9000 X149.194 Y134.345
G1 F720 X150.774 Y135.925 E34.66605
G0 F9000 X150.774 Y135.43
G1 F720 X149.689 Y134.345 E34.68124
G0 F9000 X150.184 Y134.345
G1 F720 X150.774 Y134.935 E34.68951
G0 F9000 X150.774 Y134.44
G1 F720 X150.679 Y134.345 E34.69084
G0 F9000 X147.223 Y134.849
G1 F720 X150.774 Y138.399 E34.74056
G0 F9000 X150.774 Y138.894
G1 F720 X147.223 Y135.344 E34.79029
G0 F9000 X147.223 Y135.839
G1 F720 X150.774 Y139.389 E34.84001
G0 F9000 X150.774 Y139.884
G1 F720 X147.223 Y136.334 E34.88973
G0 F9000 X147.223 Y136.829
G1 F720 X150.774 Y140.379 E34.93946
G0 F9000 X150.555 Y140.655
G1 F720 X147.223 Y137.324 E34.98612
G0 F9000 X147.223 Y137.819
G1 F720 X150.06 Y140.655 E35.02584
G0 F9000 X149.565 Y140.655
G1 F720 X147.223 Y138.314 E35.05863
G0 F9000 X147.223 Y138.809
G1 F720 X149.07 Y140.655 E35.08449
G0 F9000 X148.574 Y140.654
G1 F720 X147.223 Y139.304 E35.10341
G0 F9000 X147.223 Y139.799
G1 F720 X148.079 Y140.654 E35.11539
G0 F9000 X147.584 Y140.654
G1 F720 X147.223 Y140.294 E35.12044
G0 F9000 X145.593 Y132.866
; TYPE:SUPPORT
G1 F720 X144.702 Y131.974 E35.13292
G0 F9000 X144.863 Y131.974
G0 X144.863 Y127.777
G0 X144.863 Y127.777
G0 X144.702 Y127.731
G1 F720 X149.686 Y132.716 E35.20273
G0 F9000 X149.686 Y132.556
G0 X152.963 Y131.908
G0 X152.963 Y131.908
G0 X153.121 Y131.908
G1 F720 X148.654 Y127.441 E35.26529
G0 F9000 X150.77 Y142.285
G1 F720 X153.122 Y144.637 E35.29823
G0 F9000 X152.963 Y144.637
G0 X151.674 Y147.292
G0 X151.674 Y147.292
G0 X151.693 Y147.45
G1 F720 X146.527 Y142.284 E35.37058
G0 F9000 X146.527 Y142.445
G0 X144.863 Y144.703
G0 X144.863 Y144.703
G0 X144.703 Y144.703
G1 F720 X147.56 Y147.56 E35.41059
G0 F9000 X145.219 Y142.361
; TYPE:SUPPORT-INTERFACE
G1 F720 X145.593 Y141.986 E35.41584
G0 F9000 X145.593 Y141.491
G1 F720 X144.724 Y142.361 E35.42801
G0 F9000 X144.229 Y142.361
G1 F720 X145.593 Y140.996 E35.44712
G0 F9000 X145.593 Y140.501
G1 F720 X143.902 Y142.192 E35.47081
G0 F9000 X143.902 Y141.697
G1 F720 X145.593 Y140.006 E35.49449
G0 F9000 X145.593 Y139.511
G1 F720 X143.902 Y141.202 E35.51817
G0 F9000 X143.902 Y140.707
G1 F720 X145.593 Y139.016 E35.54185
G0 F9000 X145.593 Y138.521
G1 F720 X143.902 Y140.212 E35.56553
G0 F9000 X143.902 Y139.717
G1 F720 X145.593 Y138.026 E35.58922
G0 F9000 X145.593 Y137.531
G1 F720 X143.902 Y139.222 E35.6129
G0 F9000 X143.902 Y138.727
G1 F720 X145.593 Y137.036 E35.63658
G0 F9000 X145.593 Y136.541
G1 F720 X143.902 Y138.233 E35.66027
G0 F9000 X143.902 Y137.738
G1 F720 X145.593 Y136.046 E35.68396
G0 F9000 X145.593 Y135.551
G1 F720 X143.902 Y137.243 E35.70765
G0 F9000 X143.902 Y136.748
G1 F720 X145.593 Y135.056 E35.73134
G0 F9000 X145.593 Y134.561
G1 F720 X143.902 Y136.253 E35.75503
G0 F9000 X143.902 Y135.758
G1 F720 X145.593 Y134.066 E35.77872
G0 F9000 X145.593 Y133.571
G1 F720 X143.902 Y135.263 E35.80241
G0 F9000 X143.902 Y134.768
G1 F720 X145.593 Y133.076 E35.8261
G0 F9000 X145.534 Y132.641
G1 F720 X143.902 Y134.273 E35.84895
G0 F9000 X143.902 Y133.778
G1 F720 X145.039 Y132.641 E35.86488
G0 F9000 X144.544 Y132.641
G1 F720 X143.902 Y133.283 E35.87387
G0 F9000 X143.902 Y132.788
G1 F720 X144.049 Y132.641 E35.87593
G0 F9000 X152.404 Y132.701
G1 F720 X152.464 Y132.64 E35.87677
G0 F9000 X152.959 Y132.64
G1 F720 X152.404 Y133.196 E35.88455
G0 F9000 X152.404 Y133.691
G1 F720 X153.454 Y132.641 E35.89926
G0 F9000 X153.922 Y132.668
G1 F720 X152.404 Y134.186 E35.92052
G0 F9000 X152.404 Y134.681
G1 F720 X153.922 Y133.163 E35.94178
G0 F9000 X153.922 Y133.658
G1 F720 X152.404 Y135.176 E35.96304
G0 F9000 X152.404 Y135.671
G1 F720 X153.922 Y134.153 E35.9843
G0 F9000 X153.922 Y134.647
G1 F720 X152.404 Y136.166 E36.00556
G0 F9000 X152.404 Y136.661
G1 F720 X153.922 Y135.142 E36.02683
G0 F9000 X153.922 Y135.637
G1 F720 X152.404 Y137.156 E36.0481
G0 F9000 X152.404 Y137.65
G1 F720 X153.922 Y136.132 E36.06935
G0 F9000 X153.922 Y136.627
G1 F720 X152.404 Y138.145 E36.09061
G0 F9000 X152.404 Y138.64
G1 F720 X153.922 Y137.122 E36.11187
G0 F9000 X153.922 Y137.617
G1 F720 X152.404 Y139.135 E36.13313
G0 F9000 X152.404 Y139.63
G1 F720 X153.922 Y138.112 E36.15439
G0 F9000 X153.922 Y138.607
G1 F720 X152.404 Y140.125 E36.17565
G0 F9000 X152.404 Y140.62
G1 F720 X153.922 Y139.102 E36.19691
G0 F9000 X153.922 Y139.597
G1 F720 X152.404 Y141.115 E36.21817
G0 F9000 X152.404 Y141.61
G1 F720 X153.922 Y140.092 E36.23943
G0 F9000 X153.922 Y140.587
G1 F720 X152.404 Y142.105 E36.26069
G0 F9000 X152.643 Y142.361
G1 F720 X153.922 Y141.082 E36.2786
G0 F9000 X153.922 Y141.577
G1 F720 X153.138 Y142.361 E36.28958
G0 F9000 X153.633 Y142.361
G1 F720 X153.922 Y142.072 E36.29363
; LAYER:3
G0 F9000 X152.321 Y141.338 Z0.85
G0 X152.246 Y141.173
G0 X152.246 Y141.173
; TYPE:WALL-INNER
G1 F720 X145.755 Y141.173 E36.35791
G1 X145.755 Y133.828 E36.43065
G1 X152.246 Y133.828 E36.49493
G1 X152.246 Y141.173 E36.56766
G0 F9000 X151.896 Y140.823
G1 F720 X146.105 Y140.823 E36.62501
G1 X146.105 Y134.178 E36.69082
G1 X151.896 Y134.178 E36.74817
G1 X151.896 Y140.823 E36.81397
G0 F9000 X152.596 Y141.523
; TYPE:WALL-OUTER
G1 F600 X145.405 Y141.523 E36.88518
G1 X145.405 Y133.478 E36.96485
G1 X152.596 Y133.478 E37.03607
G1 X152.596 Y141.523 E37.11573
G0 F9000 X152.321 Y141.338
G0 X151.779 Y140.255
G0 X151.779 Y140.255
; TYPE:FILL
G1 F720 X151.327 Y140.707 E37.12207
G0 F9000 X150.832 Y140.707
G1 F720 X151.779 Y139.76 E37.13533
G0 F9000 X151.779 Y139.265
G1 F720 X150.337 Y140.707 E37.15552
G0 F9000 X149.842 Y140.707
G1 F720 X151.779 Y138.77 E37.18265
G0 F9000 X151.779 Y138.275
G1 F720 X149.347 Y140.707 E37.21671
G0 F9000 X149.217 Y140.343
G1 F720 X151.779 Y137.78 E37.2526
G0 F9000 X151.779 Y137.285
G1 F720 X149.217 Y139.848 E37.28849
G0 F9000 X149.337 Y139.437
G1 F720 X148.661 Y138.761 E37.29795
G0 F9000 X148.781 Y138.798
G1 F720 X146.872 Y140.707 E37.32469
G0 F9000 X146.377 Y140.707
G1 F720 X148.781 Y138.303 E37.35836
G0 F9000 X149.217 Y138.363
G1 F720 X151.779 Y135.8 E37.39424
G0 F9000 X151.779 Y135.305
G1 F720 X149.217 Y137.868 E37.43013
G0 F9000 X149.337 Y137.535
G1 F720 X148.661 Y137.716 E37.43706
G0 F9000 X148.781 Y137.808
G1 F720 X146.219 Y140.371 E37.47295
G0 F9000 X146.219 Y139.876
G1 F720 X148.781 Y137.313 E37.50884
G0 F9000 X149.217 Y137.373
G1 F720 X151.779 Y134.81 E37.54472
G0 F9000 X151.779 Y134.315
G1 F720 X149.217 Y136.878 E37.58061
G0 F9000 X148.781 Y136.818
G1 F720 X146.219 Y139.381 E37.6165
G0 F9000 X146.219 Y138.886
G1 F720 X148.781 Y136.323 E37.65239
G0 F9000 X149.217 Y136.383
G1 F720 X151.307 Y134.293 E37.68166
G0 F9000 X150.812 Y134.293
G1 F720 X149.217 Y135.888 E37.704
G0 F9000 X148.781 Y135.828
G1 F720 X146.219 Y138.391 E37.73988
G0 F9000 X146.219 Y137.896
G1 F720 X148.781 Y135.333 E37.77577
G0 F9000 X149.217 Y135.393
G1 F720 X150.317 Y134.293 E37.79118
G0 F9000 X149.822 Y134.293
G1 F720 X149.217 Y134.898 E37.79965
G0 F9000 X149.337 Y134.488
G1 F720 X149.179 Y134.348 E37.80237
G1 X149.07 Y134.292 E37.80391
G1 X148.662 Y134.856 E37.81081
G0 F9000 X148.781 Y134.838
G1 F720 X146.219 Y137.401 E37.84669
G0 F9000 X146.219 Y136.906
G1 F720 X148.781 Y134.343 E37.88258
G0 F9000 X148.337 Y134.293
G1 F720 X146.219 Y136.411 E37.91224
G0 F9000 X146.219 Y135.916
G1 F720 X147.842 Y134.293 E37.93497
G0 F9000 X147.347 Y134.293
G1 F720 X146.219 Y135.421 E37.95077
G0 F9000 X146.219 Y134.926
G1 F720 X146.852 Y134.293 E37.95964
G0 F9000 X146.357 Y134.293
G1 F720 X146.219 Y134.431 E37.96157
G0 F9000 X149.217 Y138.858
G1 F720 X151.779 Y136.295 E37.99746
G0 F9000 X151.779 Y136.79
G1 F720 X149.217 Y139.353 E38.03334
G0 F9000 X148.781 Y139.293
G1 F720 X147.367 Y140.707 E38.05315
G0 F9000 X147.862 Y140.707
G1 F720 X148.781 Y139.788 E38.06602
G0 F9000 X148.781 Y140.283
G1 F720 X148.357 Y140.707 E38.07196
G0 F9000 X148.357 Y142.498
G0 X146.58 Y142.498
G0 X146.58 Y142.498
G0 X146.58 Y142.337
; TYPE:SUPPORT
G1 F720 X151.693 Y147.45 E38.14356
G0 F9000 X151.674 Y147.292
G0 X152.963 Y144.637
G0 X152.963 Y144.637
G0 X153.122 Y144.637
G1 F720 X150.823 Y142.337 E38.17577
G0 F9000 X150.823 Y142.498
G0 X147.56 Y147.401
G0 X147.56 Y147.401
G0 X147.56 Y147.56
G1 F720 X144.702 Y144.702 E38.21579
G0 F9000 X145.391 Y132.663
G1 F720 X144.702 Y131.974 E38.22544
G0 F9000 X144.863 Y131.974
G0 X144.863 Y127.777
G0 X144.863 Y127.777
G0 X144.702 Y127.731
G1 F720 X149.633 Y132.663 E38.29451
G0 F9000 X149.633 Y132.503
G0 X152.963 Y131.909
G0 X152.963 Y131.909
G0 X153.122 Y131.909
G1 F720 X148.654 Y127.441 E38.35708
; LAYER:4
G0 F9000 X145.057 Y133.775 Z1.05
; TYPE:WALL-INNER
G1 F720 X152.944 Y133.775 E38.43519
G1 X152.944 Y141.226 E38.50897
G1 X145.057 Y141.226 E38.58708
G1 X145.057 Y133.775 E38.66087
G0 F9000 X145.407 Y134.125
G1 F720 X152.594 Y134.125 E38.73204
G1 X152.594 Y140.876 E38.79889
G1 X145.407 Y140.876 E38.87007
G1 X145.407 Y134.125 E38.93692
G0 F9000 X144.707 Y133.425
; TYPE:WALL-OUTER
G1 F600 X153.294 Y133.425 E39.02196
G1 X153.294 Y141.576 E39.10268
G1 X144.707 Y141.576 E39.18771
G1 X144.707 Y133.425 E39.26843
G0 F9000 X145.624 Y134.239
; TYPE:FILL
G1 F720 X148.175 Y136.791 E39.30417
G0 F9000 X148.175 Y137.286
G1 F720 X145.521 Y134.631 E39.34134
G0 F9000 X145.521 Y135.126
G1 F720 X148.175 Y137.781 E39.37852
G0 F9000 X147.704 Y137.805
G1 F720 X150.294 Y140.394 E39.41478
G0 F9000 X150.165 Y140.76
G1 F720 X149.824 Y140.42 E39.41955
G0 F9000 X149.824 Y139.925
G1 F720 X150.66 Y140.76 E39.43125
G0 F9000 X151.155 Y140.76
G1 F720 X149.824 Y139.43 E39.44989
G0 F9000 X149.824 Y138.935
G1 F720 X151.65 Y140.76 E39.47545
G0 F9000 X152.145 Y140.76
G1 F720 X149.824 Y138.44 E39.50795
G0 F9000 X149.824 Y137.945
G1 F720 X152.477 Y140.598 E39.54511
G0 F9000 X152.477 Y140.103
G1 F720 X149.824 Y137.45 E39.58226
G0 F9000 X149.824 Y136.955
G1 F720 X152.477 Y139.608 E39.61942
G0 F9000 X152.477 Y139.113
G1 F720 X149.824 Y136.46 E39.65657
G0 F9000 X149.824 Y135.965
G1 F720 X152.477 Y138.618 E39.69373
G0 F9000 X152.477 Y138.123
G1 F720 X149.824 Y135.47 E39.73088
G0 F9000 X150.294 Y135.444
G1 F720 X149.089 Y134.239 E39.74776
G0 F9000 X148.827 Y134.239
G1 F720 X147.705 Y138.426 E39.79068
G0 F9000 X147.705 Y137.972
G1 F720 X150.294 Y137.278 E39.81723
G0 F9000 X152.477 Y137.133
G1 F720 X149.824 Y134.48 E39.85438
G0 F9000 X150.079 Y134.239
G1 F720 X152.477 Y136.638 E39.88797
G0 F9000 X152.477 Y136.143
G1 F720 X150.574 Y134.239 E39.91463
G0 F9000 X151.069 Y134.239
G1 F720 X152.477 Y135.648 E39.93436
G0 F9000 X152.477 Y135.153
G1 F720 X151.564 Y134.239 E39.94715
G0 F9000 X152.059 Y134.239
G1 F720 X152.477 Y134.658 E39.95301
G0 F9000 X149.824 Y134.975
G1 F720 X152.477 Y137.628 E39.99017
G0 F9000 X148.175 Y138.276
G1 F720 X145.521 Y135.621 E40.02734
G0 F9000 X145.521 Y136.116
G1 F720 X148.175 Y138.771 E40.06452
G0 F9000 X148.175 Y139.266
G1 F720 X145.521 Y136.611 E40.1017
G0 F9000 X145.521 Y137.106
G1 F720 X148.175 Y139.761 E40.13887
G0 F9000 X148.175 Y140.256
G1 F720 X145.521 Y137.601 E40.17605
G0 F9000 X145.521 Y138.096
G1 F720 X148.175 Y140.751 E40.21322
G0 F9000 X147.69 Y140.76
G1 F720 X145.521 Y138.591 E40.2436
G0 F9000 X145.521 Y139.086
G1 F720 X147.195 Y140.76 E40.26705
G0 F9000 X146.7 Y140.76
G1 F720 X145.521 Y139.581 E40.28356
G0 F9000 X145.521 Y140.076
G1 F720 X146.205 Y140.76 E40.29314
G0 F9000 X145.71 Y140.76
G1 F720 X145.521 Y140.571 E40.29578
G0 F9000 X148.175 Y136.296
G1 F720 X146.119 Y134.239 E40.32458
G0 F9000 X146.614 Y134.239
G1 F720 X148.175 Y135.801 E40.34645
G0 F9000 X148.175 Y135.306
G1 F720 X147.109 Y134.239 E40.36139
G0 F9000 X147.604 Y134.239
G1 F720 X148.175 Y134.811 E40.36939
G0 F9000 X148.175 Y134.316
G1 F720 X148.105 Y134.239 E40.37046
G1 X147.705 Y134.348 E40.37457
G0 F9000 X147.705 Y132.45
G0 X149.58 Y132.45
G0 X149.58 Y132.45
G0 X149.58 Y132.61
; TYPE:SUPPORT
G1 F720 X144.702 Y127.731 E40.44289
G0 F9000 X144.863 Y127.777
G0 X148.654 Y127.601
G0 X148.654 Y127.601
G0 X148.654 Y127.441
G1 F720 X153.121 Y131.908 E40.50545
G0 F9000 X152.963 Y131.908
G0 X145.337 Y132.45
G0 X145.337 Y132.45
G0 X145.337 Y132.609
G1 F720 X144.702 Y131.974 E40.51434
G0 F9000 X146.634 Y142.391
G1 F720 X151.693 Y147.45 E40.58519
G0 F9000 X151.674 Y147.292
G0 X152.963 Y144.636
G0 X152.963 Y144.636
G0 X153.121 Y144.636
G1 F720 X150.876 Y142.39 E40.61664
G0 F9000 X150.876 Y142.551
G0 X147.56 Y147.401
G0 X147.56 Y147.401
G0 X147.56 Y147.56
G1 F720 X144.702 Y144.702 E40.65667
; LAYER:5
G0 F9000 X144.758 Y141.279 Z1.25
; TYPE:WALL-INNER
G1 F720 X144.758 Y133.722 E40.73151
G1 X153.243 Y133.722 E40.81553
G1 X153.243 Y141.279 E40.89037
G1 X144.758 Y141.279 E40.9744
G0 F9000 X145.108 Y140.929
G1 F720 X145.108 Y134.072 E41.0423
G1 X152.893 Y134.072 E41.1194
G1 X152.893 Y140.929 E41.1873
G1 X145.108 Y140.929 E41.26439
G0 F9000 X144.408 Y141.629
; TYPE:WALL-OUTER
G1 F600 X144.408 Y133.372 E41.34616
G1 X153.593 Y133.372 E41.43712
G1 X153.593 Y141.629 E41.51889
G1 X144.408 Y141.629 E41.60985
G0 F9000 X145.281 Y140.813
; TYPE:FILL
G1 F720 X147.169 Y138.925 E41.63629
G0 F9000 X147.169 Y138.431
G1 F720 X145.222 Y140.378 E41.66356
G0 F9000 X145.222 Y139.883
G1 F720 X147.169 Y137.936 E41.69083
G0 F9000 X147.169 Y137.441
G1 F720 X145.222 Y139.388 E41.71809
G0 F9000 X145.222 Y138.893
G1 F720 X147.169 Y136.946 E41.74536
G0 F9000 X146.699 Y136.8
G1 F720 X150.713 Y140.813 E41.80157
G0 F9000 X150.689 Y140.813
G1 F720 X151.299 Y138.537 E41.82491
G0 F9000 X150.829 Y138.73
G1 F720 X152.776 Y136.783 E41.85217
G0 F9000 X152.776 Y136.288
G1 F720 X150.829 Y138.235 E41.87944
G0 F9000 X150.829 Y137.74
G1 F720 X152.776 Y135.793 E41.90671
G0 F9000 X152.776 Y135.298
G1 F720 X150.829 Y137.245 E41.93398
G0 F9000 X150.829 Y136.75
G1 F720 X152.776 Y134.803 E41.96124
G0 F9000 X152.776 Y134.308
G1 F720 X150.829 Y136.255 E41.98851
G0 F9000 X150.829 Y135.76
G1 F720 X152.403 Y134.186 E42.01055
G0 F9000 X151.908 Y134.186
G1 F720 X150.829 Y135.265 E42.02567
G0 F9000 X150.829 Y134.771
G1 F720 X151.413 Y134.186 E42.03385
G0 F9000 X150.918 Y134.186
G1 F720 X150.829 Y134.276 E42.03511
G0 F9000 X149.036 Y134.186
G1 F720 X151.298 Y136.449 E42.06679
G0 F9000 X151.3 Y137.009
G1 F720 X146.699 Y138.241 E42.11396
G0 F9000 X147.169 Y139.42
G1 F720 X145.776 Y140.813 E42.13347
G0 F9000 X146.271 Y140.813
G1 F720 X147.169 Y139.915 E42.14605
G0 F9000 X147.169 Y140.41
G1 F720 X146.766 Y140.813 E42.15169
G0 F9000 X147.065 Y140.813
G1 F720 X148.841 Y134.186 E42.21963
G0 F9000 X148.31 Y134.186
G1 F720 X146.699 Y134.618 E42.23615
G0 F9000 X146.463 Y134.186
G1 F720 X145.222 Y135.428 E42.25354
G0 F9000 X145.222 Y135.923
G1 F720 X146.958 Y134.186 E42.27786
G0 F9000 X147.169 Y134.471
G1 F720 X145.222 Y136.418 E42.30512
G0 F9000 X145.222 Y136.913
G1 F720 X147.169 Y134.966 E42.33239
G0 F9000 X147.169 Y135.461
G1 F720 X145.222 Y137.408 E42.35966
G0 F9000 X145.222 Y137.903
G1 F720 X147.169 Y135.956 E42.38693
G0 F9000 X147.169 Y136.451
G1 F720 X145.222 Y138.398 E42.41419
G0 F9000 X145.222 Y134.933
G1 F720 X145.968 Y134.186 E42.42465
G0 F9000 X145.473 Y134.186
G1 F720 X145.222 Y134.438 E42.42817
G0 F9000 X150.829 Y139.225
G1 F720 X152.776 Y137.278 E42.45544
G0 F9000 X152.776 Y137.773
G1 F720 X150.829 Y139.72 E42.48271
G0 F9000 X150.829 Y140.215
G1 F720 X152.776 Y138.268 E42.50997
G0 F9000 X152.776 Y138.763
G1 F720 X150.829 Y140.71 E42.53724
G0 F9000 X150.623 Y140.813
G1 F720 X151.299 Y140.632 E42.54417
G0 F9000 X151.221 Y140.813
G1 F720 X152.776 Y139.258 E42.56595
G0 F9000 X152.776 Y139.753
G1 F720 X151.716 Y140.813 E42.58079
G0 F9000 X152.211 Y140.813
G1 F720 X152.776 Y140.248 E42.58871
G0 F9000 X152.776 Y140.743
G1 F720 X152.706 Y140.813 E42.58969
G0 F9000 X152.706 Y142.604
G0 X150.929 Y142.604
G0 X150.929 Y142.604
G0 X150.929 Y142.443
; TYPE:SUPPORT
G1 F720 X153.122 Y144.637 E42.62041
G0 F9000 X152.963 Y144.637
G0 X151.674 Y147.292
G0 X151.674 Y147.292
G0 X151.693 Y147.45
G1 F720 X146.686 Y142.443 E42.69053
G0 F9000 X146.686 Y142.604
G0 X144.863 Y144.702
G0 X144.863 Y144.702
G0 X144.702 Y144.702
G1 F720 X147.56 Y147.56 E42.73056
G0 F9000 X149.527 Y132.557
G1 F720 X144.702 Y127.731 E42.79814
G0 F9000 X144.863 Y127.777
G0 X148.654 Y127.601
G0 X148.654 Y127.601
G0 X148.654 Y127.441
G1 F720 X153.122 Y131.909 E42.86071
G0 F9000 X152.963 Y131.909
G0 X145.284 Y132.397
G0 X145.284 Y132.397
G0 X145.284 Y132.557
G1 F720 X144.702 Y131.974 E42.86887
; LAYER:6
G0 F9000 X144.702 Y133.594 Z1.45
G0 X144.458 Y133.669
G0 X144.458 Y133.669
; TYPE:WALL-INNER
G1 F720 X153.543 Y133.669 E42.95884
G1 X153.543 Y141.332 E43.03472
G1 X144.458 Y141.332 E43.12469
G1 X144.458 Y133.669 E43.20058
G0 F9000 X144.808 Y134.019
G1 F720 X153.193 Y134.019 E43.28361
G1 X153.193 Y140.982 E43.35257
G1 X144.808 Y140.982 E43.43561
G1 X144.808 Y134.019 E43.50456
G0 F9000 X144.108 Y133.319
; TYPE:WALL-OUTER
G1 F600 X153.893 Y133.319 E43.60146
G1 X153.893 Y141.682 E43.68428
G1 X144.108 Y141.682 E43.78118
G1 X144.108 Y133.319 E43.864
G0 F9000 X145.024 Y134.134
; TYPE:FILL
G1 F720 X146.164 Y135.275 E43.87997
G0 F9000 X146.164 Y135.77
G1 F720 X144.922 Y134.527 E43.89737
G0 F9000 X144.922 Y135.022
G1 F720 X146.164 Y136.265 E43.91477
G0 F9000 X146.164 Y136.76
G1 F720 X144.922 Y135.517 E43.93217
G0 F9000 X144.922 Y136.012
G1 F720 X146.164 Y137.255 E43.94958
G0 F9000 X146.164 Y137.75
G1 F720 X144.922 Y136.507 E43.96698
G0 F9000 X144.922 Y137.002
G1 F720 X146.164 Y138.245 E43.98438
G0 F9000 X146.164 Y138.74
G1 F720 X144.922 Y137.497 E44.00178
G0 F9000 X144.922 Y137.993
G1 F720 X146.164 Y139.234 E44.01917
G0 F9000 X146.164 Y139.729
G1 F720 X144.922 Y138.488 E44.03655
G0 F9000 X144.922 Y138.983
G1 F720 X146.164 Y140.224 E44.05394
G0 F9000 X146.164 Y140.719
G1 F720 X144.922 Y139.478 E44.07133
G0 F9000 X144.922 Y139.973
G1 F720 X145.816 Y140.866 E44.08384
G0 F9000 X145.816 Y140.866
G1 F720 X145.507 Y140.804 E44.08555
G1 X144.922 Y140.468 E44.09223
G0 F9000 X145.694 Y138.511
G1 F720 X152.305 Y136.739 E44.16001
G0 F9000 X151.835 Y136.986
G1 F720 X153.077 Y138.228 E44.17741
G0 F9000 X153.077 Y137.733
G1 F720 X151.835 Y136.491 E44.1948
G0 F9000 X151.835 Y135.996
G1 F720 X153.077 Y137.238 E44.2122
G0 F9000 X153.077 Y136.743
G1 F720 X151.835 Y135.501 E44.22959
G0 F9000 X151.835 Y135.006
G1 F720 X153.077 Y136.248 E44.24698
G0 F9000 X153.077 Y135.753
G1 F720 X151.835 Y134.511 E44.26438
G0 F9000 X151.953 Y134.133
G1 F720 X153.077 Y135.258 E44.28013
G0 F9000 X153.077 Y134.763
G1 F720 X152.447 Y134.133 E44.28895
G0 F9000 X152.942 Y134.133
G1 F720 X153.077 Y134.268 E44.29084
G0 F9000 X152.305 Y134.782
G1 F720 X150.675 Y140.866 E44.35321
G0 F9000 X150.766 Y140.866
G1 F720 X145.693 Y135.794 E44.42425
G0 F9000 X145.694 Y134.887
G1 F720 X148.507 Y134.133 E44.4531
G0 F9000 X148.855 Y134.133
G1 F720 X147.051 Y140.866 E44.52212
G0 F9000 X150.427 Y140.866
G1 F720 X152.305 Y140.363 E44.54138
G0 F9000 X151.835 Y140.451
G1 F720 X152.251 Y140.866 E44.5472
G0 F9000 X152.746 Y140.866
G1 F720 X151.835 Y139.956 E44.55995
G0 F9000 X151.835 Y139.461
G1 F720 X153.077 Y140.702 E44.57733
G0 F9000 X153.077 Y140.207
G1 F720 X151.835 Y138.966 E44.59472
G0 F9000 X151.835 Y138.471
G1 F720 X153.077 Y139.712 E44.61211
G0 F9000 X153.077 Y139.218
G1 F720 X151.835 Y137.976 E44.6295
G0 F9000 X151.835 Y137.481
G1 F720 X153.077 Y138.723 E44.6469
G0 F9000 X152.305 Y137.455
G1 F720 X148.983 Y134.133 E44.69342
G0 F9000 X146.164 Y134.285
G1 F720 X146.013 Y134.133 E44.69554
G0 F9000 X145.519 Y134.134
G1 F720 X146.164 Y134.78 E44.70458
G0 F9000 X145.231 Y132.504
; TYPE:SUPPORT
G1 F720 X144.701 Y131.973 E44.71201
G0 F9000 X144.863 Y131.973
G0 X144.863 Y127.777
G0 X144.863 Y127.777
G0 X144.702 Y127.731
G1 F720 X149.474 Y132.504 E44.77885
G0 F9000 X149.474 Y132.344
G0 X152.963 Y131.908
G0 X152.963 Y131.908
G0 X153.121 Y131.908
G1 F720 X148.654 Y127.441 E44.84141
G0 F9000 X146.74 Y142.497
G1 F720 X151.693 Y147.45 E44.91078
G0 F9000 X151.674 Y147.292
G0 X152.963 Y144.636
G0 X152.963 Y144.636
G0 X153.121 Y144.636
G1 F720 X150.982 Y142.496 E44.94074
G0 F9000 X150.982 Y142.657
G0 X147.56 Y147.401
G0 X147.56 Y147.401
G0 X147.56 Y147.56
G1 F720 X144.702 Y144.702 E44.98077
; LAYER:7
G0 F9000 X144.159 Y141.385 Z1.65
; TYPE:WALL-INNER
G1 F720 X144.159 Y133.616 E45.0577
G1 X153.842 Y133.616 E45.15359
G1 X153.842 Y141.385 E45.23053
G1 X144.159 Y141.385 E45.32642
G0 F9000 X144.509 Y141.035
G1 F720 X144.509 Y133.966 E45.39642
G1 X153.492 Y133.966 E45.48538
G1 X153.492 Y141.035 E45.55539
G1 X144.509 Y141.035 E45.64435
G0 F9000 X143.809 Y141.735
; TYPE:WALL-OUTER
G1 F600 X143.809 Y133.266 E45.72821
G1 X154.192 Y133.266 E45.83104
G1 X154.192 Y141.735 E45.91491
G1 X143.809 Y141.735 E46.01773
G0 F9000 X144.68 Y140.92
; TYPE:FILL
G1 F720 X145.466 Y140.133 E46.02874
G0 F9000 X145.466 Y139.638
G1 F720 X144.623 Y140.481 E46.04055
G0 F9000 X144.623 Y139.986
G1 F720 X145.466 Y139.143 E46.05235
G0 F9000 X145.466 Y138.648
G1 F720 X144.623 Y139.491 E46.06416
G0 F9000 X144.623 Y139.674
G1 F720 X145.869 Y140.92 E46.08161
G0 F9000 X145.466 Y140.628
G1 F720 X145.175 Y140.92 E46.08569
G0 F9000 X147.037 Y140.918
G1 F720 X148.87 Y134.08 E46.1558
G0 F9000 X148.93 Y134.08
G1 F720 X153.376 Y138.527 E46.21807
G0 F9000 X153.376 Y138.658
G1 F720 X152.533 Y139.501 E46.22988
G0 F9000 X152.533 Y139.006
G1 F720 X153.376 Y138.163 E46.24169
G0 F9000 X153.376 Y137.668
G1 F720 X152.533 Y138.511 E46.25349
G0 F9000 X152.533 Y138.016
G1 F720 X153.376 Y137.173 E46.2653
G0 F9000 X153.376 Y136.678
G1 F720 X152.533 Y137.521 E46.2771
G0 F9000 X152.533 Y137.026
G1 F720 X153.376 Y136.183 E46.28891
G0 F9000 X153.376 Y136.452
G1 F720 X144.623 Y138.798 E46.37865
G0 F9000 X144.623 Y138.996
G1 F720 X145.466 Y138.153 E46.39046
G0 F9000 X145.466 Y137.658
G1 F720 X144.623 Y138.501 E46.40226
G0 F9000 X144.623 Y138.006
G1 F720 X145.466 Y137.163 E46.41407
G0 F9000 X145.466 Y136.668
G1 F720 X144.623 Y137.511 E46.42588
G0 F9000 X144.623 Y137.016
G1 F720 X145.466 Y136.173 E46.43768
G0 F9000 X145.466 Y135.678
G1 F720 X144.623 Y136.521 E46.44949
G0 F9000 X144.623 Y136.406
G1 F720 X145.246 Y134.08 E46.47333
G0 F9000 X145.084 Y134.08
G1 F720 X144.623 Y134.541 E46.47979
G0 F9000 X144.623 Y134.724
G1 F720 X150.819 Y140.92 E46.56656
G0 F9000 X150.66 Y140.919
G1 F720 X152.493 Y134.08 E46.63668
G0 F9000 X152.533 Y134.551
G1 F720 X153.004 Y134.08 E46.64328
G0 F9000 X153.376 Y134.203
G1 F720 X152.533 Y135.046 E46.65508
G0 F9000 X152.533 Y135.541
G1 F720 X153.376 Y134.698 E46.66689
G0 F9000 X153.376 Y135.193
G1 F720 X152.533 Y136.036 E46.6787
G0 F9000 X152.533 Y136.531
G1 F720 X153.376 Y135.688 E46.6905
G0 F9000 X153.376 Y139.153
G1 F720 X152.533 Y139.996 E46.70231
G0 F9000 X152.533 Y140.491
G1 F720 X153.376 Y139.648 E46.71411
G0 F9000 X153.376 Y140.076
G1 F720 X150.228 Y140.919 E46.74639
G0 F9000 X152.6 Y140.92
G1 F720 X153.376 Y140.143 E46.75726
G0 F9000 X153.376 Y140.638
G1 F720 X153.094 Y140.92 E46.76121
G0 F9000 X148.706 Y134.08
G1 F720 X144.623 Y135.174 E46.80307
G0 F9000 X144.623 Y135.036
G1 F720 X145.466 Y134.194 E46.81487
G0 F9000 X145.466 Y134.688
G1 F720 X144.623 Y135.531 E46.82668
G0 F9000 X144.623 Y136.026
G1 F720 X145.466 Y135.183 E46.83848
G0 F9000 X146.792 Y142.549
; TYPE:SUPPORT
G1 F720 X151.693 Y147.45 E46.90712
G0 F9000 X151.674 Y147.292
G0 X152.963 Y144.637
G0 X152.963 Y144.637
G0 X153.122 Y144.637
G1 F720 X151.035 Y142.549 E46.93636
G0 F9000 X151.035 Y142.71
G0 X147.56 Y147.401
G0 X147.56 Y147.401
G0 X147.56 Y147.56
G1 F720 X144.702 Y144.702 E46.97638
G0 F9000 X145.178 Y132.45
G1 F720 X144.702 Y131.974 E46.98305
G0 F9000 X144.863 Y131.974
G0 X144.863 Y127.777
G0 X144.863 Y127.777
G0 X144.702 Y127.731
G1 F720 X149.421 Y132.45 E47.04914
G0 F9000 X149.421 Y132.291
G0 X152.963 Y131.909
G0 X152.963 Y131.909
G0 X153.122 Y131.909
G1 F720 X148.654 Y127.441 E47.11171
; LAYER:8
G0 F9000 X143.86 Y133.563 Z1.85
; TYPE:WALL-INNER
G1 F720 X154.141 Y133.563 E47.21352
G1 X154.141 Y141.438 E47.29151
G1 X143.86 Y141.438 E47.39332
G1 X143.86 Y133.563 E47.47131
G0 F9000 X144.21 Y133.913
G1 F720 X153.791 Y133.913 E47.56619
G1 X153.791 Y141.088 E47.63724
G1 X144.21 Y141.088 E47.73212
G1 X144.21 Y133.913 E47.80318
G0 F9000 X143.51 Y133.213
; TYPE:WALL-OUTER
G1 F600 X154.491 Y133.213 E47.91192
G1 X154.491 Y141.788 E47.99684
G1 X143.51 Y141.788 E48.10558
G1 X143.51 Y133.213 E48.1905
G0 F9000 X144.422 Y134.027
; TYPE:FILL
G1 F720 X145.167 Y134.773 E48.20094
G0 F9000 X145.167 Y135.268
G1 F720 X144.324 Y134.425 E48.21275
G0 F9000 X144.324 Y134.425
G1 F720 X148.121 Y138.222 E48.26593
G0 F9000 X148.122 Y137.86
G1 F720 X144.324 Y138.878 E48.30487
G0 F9000 X144.324 Y138.88
G1 F720 X145.167 Y139.722 E48.31666
G0 F9000 X145.167 Y139.227
G1 F720 X144.324 Y138.385 E48.32846
G0 F9000 X144.324 Y137.89
G1 F720 X145.167 Y138.732 E48.34026
G0 F9000 X145.167 Y138.237
G1 F720 X144.324 Y137.395 E48.35206
G0 F9000 X144.324 Y137.521
G1 F720 X145.26 Y134.028 E48.38787
G0 F9000 X145.167 Y134.278
G1 F720 X144.917 Y134.027 E48.39138
G0 F9000 X144.324 Y134.92
G1 F720 X145.167 Y135.763 E48.40319
G0 F9000 X145.167 Y136.258
G1 F720 X144.324 Y135.415 E48.41499
G0 F9000 X144.324 Y135.254
G1 F720 X148.122 Y134.237 E48.45393
G0 F9000 X147.887 Y134.027
G1 F720 X150.346 Y136.487 E48.48838
G0 F9000 X150.346 Y136.982
G1 F720 X147.652 Y134.288 E48.5261
G0 F9000 X147.652 Y134.783
G1 F720 X150.346 Y137.477 E48.56383
G0 F9000 X149.876 Y137.39
G1 F720 X153.675 Y136.372 E48.60278
G0 F9000 X153.675 Y136.351
G1 F720 X152.832 Y135.508 E48.61459
G0 F9000 X152.832 Y135.013
G1 F720 X153.675 Y135.856 E48.6264
G0 F9000 X153.675 Y135.361
G1 F720 X152.832 Y134.518 E48.6382
G0 F9000 X152.836 Y134.027
G1 F720 X153.675 Y134.866 E48.64995
G0 F9000 X153.675 Y134.371
G1 F720 X153.331 Y134.027 E48.65477
G0 F9000 X152.507 Y134.027
G1 F720 X150.646 Y140.972 E48.72597
G0 F9000 X150.872 Y140.973
G1 F720 X149.876 Y139.977 E48.73992
G0 F9000 X150.346 Y139.951
G1 F720 X147.652 Y137.257 E48.77765
G0 F9000 X147.652 Y136.762
G1 F720 X150.346 Y139.457 E48.81539
G0 F9000 X150.346 Y138.962
G1 F720 X147.652 Y136.267 E48.85312
G0 F9000 X147.652 Y135.772
G1 F720 X150.346 Y138.467 E48.89086
G0 F9000 X150.346 Y137.972
G1 F720 X147.652 Y135.278 E48.92859
G0 F9000 X148.382 Y134.027
G1 F720 X150.346 Y135.992 E48.9561
G0 F9000 X150.346 Y135.497
G1 F720 X148.877 Y134.027 E48.97668
G0 F9000 X149.372 Y134.027
G1 F720 X150.346 Y135.002 E48.99033
G0 F9000 X149.876 Y135.026
G1 F720 X153.675 Y138.826 E49.04354
G0 F9000 X153.675 Y138.826
G1 F720 X152.832 Y137.983 E49.05535
G0 F9000 X152.832 Y137.488
G1 F720 X153.675 Y138.331 E49.06715
G0 F9000 X153.675 Y137.836
G1 F720 X152.832 Y136.993 E49.07896
G0 F9000 X152.832 Y136.498
G1 F720 X153.675 Y137.341 E49.09076
G0 F9000 X153.675 Y136.846
G1 F720 X152.832 Y136.003 E49.10257
G0 F9000 X152.832 Y138.478
G1 F720 X153.675 Y139.321 E49.11438
G0 F9000 X153.675 Y139.816
G1 F720 X152.832 Y138.973 E49.12618
G0 F9000 X152.832 Y139.468
G1 F720 X153.675 Y140.311 E49.13799
G0 F9000 X153.676 Y139.995
G1 F720 X150.03 Y140.972 E49.17537
G0 F9000 X149.882 Y140.973
G1 F720 X147.652 Y138.742 E49.20661
G0 F9000 X147.652 Y138.247
G1 F720 X150.346 Y140.941 E49.24434
G0 F9000 X150.346 Y140.446
G1 F720 X147.652 Y137.752 E49.28207
G0 F9000 X148.122 Y136.87
G1 F720 X147.023 Y140.972 E49.32412
G0 F9000 X147.652 Y140.722
G1 F720 X147.902 Y140.973 E49.32763
G0 F9000 X148.397 Y140.973
G1 F720 X147.652 Y140.227 E49.33807
G0 F9000 X147.652 Y139.732
G1 F720 X148.892 Y140.973 E49.35544
G0 F9000 X149.387 Y140.973
G1 F720 X147.652 Y139.237 E49.37975
G0 F9000 X145.922 Y140.973
G1 F720 X144.324 Y139.374 E49.40214
G0 F9000 X144.324 Y139.374
G1 F720 X145.167 Y140.217 E49.41394
G0 F9000 X145.167 Y140.712
G1 F720 X144.324 Y139.869 E49.42575
G0 F9000 X144.324 Y140.364
G1 F720 X144.932 Y140.973 E49.43427
G0 F9000 X144.437 Y140.973
G1 F720 X144.324 Y140.859 E49.43586
G0 F9000 X145.167 Y137.742
G1 F720 X144.324 Y136.9 E49.44766
G0 F9000 X144.324 Y136.405
G1 F720 X145.167 Y137.248 E49.45946
G0 F9000 X145.167 Y136.753
G1 F720 X144.324 Y135.91 E49.47127
G0 F9000 X149.867 Y134.027
G1 F720 X150.346 Y134.507 E49.47799
G0 F9000 X152.832 Y139.963
G1 F720 X153.675 Y140.806 E49.48979
G0 F9000 X153.347 Y140.973
G1 F720 X152.832 Y140.458 E49.497
G0 F9000 X152.832 Y140.953
G1 F720 X152.852 Y140.973 E49.49728
G0 F9000 X153.121 Y131.908
; TYPE:SUPPORT
G1 F720 X148.654 Y127.441 E49.55984
G0 F9000 X148.654 Y127.601
G0 X144.863 Y127.777
G0 X144.863 Y127.777
G0 X144.702 Y127.731
G1 F720 X149.368 Y132.397 E49.62519
G0 F9000 X149.368 Y132.238
G0 X145.125 Y132.238
G0 X145.125 Y132.238
G0 X145.125 Y132.397
G1 F720 X144.701 Y131.973 E49.63113
G0 F9000 X146.846 Y142.603
G1 F720 X151.693 Y147.45 E49.69901
G0 F9000 X151.674 Y147.292
G0 X152.963 Y144.636
G0 X152.963 Y144.636
G0 X153.121 Y144.636
G1 F720 X151.088 Y142.602 E49.72749
G0 F9000 X151.088 Y142.763
G0 X147.56 Y147.401
G0 X147.56 Y147.401
G0 X147.56 Y147.56
G1 F720 X144.702 Y144.702 E49.76752
; LAYER:9
G0 F9000 X143.56 Y141.491 Z2.05
; TYPE:WALL-INNER
G1 F720 X143.56 Y133.51 E49.84655
G1 X154.441 Y133.51 E49.95431
G1 X154.441 Y141.491 E50.03334
G1 X143.56 Y141.491 E50.1411
G0 F9000 X143.91 Y141.141
G1 F720 X143.91 Y133.86 E50.2132
G1 X154.091 Y133.86 E50.31402
G1 X154.091 Y141.141 E50.38613
G1 X143.91 Y141.141 E50.48695
G0 F9000 X143.21 Y141.841
; TYPE:WALL-OUTER
G1 F600 X143.21 Y133.16 E50.57292
G1 X154.791 Y133.16 E50.6876
G1 X154.791 Y141.841 E50.77357
G1 X143.21 Y141.841 E50.88826
G0 F9000 X144.079 Y141.026
; TYPE:FILL
G1 F720 X144.867 Y140.238 E50.89929
G0 F9000 X144.867 Y139.743
G1 F720 X144.024 Y140.586 E50.9111
G0 F9000 X144.024 Y140.091
G1 F720 X144.867 Y139.248 E50.9229
G0 F9000 X144.867 Y138.753
G1 F720 X144.024 Y139.596 E50.93471
G0 F9000 X144.024 Y139.101
G1 F720 X144.867 Y138.258 E50.94652
G0 F9000 X144.867 Y137.763
G1 F720 X144.024 Y138.606 E50.95832
G0 F9000 X144.024 Y138.641
G1 F720 X145.275 Y133.974 E51.00617
G0 F9000 X144.867 Y134.298
G1 F720 X144.024 Y135.141 E51.01798
G0 F9000 X144.024 Y135.335
G1 F720 X147.115 Y134.506 E51.04967
G0 F9000 X146.646 Y134.499
G1 F720 X147.17 Y133.974 E51.05701
G0 F9000 X147.665 Y133.974
G1 F720 X146.646 Y134.994 E51.07129
G0 F9000 X146.646 Y135.489
G1 F720 X148.16 Y133.974 E51.0925
G0 F9000 X148.655 Y133.974
G1 F720 X146.646 Y135.984 E51.12065
G0 F9000 X146.646 Y136.479
G1 F720 X149.15 Y133.975 E51.15571
G0 F9000 X149.645 Y133.975
G1 F720 X146.646 Y136.974 E51.19772
G0 F9000 X146.646 Y137.469
G1 F720 X150.139 Y133.975 E51.24664
G0 F9000 X150.634 Y133.975
G1 F720 X146.646 Y137.964 E51.3025
G0 F9000 X146.646 Y138.459
G1 F720 X151.129 Y133.975 E51.36529
G0 F9000 X151.353 Y134.247
G1 F720 X146.646 Y138.954 E51.43121
G0 F9000 X146.646 Y139.449
G1 F720 X151.353 Y134.742 E51.49713
G0 F9000 X151.353 Y135.237
G1 F720 X146.646 Y139.944 E51.56305
G0 F9000 X146.646 Y140.439
G1 F720 X151.353 Y135.731 E51.62898
G0 F9000 X151.353 Y136.226
G1 F720 X146.646 Y140.934 E51.69491
G0 F9000 X147.009 Y141.025
G1 F720 X147.116 Y140.623 E51.69903
G0 F9000 X147.049 Y141.026
G1 F720 X151.353 Y136.721 E51.75931
G0 F9000 X151.353 Y137.216
G1 F720 X147.544 Y141.026 E51.81267
G0 F9000 X148.039 Y141.026
G1 F720 X151.352 Y137.712 E51.85907
G0 F9000 X151.352 Y138.207
G1 F720 X148.534 Y141.026 E51.89854
G0 F9000 X149.029 Y141.026
G1 F720 X151.352 Y138.702 E51.93109
G0 F9000 X151.352 Y139.197
G1 F720 X149.524 Y141.026 E51.95669
G0 F9000 X150.019 Y141.026
G1 F720 X151.352 Y139.692 E51.97537
G0 F9000 X151.352 Y140.187
G1 F720 X150.514 Y141.026 E51.98711
G0 F9000 X150.883 Y140.983
G1 F720 X150.967 Y141.026 E51.98771
G1 X151.352 Y140.682 E51.99282
G0 F9000 X150.883 Y140.744
G1 F720 X153.975 Y139.915 E52.02452
G0 F9000 X153.975 Y140.039
G1 F720 X153.131 Y140.883 E52.03634
G0 F9000 X153.483 Y141.026
G1 F720 X153.975 Y140.534 E52.04323
G0 F9000 X153.131 Y140.388
G1 F720 X153.975 Y139.544 E52.05505
G0 F9000 X153.975 Y139.126
G1 F720 X150.883 Y136.033 E52.09836
G0 F9000 X150.883 Y137.12
G1 F720 X153.975 Y136.292 E52.13006
G0 F9000 X153.975 Y136.079
G1 F720 X153.132 Y136.922 E52.14187
G0 F9000 X153.132 Y136.427
G1 F720 X153.975 Y135.584 E52.15367
G0 F9000 X153.975 Y135.089
G1 F720 X153.132 Y135.932 E52.16548
G0 F9000 X153.132 Y135.437
G1 F720 X153.975 Y134.594 E52.17729
G0 F9000 X153.975 Y134.176
G1 F720 X153.689 Y133.975 E52.18009
G1 X153.132 Y134.447 E52.18733
G0 F9000 X153.132 Y134.942
G1 F720 X153.975 Y134.099 E52.19913
G0 F9000 X152.521 Y133.974
G1 F720 X150.883 Y140.089 E52.26182
G0 F9000 X153.131 Y139.893
G1 F720 X153.975 Y139.049 E52.27364
G0 F9000 X153.975 Y138.554
G1 F720 X153.131 Y139.398 E52.28546
G0 F9000 X153.131 Y138.903
G1 F720 X153.975 Y138.059 E52.29728
G0 F9000 X153.975 Y137.564
G1 F720 X153.131 Y138.408 E52.3091
G0 F9000 X153.131 Y137.913
G1 F720 X153.975 Y137.069 E52.32092
G0 F9000 X153.975 Y136.574
G1 F720 X153.132 Y137.417 E52.33273
G0 F9000 X147.116 Y137.216
G1 F720 X144.024 Y134.124 E52.37603
G0 F9000 X144.024 Y134.151
G1 F720 X144.2 Y133.974 E52.3785
G0 F9000 X144.695 Y133.974
G1 F720 X144.024 Y134.646 E52.38791
G0 F9000 X144.867 Y134.793
G1 F720 X144.024 Y135.636 E52.39972
G0 F9000 X144.024 Y136.131
G1 F720 X144.867 Y135.288 E52.41152
G0 F9000 X144.867 Y135.783
G1 F720 X144.024 Y136.626 E52.42333
G0 F9000 X144.024 Y137.121
G1 F720 X144.867 Y136.278 E52.43513
G0 F9000 X144.867 Y136.773
G1 F720 X144.024 Y137.616 E52.44694
G0 F9000 X144.024 Y138.111
G1 F720 X144.867 Y137.268 E52.45875
G0 F9000 X144.024 Y138.958
G1 F720 X147.115 Y138.13 E52.49044
G0 F9000 X145.975 Y141.026
G1 F720 X144.024 Y139.074 E52.51777
G0 F9000 X144.867 Y140.733
G1 F720 X144.574 Y141.026 E52.52187
G0 F9000 X146.646 Y134.004
G1 F720 X146.675 Y133.974 E52.52228
G0 F9000 X146.898 Y142.655
; TYPE:SUPPORT
G1 F720 X151.693 Y147.45 E52.58944
G0 F9000 X151.674 Y147.292
G0 X152.963 Y144.637
G0 X152.963 Y144.637
G0 X153.122 Y144.637
G1 F720 X151.141 Y142.655 E52.61719
G0 F9000 X151.141 Y142.816
G0 X147.56 Y147.401
G0 X147.56 Y147.401
G0 X147.56 Y147.56
G1 F720 X144.702 Y144.702 E52.65721
G0 F9000 X145.072 Y132.344
G1 F720 X144.702 Y131.974 E52.66239
G0 F9000 X144.863 Y131.974
G0 X144.863 Y127.777
G0 X144.863 Y127.777
G0 X144.702 Y127.731
G1 F720 X149.315 Y132.344 E52.727
G0 F9000 X149.315 Y132.185
G0 X152.963 Y131.909
G0 X152.963 Y131.909
G0 X153.122 Y131.909
G1 F720 X148.654 Y127.441 E52.78957
; LAYER:10
G0 F9000 X143.261 Y133.457 Z2.25
; TYPE:WALL-INNER
G1 F720 X154.74 Y133.457 E52.90325
G1 X154.74 Y141.544 E52.98334
G1 X143.261 Y141.544 E53.09701
G1 X143.261 Y133.457 E53.1771
G0 F9000 X143.611 Y133.807
G1 F720 X154.39 Y133.807 E53.28384
G1 X154.39 Y141.194 E53.35699
G1 X143.611 Y141.194 E53.46374
G1 X143.611 Y133.807 E53.53689
G0 F9000 X142.911 Y133.107
; TYPE:WALL-OUTER
G1 F600 X155.09 Y133.107 E53.6575
G1 X155.09 Y141.894 E53.74452
G1 X142.911 Y141.894 E53.86513
G1 X142.911 Y133.107 E53.95214
G0 F9000 X143.821 Y133.921
; TYPE:FILL
G1 F720 X144.567 Y134.668 E53.9626
G0 F9000 X144.567 Y135.163
G1 F720 X143.725 Y134.32 E53.9744
G0 F9000 X143.821 Y133.921
G1 F720 X146.11 Y136.21 E54.00645
G0 F9000 X145.639 Y136.235
G1 F720 X150.483 Y141.079 E54.07429
G0 F9000 X150.978 Y141.079
G1 F720 X145.639 Y135.74 E54.14907
G0 F9000 X145.639 Y135.245
G1 F720 X151.473 Y141.079 E54.23077
G0 F9000 X151.968 Y141.079
G1 F720 X145.639 Y134.75 E54.31941
G0 F9000 X146.11 Y134.776
G1 F720 X143.725 Y135.415 E54.34386
G0 F9000 X143.725 Y135.31
G1 F720 X144.567 Y136.153 E54.35566
G0 F9000 X144.567 Y135.658
G1 F720 X143.725 Y134.815 E54.36746
G0 F9000 X143.725 Y135.805
G1 F720 X144.567 Y136.648 E54.37926
G0 F9000 X144.567 Y137.143
G1 F720 X143.725 Y136.3 E54.39106
G0 F9000 X143.725 Y136.795
G1 F720 X144.567 Y137.638 E54.40286
G0 F9000 X144.567 Y138.133
G1 F720 X143.725 Y137.29 E54.41465
G0 F9000 X143.725 Y137.785
G1 F720 X144.567 Y138.628 E54.42645
G0 F9000 X144.567 Y139.123
G1 F720 X143.725 Y138.28 E54.43825
G0 F9000 X143.725 Y138.775
G1 F720 X144.567 Y139.618 E54.45005
G0 F9000 X144.567 Y140.113
G1 F720 X143.725 Y139.27 E54.46185
G0 F9000 X143.725 Y139.038
G1 F720 X146.11 Y138.399 E54.4863
G0 F9000 X145.639 Y138.215
G1 F720 X148.503 Y141.079 E54.52641
G0 F9000 X148.998 Y141.079
G1 F720 X145.639 Y137.72 E54.57346
G0 F9000 X145.639 Y137.225
G1 F720 X149.493 Y141.079 E54.62743
G0 F9000 X149.988 Y141.079
G1 F720 X145.639 Y136.73 E54.68834
G0 F9000 X145.639 Y138.71
G1 F720 X148.008 Y141.079 E54.72152
G0 F9000 X147.513 Y141.079
G1 F720 X145.639 Y139.205 E54.74776
G0 F9000 X145.639 Y139.7
G1 F720 X147.018 Y141.079 E54.76707
G0 F9000 X146.523 Y141.079
G1 F720 X145.639 Y140.195 E54.77945
G0 F9000 X145.639 Y140.69
G1 F720 X146.028 Y141.079 E54.7849
G0 F9000 X146.028 Y141.078
G1 F720 X143.725 Y138.775 E54.81715
G0 F9000 X143.725 Y139.756
G1 F720 X145.289 Y133.92 E54.87699
G0 F9000 X145.639 Y134.255
G1 F720 X152.358 Y140.974 E54.97109
G0 F9000 X152.358 Y140.479
G1 F720 X145.801 Y133.921 E55.06292
G0 F9000 X146.296 Y133.921
G1 F720 X152.358 Y139.984 E55.14783
G0 F9000 X152.358 Y139.489
G1 F720 X146.791 Y133.921 E55.2258
G0 F9000 X147.286 Y133.921
G1 F720 X152.358 Y138.994 E55.29684
G0 F9000 X152.358 Y138.499
G1 F720 X147.781 Y133.921 E55.36095
G0 F9000 X148.276 Y133.921
G1 F720 X152.358 Y138.004 E55.41812
G0 F9000 X152.358 Y137.509
G1 F720 X148.771 Y133.921 E55.46837
G0 F9000 X149.265 Y133.921
G1 F720 X152.358 Y137.014 E55.51168
G0 F9000 X151.889 Y137.04
G1 F720 X154.273 Y139.424 E55.54507
G0 F9000 X154.273 Y139.424
G1 F720 X153.43 Y138.581 E55.55688
G0 F9000 X153.43 Y138.086
G1 F720 X154.273 Y138.929 E55.56868
G0 F9000 X154.273 Y138.434
G1 F720 X153.43 Y137.591 E55.58049
G0 F9000 X153.43 Y137.096
G1 F720 X154.273 Y137.939 E55.5923
G0 F9000 X154.274 Y137.445
G1 F720 X153.43 Y136.601 E55.60412
G0 F9000 X153.43 Y136.106
G1 F720 X154.274 Y136.95 E55.61594
G0 F9000 X154.274 Y136.455
G1 F720 X153.43 Y135.611 E55.62776
G0 F9000 X153.43 Y135.116
G1 F720 X154.274 Y135.96 E55.63958
G0 F9000 X154.274 Y136.212
G1 F720 X151.889 Y136.851 E55.66403
G0 F9000 X151.89 Y136.332
G1 F720 X152.536 Y133.921 E55.68875
G0 F9000 X152.358 Y134.044
G1 F720 X152.235 Y133.921 E55.69047
G0 F9000 X151.74 Y133.921
G1 F720 X152.358 Y134.539 E55.69912
G0 F9000 X152.358 Y135.034
G1 F720 X151.245 Y133.921 E55.71471
G0 F9000 X150.75 Y133.921
G1 F720 X152.358 Y135.529 E55.73723
G0 F9000 X152.358 Y136.024
G1 F720 X150.255 Y133.921 E55.76668
G0 F9000 X149.76 Y133.921
G1 F720 X152.358 Y136.519 E55.80307
G0 F9000 X153.43 Y134.621
G1 F720 X154.274 Y135.465 E55.81489
G0 F9000 X154.274 Y134.97
G1 F720 X153.43 Y134.126 E55.82671
G0 F9000 X153.72 Y133.921
G1 F720 X154.274 Y134.475 E55.83447
G0 F9000 X154.274 Y134.475
G1 F720 X153.721 Y133.922 E55.84221
G0 F9000 X154.216 Y133.922
G1 F720 X154.274 Y133.98 E55.84303
G0 F9000 X153.43 Y139.076
G1 F720 X154.273 Y139.919 E55.85483
G0 F9000 X154.274 Y139.835
G1 F720 X151.889 Y140.474 E55.87928
G0 F9000 X153.43 Y140.561
G1 F720 X153.948 Y141.079 E55.88654
G0 F9000 X154.241 Y141.078
G1 F720 X154.274 Y140.955 E55.8878
G0 F9000 X154.273 Y140.909
G1 F720 X153.43 Y140.066 E55.8996
G0 F9000 X153.43 Y139.571
G1 F720 X154.273 Y140.414 E55.91141
G0 F9000 X153.453 Y141.079
G1 F720 X153.43 Y141.056 E55.91173
G0 F9000 X144.567 Y140.608
G1 F720 X143.725 Y139.765 E55.92353
G0 F9000 X143.725 Y140.26
G1 F720 X144.543 Y141.079 E55.935
G0 F9000 X144.048 Y141.079
G1 F720 X143.725 Y140.755 E55.93953
G0 F9000 X144.567 Y134.173
G1 F720 X144.316 Y133.921 E55.94305
G0 F9000 X144.773 Y132.132
G0 X145.02 Y132.132
G0 X145.02 Y132.132
G0 X145.02 Y132.292
; TYPE:SUPPORT
G1 F720 X144.702 Y131.974 E55.9475
G0 F9000 X144.863 Y131.974
G0 X144.863 Y127.777
G0 X144.863 Y127.777
G0 X144.702 Y127.731
G1 F720 X149.262 Y132.291 E56.01136
G0 F9000 X149.262 Y132.132
G0 X152.963 Y131.908
G0 X152.963 Y131.908
G0 X153.121 Y131.908
G1 F720 X148.654 Y127.441 E56.07392
G0 F9000 X146.951 Y142.708
G1 F720 X151.693 Y147.45 E56.14034
G0 F9000 X151.674 Y147.292
G0 X152.963 Y144.636
G0 X152.963 Y144.636
G0 X153.121 Y144.636
G1 F720 X151.194 Y142.708 E56.16733
G0 F9000 X151.194 Y142.869
G0 X147.56 Y147.401
G0 X147.56 Y147.401
G0 X147.56 Y147.56
G1 F720 X144.702 Y144.702 E56.20736
; LAYER:11
G0 F9000 X142.962 Y141.597 Z2.45
; TYPE:WALL-INNER
G1 F720 X142.962 Y133.404 E56.28849
G1 X148.063 Y133.404 E56.33901
G1 X148.063 Y141.597 E56.42014
G1 X142.962 Y141.597 E56.47066
G0 F9000 X143.312 Y141.247
G1 F720 X143.312 Y133.754 E56.54486
G1 X147.713 Y133.754 E56.58844
G1 X147.713 Y141.247 E56.66265
G1 X143.312 Y141.247 E56.70623
G0 F9000 X142.612 Y141.947
; TYPE:WALL-OUTER
G1 F600 X142.612 Y133.054 E56.7943
G1 X148.413 Y133.054 E56.85174
G1 X148.413 Y141.947 E56.93981
G1 X142.612 Y141.947 E56.99726
G0 F9000 X143.478 Y141.132
; TYPE:FILL
G1 F720 X144.268 Y140.341 E57.00833
G0 F9000 X144.633 Y140.471
G1 F720 X147.597 Y137.508 E57.04983
G0 F9000 X147.597 Y137.013
G1 F720 X144.633 Y139.976 E57.09133
G0 F9000 X144.268 Y139.846
G1 F720 X143.426 Y140.689 E57.10313
G0 F9000 X143.426 Y140.872
G1 F720 X145.104 Y134.61 E57.16733
G0 F9000 X145.103 Y135.045
G1 F720 X143.425 Y135.495 E57.18454
G0 F9000 X143.426 Y135.739
G1 F720 X144.268 Y134.896 E57.19634
G0 F9000 X144.634 Y135.026
G1 F720 X145.791 Y133.869 E57.21254
G0 F9000 X146.286 Y133.869
G1 F720 X144.634 Y135.521 E57.23568
G0 F9000 X144.268 Y135.391
G1 F720 X143.426 Y136.234 E57.24748
G0 F9000 X143.426 Y136.729
G1 F720 X144.268 Y135.886 E57.25928
G0 F9000 X144.634 Y136.016
G1 F720 X146.781 Y133.869 E57.28934
G0 F9000 X147.276 Y133.869
G1 F720 X144.634 Y136.511 E57.32635
G0 F9000 X144.268 Y136.381
G1 F720 X143.426 Y137.224 E57.33814
G0 F9000 X143.426 Y137.719
G1 F720 X144.268 Y136.876 E57.34994
G0 F9000 X144.634 Y137.006
G1 F720 X147.597 Y134.043 E57.39144
G0 F9000 X147.597 Y134.538
G1 F720 X144.633 Y137.501 E57.43294
G0 F9000 X144.268 Y137.371
G1 F720 X143.426 Y138.214 E57.44474
G0 F9000 X143.426 Y138.476
G1 F720 X145.104 Y140.154 E57.46824
G0 F9000 X144.633 Y139.481
G1 F720 X147.597 Y136.518 E57.50975
G0 F9000 X147.597 Y136.023
G1 F720 X144.633 Y138.986 E57.55125
G0 F9000 X144.268 Y138.856
G1 F720 X143.426 Y139.699 E57.56305
G0 F9000 X143.426 Y139.204
G1 F720 X144.268 Y138.361 E57.57485
G0 F9000 X144.633 Y138.491
G1 F720 X147.597 Y135.528 E57.61635
G0 F9000 X147.597 Y135.033
G1 F720 X144.633 Y137.996 E57.65786
G0 F9000 X144.268 Y137.866
G1 F720 X143.426 Y138.709 E57.66965
G0 F9000 X143.426 Y139.118
G1 F720 X145.104 Y138.669 E57.68686
G0 F9000 X144.268 Y139.351
G1 F720 X143.426 Y140.194 E57.69866
G0 F9000 X144.268 Y140.836
G1 F720 X143.973 Y141.132 E57.70279
G0 F9000 X144.633 Y140.966
G1 F720 X147.597 Y138.003 E57.7443
G0 F9000 X147.597 Y138.498
G1 F720 X144.963 Y141.132 E57.78119
G0 F9000 X145.458 Y141.132
G1 F720 X147.597 Y138.993 E57.81114
G0 F9000 X147.597 Y139.488
G1 F720 X145.953 Y141.132 E57.83417
G0 F9000 X146.448 Y141.131
G1 F720 X147.597 Y139.983 E57.85025
G0 F9000 X147.597 Y140.478
G1 F720 X146.943 Y141.131 E57.8594
G0 F9000 X147.438 Y141.131
G1 F720 X147.597 Y140.973 E57.86162
G0 F9000 X145.104 Y135.205
G1 F720 X143.768 Y133.868 E57.88034
G0 F9000 X143.812 Y133.868
G1 F720 X143.426 Y134.254 E57.88575
G0 F9000 X143.426 Y134.749
G1 F720 X144.268 Y133.906 E57.89755
G0 F9000 X144.634 Y134.036
G1 F720 X144.801 Y133.869 E57.89989
G0 F9000 X145.296 Y133.869
G1 F720 X144.634 Y134.531 E57.90916
G0 F9000 X144.268 Y134.401
G1 F720 X143.426 Y135.244 E57.92096
G1 F1800 E54.92096
G1 Z3.45
G0 F9000 X149.937 Y133.404
; TYPE:WALL-INNER
G1 Z2.45
G1 F1800 E57.92096
G1 F720 X155.039 Y133.404 E57.97148
G1 X155.039 Y141.597 E58.05262
G1 X149.937 Y141.597 E58.10314
G1 X149.937 Y133.404 E58.18428
G0 F9000 X150.287 Y133.754
G1 F720 X154.689 Y133.754 E58.22787
G1 X154.689 Y141.247 E58.30207
G1 X150.287 Y141.247 E58.34566
G1 X150.287 Y133.754 E58.41987
G0 F9000 X149.587 Y133.054
; TYPE:WALL-OUTER
G1 F600 X155.389 Y133.054 E58.47732
G1 X155.389 Y141.947 E58.56539
G1 X149.587 Y141.947 E58.62285
G1 X149.587 Y133.054 E58.71092
G0 F9000 X150.741 Y133.868
; TYPE:FILL
G1 F720 X150.4 Y134.209 E58.71569
G0 F9000 X150.4 Y134.704
G1 F720 X151.236 Y133.868 E58.7274
G0 F9000 X151.731 Y133.868
G1 F720 X150.4 Y135.199 E58.74604
G0 F9000 X150.4 Y135.694
G1 F720 X152.226 Y133.868 E58.77161
G0 F9000 X152.721 Y133.868
G1 F720 X150.4 Y136.189 E58.80412
G0 F9000 X150.4 Y136.684
G1 F720 X153.216 Y133.868 E58.84356
G0 F9000 X153.365 Y134.215
G1 F720 X150.4 Y137.179 E58.88507
G0 F9000 X150.4 Y137.674
G1 F720 X153.365 Y134.71 E58.92659
G0 F9000 X153.729 Y134.84
G1 F720 X154.573 Y133.996 E58.93841
G0 F9000 X154.205 Y133.869
G1 F720 X153.729 Y134.345 E58.94508
G0 F9000 X153.667 Y133.868
G1 F720 X154.573 Y134.774 E58.95777
G0 F9000 X154.573 Y134.986
G1 F720 X153.729 Y135.83 E58.96959
G0 F9000 X153.365 Y135.7
G1 F720 X150.4 Y138.664 E59.0111
G0 F9000 X150.4 Y138.169
G1 F720 X153.365 Y135.205 E59.05262
G0 F9000 X153.729 Y135.335
G1 F720 X154.573 Y134.491 E59.06444
G0 F9000 X154.573 Y135.481
G1 F720 X153.729 Y136.325 E59.07626
G0 F9000 X153.365 Y136.195
G1 F720 X150.4 Y139.159 E59.11778
G0 F9000 X150.4 Y139.654
G1 F720 X153.365 Y136.69 E59.1593
G0 F9000 X153.729 Y136.82
G1 F720 X154.573 Y135.976 E59.17112
G0 F9000 X154.573 Y136.132
G1 F720 X152.895 Y136.581 E59.18832
G0 F9000 X153.365 Y137.185
G1 F720 X150.4 Y140.149 E59.22984
G0 F9000 X150.4 Y140.644
G1 F720 X153.365 Y137.68 E59.27135
G0 F9000 X153.729 Y137.81
G1 F720 X154.573 Y136.966 E59.28318
G0 F9000 X154.573 Y136.471
G1 F720 X153.729 Y137.315 E59.295
G0 F9000 X154.573 Y137.461
G1 F720 X153.729 Y138.305 E59.30682
G0 F9000 X153.365 Y138.175
G1 F720 X150.407 Y141.132 E59.34823
G0 F9000 X150.902 Y141.132
G1 F720 X153.365 Y138.67 E59.38272
G0 F9000 X153.729 Y138.8
G1 F720 X154.572 Y137.957 E59.39453
G0 F9000 X154.572 Y138.452
G1 F720 X153.729 Y139.295 E59.40633
G0 F9000 X153.365 Y139.164
G1 F720 X151.397 Y141.132 E59.4339
G0 F9000 X151.892 Y141.132
G1 F720 X153.365 Y139.659 E59.45453
G0 F9000 X153.729 Y139.79
G1 F720 X154.572 Y138.947 E59.46633
G0 F9000 X154.572 Y139.442
G1 F720 X153.729 Y140.285 E59.47814
G0 F9000 X153.365 Y140.154
G1 F720 X152.387 Y141.132 E59.49183
G0 F9000 X152.882 Y141.132
G1 F720 X153.365 Y140.649 E59.4986
G0 F9000 X153.729 Y140.78
G1 F720 X154.572 Y139.937 E59.5104
G0 F9000 X154.573 Y139.841
G1 F720 X154.227 Y141.131 E59.52363
G0 F9000 X154.367 Y141.132
G1 F720 X154.572 Y140.927 E59.5265
G0 F9000 X154.572 Y140.432
G1 F720 X153.872 Y141.132 E59.53631
G0 F9000 X152.895 Y140.205
G1 F720 X154.573 Y139.755 E59.55351
G0 F9000 X154.572 Y139.723
G1 F720 X152.895 Y138.046 E59.577
G0 F9000 X151.247 Y142.762
; TYPE:SUPPORT
G1 F720 X153.122 Y144.637 E59.60326
G0 F9000 X152.963 Y144.637
G0 X151.674 Y147.292
G0 X151.674 Y147.292
G0 X151.693 Y147.45
G1 F720 X147.004 Y142.762 E59.66892
G0 F9000 X147.004 Y142.922
G0 X144.863 Y144.702
G0 X144.863 Y144.702
G0 X144.702 Y144.702
G1 F720 X147.56 Y147.56 E59.70894
G0 F9000 X149.209 Y132.238
G1 F720 X144.702 Y127.731 E59.77206
G0 F9000 X144.863 Y127.777
G0 X148.654 Y127.601
G0 X148.654 Y127.601
G0 X148.654 Y127.441
G1 F720 X153.122 Y131.909 E59.83464
G0 F9000 X152.963 Y131.909
G0 X144.966 Y132.079
G0 X144.966 Y132.079
G0 X144.966 Y132.238
G1 F720 X144.702 Y131.974 E59.83834
; LAYER:12
G0 F9000 X144.702 Y133.276 Z2.65
G0 X142.663 Y133.351
G0 X142.663 Y133.351
; TYPE:WALL-INNER
G1 F720 X147.057 Y133.351 E59.88185
G1 X147.057 Y141.65 E59.96403
G1 X142.663 Y141.65 E60.00755
G1 X142.663 Y133.351 E60.08973
G0 F9000 X143.013 Y133.701
G1 F720 X146.707 Y133.701 E60.12631
G1 X146.707 Y141.3 E60.20157
G1 X143.013 Y141.3 E60.23815
G1 X143.013 Y133.701 E60.3134
G0 F9000 X142.313 Y133.001
; TYPE:WALL-OUTER
G1 F600 X147.407 Y133.001 E60.36385
G1 X147.407 Y142 E60.45296
G1 X142.313 Y142 E60.50341
G1 X142.313 Y133.001 E60.59253
G0 F9000 X143.22 Y133.815
; TYPE:FILL
G1 F720 X143.969 Y134.564 E60.60302
G0 F9000 X144.307 Y134.407
G1 F720 X146.591 Y136.691 E60.635
G0 F9000 X146.591 Y136.196
G1 F720 X144.307 Y133.912 E60.66699
G0 F9000 X143.969 Y134.069
G1 F720 X143.715 Y133.816 E60.67054
G0 F9000 X143.715 Y133.815
G1 F720 X144.777 Y134.877 E60.68541
G0 F9000 X144.777 Y135.133
G1 F720 X143.127 Y135.575 E60.70233
G0 F9000 X143.126 Y135.702
G1 F720 X143.969 Y136.544 E60.71413
G0 F9000 X144.307 Y136.387
G1 F720 X146.591 Y138.672 E60.74612
G0 F9000 X146.591 Y138.177
G1 F720 X144.307 Y135.892 E60.77812
G0 F9000 X143.969 Y136.049
G1 F720 X143.126 Y135.207 E60.78992
G0 F9000 X143.126 Y134.712
G1 F720 X143.969 Y135.554 E60.80172
G0 F9000 X144.307 Y135.397
G1 F720 X146.591 Y137.682 E60.83371
G0 F9000 X146.591 Y137.186
G1 F720 X144.307 Y134.902 E60.8657
G0 F9000 X143.969 Y135.059
G1 F720 X143.126 Y134.217 E60.8775
G0 F9000 X144.705 Y133.816
G1 F720 X146.591 Y135.701 E60.9039
G0 F9000 X146.591 Y135.206
G1 F720 X145.2 Y133.816 E60.92338
G0 F9000 X145.695 Y133.816
G1 F720 X146.591 Y134.711 E60.93592
G0 F9000 X146.591 Y134.216
G1 F720 X146.19 Y133.816 E60.94153
G0 F9000 X144.777 Y135.831
G1 F720 X143.343 Y141.183 E60.9964
G0 F9000 X143.165 Y141.185
G1 F720 X143.126 Y141.146 E60.99694
G0 F9000 X143.126 Y140.652
G1 F720 X143.66 Y141.185 E61.00441
G0 F9000 X143.969 Y140.999
G1 F720 X143.126 Y140.157 E61.01621
G0 F9000 X143.126 Y139.662
G1 F720 X143.969 Y140.504 E61.02801
G0 F9000 X144.307 Y140.347
G1 F720 X145.144 Y141.185 E61.03974
G0 F9000 X144.65 Y141.185
G1 F720 X144.307 Y140.842 E61.04455
G0 F9000 X143.969 Y140.009
G1 F720 X143.126 Y139.167 E61.05634
G0 F9000 X143.127 Y139.199
G1 F720 X144.777 Y138.756 E61.07326
G0 F9000 X144.307 Y138.863
G1 F720 X146.591 Y141.146 E61.10524
G0 F9000 X146.134 Y141.185
G1 F720 X144.307 Y139.358 E61.13083
G0 F9000 X143.969 Y139.514
G1 F720 X143.126 Y138.672 E61.14263
G0 F9000 X143.126 Y138.177
G1 F720 X143.969 Y139.02 E61.15444
G0 F9000 X143.969 Y138.525
G1 F720 X143.126 Y137.682 E61.16624
G0 F9000 X143.126 Y137.187
G1 F720 X143.969 Y138.03 E61.17805
G0 F9000 X144.307 Y137.873
G1 F720 X146.591 Y140.157 E61.21004
G0 F9000 X146.591 Y139.662
G1 F720 X144.307 Y137.377 E61.24203
G0 F9000 X143.969 Y137.535
G1 F720 X143.126 Y136.692 E61.25384
G0 F9000 X143.126 Y136.197
G1 F720 X143.969 Y137.039 E61.26564
G0 F9000 X144.307 Y136.882
G1 F720 X146.591 Y139.167 E61.29763
G0 F9000 X146.591 Y140.652
G1 F720 X144.307 Y138.368 E61.32962
G0 F9000 X143.126 Y138.177
G1 F720 X144.777 Y139.827 E61.35273
G0 F9000 X144.307 Y139.852
G1 F720 X145.639 Y141.185 E61.37139
G1 F1800 E58.37139
G1 Z3.65
G0 F9000 X150.944 Y141.65
; TYPE:WALL-INNER
G1 Z2.65
G1 F1800 E61.37139
G1 F720 X150.944 Y133.351 E61.45358
G1 X155.338 Y133.351 E61.49709
G1 X155.338 Y141.65 E61.57928
G1 X150.944 Y141.65 E61.62279
G0 F9000 X151.294 Y141.3
G1 F720 X151.294 Y133.701 E61.69804
G1 X154.988 Y133.701 E61.73462
G1 X154.988 Y141.3 E61.80988
G1 X151.294 Y141.3 E61.84646
G0 F9000 X150.594 Y142
; TYPE:WALL-OUTER
G1 F600 X150.594 Y133.001 E61.93558
G1 X155.688 Y133.001 E61.98602
G1 X155.688 Y142 E62.07514
G1 X150.594 Y142 E62.12558
G0 F9000 X151.579 Y141.185
; TYPE:FILL
G1 F720 X151.408 Y141.014 E62.12798
G0 F9000 X151.408 Y140.519
G1 F720 X152.074 Y141.185 E62.13731
G0 F9000 X152.569 Y141.185
G1 F720 X151.408 Y140.024 E62.15357
G0 F9000 X151.408 Y139.529
G1 F720 X153.064 Y141.185 E62.17676
G0 F9000 X153.559 Y141.185
G1 F720 X151.408 Y139.034 E62.20688
G0 F9000 X151.408 Y138.539
G1 F720 X153.692 Y140.823 E62.23887
G0 F9000 X154.03 Y140.666
G1 F720 X154.549 Y141.185 E62.24614
G0 F9000 X154.213 Y141.185
G1 F720 X154.872 Y138.724 E62.27137
G0 F9000 X154.871 Y138.537
G1 F720 X154.03 Y137.696 E62.28315
G0 F9000 X153.692 Y137.853
G1 F720 X151.408 Y135.569 E62.31513
G0 F9000 X151.408 Y135.074
G1 F720 X153.692 Y137.358 E62.34712
G0 F9000 X154.03 Y137.201
G1 F720 X154.871 Y138.042 E62.3589
G0 F9000 X154.871 Y137.547
G1 F720 X154.03 Y136.706 E62.37068
G0 F9000 X153.692 Y136.863
G1 F720 X151.408 Y134.579 E62.40266
G0 F9000 X151.408 Y134.084
G1 F720 X153.692 Y136.368 E62.43465
G0 F9000 X154.03 Y136.211
G1 F720 X154.871 Y137.052 E62.44643
G0 F9000 X154.871 Y136.557
G1 F720 X154.03 Y135.716 E62.45821
G0 F9000 X153.692 Y135.873
G1 F720 X151.634 Y133.815 E62.48703
G0 F9000 X152.129 Y133.815
G1 F720 X153.692 Y135.378 E62.50892
G0 F9000 X154.03 Y135.221
G1 F720 X154.871 Y136.062 E62.5207
G0 F9000 X154.871 Y136.052
G1 F720 X153.222 Y136.494 E62.5376
G0 F9000 X153.692 Y134.883
G1 F720 X152.624 Y133.815 E62.55256
G0 F9000 X153.119 Y133.815
G1 F720 X153.692 Y134.388 E62.56059
G0 F9000 X154.03 Y134.231
G1 F720 X154.871 Y135.072 E62.57236
G0 F9000 X154.871 Y135.072
G1 F720 X153.615 Y133.816 E62.58995
G0 F9000 X153.614 Y133.815
G1 F720 X153.692 Y133.893 E62.59105
G0 F9000 X154.109 Y133.815
G1 F720 X154.871 Y134.577 E62.60172
G0 F9000 X154.871 Y134.083
G1 F720 X154.604 Y133.815 E62.60547
G0 F9000 X154.03 Y134.726
G1 F720 X154.871 Y135.567 E62.61724
G0 F9000 X154.03 Y138.191
G1 F720 X154.871 Y139.032 E62.62902
G0 F9000 X154.871 Y139.527
G1 F720 X154.03 Y138.686 E62.6408
G0 F9000 X153.692 Y138.843
G1 F720 X151.408 Y136.559 E62.67279
G0 F9000 X151.408 Y136.064
G1 F720 X153.692 Y138.348 E62.70477
G0 F9000 X153.222 Y138.373
G1 F720 X154.871 Y140.022 E62.72787
G0 F9000 X154.871 Y140.022
G1 F720 X154.03 Y139.181 E62.73965
G0 F9000 X153.692 Y139.338
G1 F720 X151.408 Y137.054 E62.77163
G0 F9000 X151.408 Y137.549
G1 F720 X153.692 Y139.833 E62.80362
G0 F9000 X154.03 Y139.676
G1 F720 X154.871 Y140.517 E62.8154
G0 F9000 X154.871 Y141.012
G1 F720 X154.03 Y140.171 E62.82718
G0 F9000 X153.692 Y140.328
G1 F720 X151.408 Y138.044 E62.85916
G0 F9000 X153.222 Y140.117
G1 F720 X154.872 Y139.675 E62.87608
G0 F9000 X154.03 Y141.161
G1 F720 X154.054 Y141.185 E62.87642
G0 F9000 X153.121 Y131.908
; TYPE:SUPPORT
G1 F720 X148.654 Y127.441 E62.93898
G0 F9000 X148.654 Y127.601
G0 X144.863 Y127.777
G0 X144.863 Y127.777
G0 X144.702 Y127.731
G1 F720 X149.778 Y132.808 E63.01007
G0 F9000 X149.619 Y132.808
G0 X148.479 Y132.617
G0 X148.423 Y131.985
G0 X144.914 Y132.026
G0 X144.914 Y132.186
G1 F720 X144.702 Y131.974 E63.01304
G0 F9000 X147.057 Y142.815
G1 F720 X151.693 Y147.45 E63.07796
G0 F9000 X151.674 Y147.292
G0 X152.963 Y144.636
G0 X152.963 Y144.636
G0 X153.121 Y144.636
G1 F720 X151.3 Y142.815 E63.10346
G0 F9000 X151.3 Y142.975
G0 X147.56 Y147.401
G0 X147.56 Y147.401
G0 X147.56 Y147.56
G1 F720 X144.702 Y144.702 E63.14349
; LAYER:13
G0 F9000 X146.051 Y141.703 Z2.85
; TYPE:WALL-INNER
G1 F720 X142.363 Y141.703 E63.18001
G1 X142.363 Y133.298 E63.26325
G1 X146.051 Y133.298 E63.29977
G1 X146.051 Y141.703 E63.383
G0 F9000 X145.701 Y141.353
G1 F720 X142.713 Y141.353 E63.41259
G1 X142.713 Y133.648 E63.4889
G1 X145.701 Y133.648 E63.51849
G1 X145.701 Y141.353 E63.59479
G0 F9000 X146.401 Y142.053
; TYPE:WALL-OUTER
G1 F600 X142.013 Y142.053 E63.63824
G1 X142.013 Y132.948 E63.72841
G1 X146.401 Y132.948 E63.77186
G1 X146.401 Y142.053 E63.86203
G0 F9000 X145.352 Y141.238
; TYPE:FILL
G1 F720 X145.585 Y141.004 E63.8653
G0 F9000 X145.585 Y140.509
G1 F720 X144.857 Y141.238 E63.8755
G0 F9000 X144.362 Y141.238
G1 F720 X145.585 Y140.014 E63.89264
G0 F9000 X145.585 Y139.519
G1 F720 X144.008 Y141.096 E63.91472
G0 F9000 X143.67 Y140.939
G1 F720 X143.372 Y141.238 E63.9189
G0 F9000 X143.329 Y141.236
G1 F720 X144.478 Y136.946 E63.96289
G0 F9000 X144.008 Y137.136
G1 F720 X145.585 Y135.56 E63.98496
G0 F9000 X145.585 Y135.065
G1 F720 X144.008 Y136.642 E64.00705
G0 F9000 X143.67 Y136.485
G1 F720 X142.827 Y137.328 E64.01886
G0 F9000 X142.827 Y136.833
G1 F720 X143.67 Y135.99 E64.03066
G0 F9000 X144.008 Y136.147
G1 F720 X145.585 Y134.57 E64.05275
G0 F9000 X145.585 Y134.075
G1 F720 X144.008 Y135.652 E64.07483
G0 F9000 X143.67 Y135.495
G1 F720 X142.827 Y136.338 E64.08664
G0 F9000 X142.827 Y135.843
G1 F720 X143.67 Y135 E64.09845
G0 F9000 X144.008 Y135.157
G1 F720 X145.403 Y133.762 E64.11798
G0 F9000 X144.908 Y133.762
G1 F720 X144.008 Y134.662 E64.13059
G0 F9000 X143.67 Y134.505
G1 F720 X142.827 Y135.348 E64.14239
G0 F9000 X142.827 Y135.656
G1 F720 X144.478 Y135.213 E64.15932
G0 F9000 X144.478 Y134.578
G1 F720 X143.662 Y133.762 E64.17075
G0 F9000 X143.423 Y133.762
G1 F720 X142.827 Y134.358 E64.1791
G0 F9000 X142.827 Y134.853
G1 F720 X143.67 Y134.01 E64.1909
G0 F9000 X144.008 Y134.167
G1 F720 X144.413 Y133.762 E64.19657
G0 F9000 X142.927 Y133.763
G1 F720 X142.827 Y133.863 E64.19798
G0 F9000 X143.67 Y136.98
G1 F720 X142.827 Y137.823 E64.20978
G0 F9000 X142.827 Y137.877
G1 F720 X144.478 Y139.528 E64.2329
G0 F9000 X144.008 Y139.611
G1 F720 X145.585 Y138.035 E64.25498
G0 F9000 X145.585 Y138.529
G1 F720 X144.008 Y140.106 E64.27707
G0 F9000 X143.67 Y139.949
G1 F720 X142.827 Y140.793 E64.28888
G0 F9000 X142.877 Y141.237
G1 F720 X143.67 Y140.444 E64.29999
G0 F9000 X144.008 Y140.601
G1 F720 X145.585 Y139.024 E64.32207
G0 F9000 X144.478 Y138.836
G1 F720 X142.827 Y139.279 E64.339
G0 F9000 X142.827 Y139.308
G1 F720 X143.67 Y138.464 E64.35081
G0 F9000 X144.008 Y138.621
G1 F720 X145.585 Y137.045 E64.37289
G0 F9000 X145.585 Y136.55
G1 F720 X144.008 Y138.126 E64.39497
G0 F9000 X143.67 Y137.969
G1 F720 X142.827 Y138.813 E64.40678
G0 F9000 X142.827 Y138.318
G1 F720 X143.67 Y137.474 E64.4186
G0 F9000 X144.008 Y137.631
G1 F720 X145.585 Y136.055 E64.44068
G0 F9000 X145.585 Y137.54
G1 F720 X144.008 Y139.116 E64.46276
G0 F9000 X143.67 Y138.959
G1 F720 X142.827 Y139.803 E64.47457
G0 F9000 X142.827 Y140.298
G1 F720 X143.67 Y139.454 E64.48638
G1 F1800 E61.48638
G1 Z3.85
G0 F9000 X151.95 Y141.703
; TYPE:WALL-INNER
G1 Z2.85
G1 F1800 E64.48638
G1 F720 X151.95 Y133.298 E64.56962
G1 X155.638 Y133.298 E64.60614
G1 X155.638 Y141.703 E64.68937
G1 X151.95 Y141.703 E64.7259
G0 F9000 X152.3 Y141.353
G1 F720 X152.3 Y133.648 E64.8022
G1 X155.288 Y133.648 E64.83179
G1 X155.288 Y141.353 E64.90809
G1 X152.3 Y141.353 E64.93768
G0 F9000 X151.6 Y142.053
; TYPE:WALL-OUTER
G1 F600 X151.6 Y132.948 E65.02785
G1 X155.988 Y132.948 E65.0713
G1 X155.988 Y142.053 E65.16147
G1 X151.6 Y142.053 E65.20492
G0 F9000 X152.414 Y141.105
; TYPE:FILL
G1 F720 X153.991 Y139.528 E65.22701
G0 F9000 X154.329 Y139.685
G1 F720 X155.172 Y138.842 E65.23881
G0 F9000 X155.172 Y138.347
G1 F720 X154.329 Y139.19 E65.25062
G0 F9000 X153.991 Y139.033
G1 F720 X152.414 Y140.61 E65.27271
G0 F9000 X152.414 Y140.115
G1 F720 X153.991 Y138.538 E65.29479
G0 F9000 X154.329 Y138.695
G1 F720 X155.172 Y137.852 E65.3066
G0 F9000 X155.172 Y137.604
G1 F720 X154.199 Y141.237 E65.34384
G0 F9000 X154.329 Y141.17
G1 F720 X155.172 Y140.327 E65.35565
G0 F9000 X155.172 Y140.323
G1 F720 X153.521 Y138.672 E65.37877
G0 F9000 X153.991 Y138.043
G1 F720 X152.414 Y139.62 E65.40086
G0 F9000 X152.414 Y139.125
G1 F720 X153.991 Y137.548 E65.42294
G0 F9000 X154.329 Y137.705
G1 F720 X155.172 Y136.862 E65.43475
G0 F9000 X155.172 Y136.367
G1 F720 X154.329 Y137.21 E65.44656
G0 F9000 X153.991 Y137.053
G1 F720 X152.414 Y138.63 E65.46864
G0 F9000 X152.414 Y138.135
G1 F720 X153.991 Y136.558 E65.49073
G0 F9000 X154.329 Y136.715
G1 F720 X155.172 Y135.872 E65.50253
G0 F9000 X155.172 Y135.971
G1 F720 X153.521 Y136.413 E65.51946
G0 F9000 X153.991 Y136.063
G1 F720 X152.414 Y137.64 E65.54154
G0 F9000 X152.414 Y137.146
G1 F720 X153.991 Y135.568 E65.56364
G0 F9000 X154.329 Y135.725
G1 F720 X155.172 Y134.882 E65.57544
G0 F9000 X155.172 Y135.373
G1 F720 X153.562 Y133.763 E65.59799
G0 F9000 X153.322 Y133.762
G1 F720 X152.414 Y134.671 E65.61071
G0 F9000 X152.414 Y135.166
G1 F720 X153.817 Y133.762 E65.63037
G0 F9000 X153.991 Y134.083
G1 F720 X152.414 Y135.661 E65.65246
G0 F9000 X152.414 Y136.156
G1 F720 X153.991 Y134.578 E65.67456
G0 F9000 X154.329 Y134.735
G1 F720 X155.172 Y133.892 E65.68636
G0 F9000 X154.807 Y133.762
G1 F720 X154.329 Y134.24 E65.69306
G0 F9000 X155.172 Y134.387
G1 F720 X154.329 Y135.23 E65.70486
G0 F9000 X153.991 Y135.073
G1 F720 X152.414 Y136.651 E65.72696
G0 F9000 X154.329 Y136.22
G1 F720 X155.172 Y135.377 E65.73876
G0 F9000 X155.172 Y137.357
G1 F720 X154.329 Y138.2 E65.75057
G0 F9000 X155.172 Y139.337
G1 F720 X154.329 Y140.18 E65.76237
G0 F9000 X153.991 Y140.023
G1 F720 X152.776 Y141.238 E65.77939
G0 F9000 X153.271 Y141.238
G1 F720 X153.991 Y140.518 E65.78947
G0 F9000 X154.329 Y140.675
G1 F720 X155.172 Y139.832 E65.80128
G0 F9000 X155.172 Y139.595
G1 F720 X153.521 Y140.037 E65.8182
G0 F9000 X153.991 Y141.013
G1 F720 X153.766 Y141.238 E65.82136
G0 F9000 X154.756 Y141.238
G1 F720 X155.172 Y140.822 E65.82718
G0 F9000 X152.414 Y134.176
G1 F720 X152.826 Y133.763 E65.83296
G0 F9000 X149.925 Y141.44
; TYPE:SUPPORT
G1 F720 X150.784 Y142.299 E65.84499
G0 F9000 X151.353 Y142.868
G1 F720 X153.122 Y144.637 E65.86976
G0 F9000 X152.963 Y144.637
G0 X151.674 Y147.292
G0 X151.674 Y147.292
G0 X151.693 Y147.45
G1 F720 X147.11 Y142.868 E65.93394
G0 F9000 X147.11 Y143.028
G0 X144.863 Y144.702
G0 X144.863 Y144.702
G0 X144.702 Y144.702
G1 F720 X147.56 Y147.56 E65.97397
G0 F9000 X150.531 Y133.56
G1 F720 X144.702 Y127.731 E66.0556
G0 F9000 X144.863 Y127.777
G0 X148.654 Y127.601
G0 X148.654 Y127.601
G0 X148.654 Y127.441
G1 F720 X153.122 Y131.909 E66.11818
G0 F9000 X152.963 Y131.909
G0 X144.86 Y131.973
G0 X144.86 Y131.973
G0 X144.86 Y132.132
G1 F720 X144.702 Y131.974 E66.12039
; LAYER:14
G0 F9000 X145.045 Y133.245 Z3.05
; TYPE:WALL-INNER
G1 F720 X145.045 Y141.756 E66.20467
G1 X142.064 Y141.756 E66.23419
G1 X142.064 Y133.245 E66.31848
G1 X145.045 Y133.245 E66.348
G0 F9000 X144.695 Y133.595
G1 F720 X144.695 Y141.406 E66.42535
G1 X142.414 Y141.406 E66.44794
G1 X142.414 Y133.595 E66.52529
G1 X144.695 Y133.595 E66.54788
G0 F9000 X145.395 Y132.895
; TYPE:WALL-OUTER
G1 F600 X145.395 Y142.106 E66.6391
G1 X141.714 Y142.106 E66.67555
G1 X141.714 Y132.895 E66.76677
G1 X145.395 Y132.895 E66.80322
G0 F9000 X145.21 Y133.17
G0 X144.579 Y134.184
G0 X144.579 Y134.184
; TYPE:FILL
G1 F720 X144.104 Y133.709 E66.80987
G0 F9000 X143.709 Y133.81
G1 F720 X144.579 Y134.679 E66.82205
G0 F9000 X144.579 Y134.679
G1 F720 X143.609 Y133.709 E66.83563
G0 F9000 X143.371 Y133.967
G1 F720 X143.114 Y133.709 E66.83924
G0 F9000 X142.619 Y133.71
G1 F720 X143.371 Y134.462 E66.84977
G0 F9000 X143.709 Y134.305
G1 F720 X144.579 Y135.174 E66.86195
G0 F9000 X144.579 Y135.186
G1 F720 X142.528 Y135.735 E66.88297
G0 F9000 X142.527 Y135.598
G1 F720 X143.371 Y136.441 E66.89479
G0 F9000 X143.709 Y136.284
G1 F720 X144.579 Y137.154 E66.90697
G0 F9000 X144.579 Y136.659
G1 F720 X143.709 Y135.789 E66.91916
G0 F9000 X143.371 Y135.946
G1 F720 X142.527 Y135.103 E66.93097
G0 F9000 X142.527 Y134.608
G1 F720 X143.371 Y135.451 E66.94278
G0 F9000 X143.709 Y135.294
G1 F720 X144.579 Y136.164 E66.95497
G0 F9000 X144.579 Y136.568
G1 F720 X143.314 Y141.29 E67.00338
G0 F9000 X143.271 Y141.291
G1 F720 X142.528 Y140.548 E67.01378
G0 F9000 X142.528 Y140.053
G1 F720 X143.371 Y140.896 E67.02559
G0 F9000 X143.709 Y140.739
G1 F720 X144.261 Y141.291 E67.03332
G0 F9000 X144.579 Y141.114
G1 F720 X143.709 Y140.244 E67.0455
G0 F9000 X143.371 Y140.401
G1 F720 X142.528 Y139.558 E67.05731
G0 F9000 X142.528 Y139.359
G1 F720 X144.579 Y138.81 E67.07834
G0 F9000 X144.579 Y138.639
G1 F720 X143.709 Y137.769 E67.09052
G0 F9000 X143.371 Y137.926
G1 F720 X142.527 Y137.083 E67.10233
G0 F9000 X142.527 Y136.588
G1 F720 X143.371 Y137.431 E67.11415
G0 F9000 X143.709 Y137.274
G1 F720 X144.579 Y138.144 E67.12633
G0 F9000 X144.579 Y137.649
G1 F720 X143.709 Y136.779 E67.13852
G0 F9000 X143.371 Y136.936
G1 F720 X142.527 Y136.093 E67.15033
G0 F9000 X143.371 Y134.956
G1 F720 X142.527 Y134.113 E67.16214
G0 F9000 X143.709 Y134.8
G1 F720 X144.579 Y135.669 E67.17432
G0 F9000 X143.709 Y138.264
G1 F720 X144.579 Y139.134 E67.1865
G0 F9000 X144.579 Y139.629
G1 F720 X143.709 Y138.759 E67.19869
G0 F9000 X143.371 Y138.916
G1 F720 X142.528 Y138.073 E67.21049
G0 F9000 X142.528 Y137.578
G1 F720 X143.371 Y138.421 E67.2223
G0 F9000 X142.528 Y138.568
G1 F720 X143.371 Y139.411 E67.23411
G0 F9000 X143.709 Y139.254
G1 F720 X144.579 Y140.124 E67.24629
G0 F9000 X144.579 Y140.619
G1 F720 X143.709 Y139.749 E67.25847
G0 F9000 X143.371 Y139.906
G1 F720 X142.528 Y139.063 E67.27028
G0 F9000 X142.528 Y137.578
G1 F720 X144.579 Y139.629 E67.29901
G0 F9000 X143.709 Y141.234
G1 F720 X143.766 Y141.291 E67.2998
G0 F9000 X142.776 Y141.291
G1 F720 X142.528 Y141.043 E67.30328
G1 F1800 E64.30328
G1 Z4.05
G0 F9000 X152.956 Y141.756
; TYPE:WALL-INNER
G1 Z3.05
G1 F1800 E67.30328
G1 F720 X152.956 Y133.245 E67.38756
G1 X155.937 Y133.245 E67.41708
G1 X155.937 Y141.756 E67.50137
G1 X152.956 Y141.756 E67.53089
G0 F9000 X153.306 Y141.406
G1 F720 X153.306 Y133.595 E67.60824
G1 X155.587 Y133.595 E67.63083
G1 X155.587 Y141.406 E67.70818
G1 X153.306 Y141.406 E67.73077
G0 F9000 X152.606 Y142.106
; TYPE:WALL-OUTER
G1 F600 X152.606 Y132.895 E67.82198
G1 X156.287 Y132.895 E67.85844
G1 X156.287 Y142.106 E67.94965
G1 X152.606 Y142.106 E67.98611
G0 F9000 X153.664 Y141.29
; TYPE:FILL
G1 F720 X153.42 Y141.045 E67.98953
G0 F9000 X153.42 Y140.55
G1 F720 X154.16 Y141.291 E67.9999
G0 F9000 X154.185 Y141.29
G1 F720 X155.471 Y136.487 E68.04914
G0 F9000 X155.471 Y136.662
G1 F720 X154.627 Y135.818 E68.06096
G0 F9000 X154.289 Y135.975
G1 F720 X153.42 Y135.106 E68.07313
G0 F9000 X153.42 Y134.611
G1 F720 X154.289 Y135.48 E68.0853
G0 F9000 X154.627 Y135.323
G1 F720 X155.471 Y136.167 E68.09712
G0 F9000 X155.47 Y135.891
G1 F720 X153.42 Y136.441 E68.11814
G0 F9000 X153.42 Y136.591
G1 F720 X154.289 Y137.46 E68.13031
G0 F9000 X154.627 Y137.303
G1 F720 X155.471 Y138.147 E68.14213
G0 F9000 X155.471 Y137.652
G1 F720 X154.627 Y136.808 E68.15395
G0 F9000 X154.289 Y136.965
G1 F720 X153.42 Y136.096 E68.16612
G0 F9000 X153.42 Y135.601
G1 F720 X154.289 Y136.47 E68.17829
G0 F9000 X154.627 Y136.313
G1 F720 X155.471 Y137.157 E68.19011
G0 F9000 X154.628 Y137.799
G1 F720 X155.471 Y138.642 E68.20192
G0 F9000 X155.471 Y139.137
G1 F720 X154.628 Y138.294 E68.21372
G0 F9000 X154.29 Y138.451
G1 F720 X153.42 Y137.581 E68.22591
G0 F9000 X153.42 Y137.086
G1 F720 X154.29 Y137.956 E68.23809
G0 F9000 X153.42 Y138.076
G1 F720 X154.29 Y138.946 E68.25028
G0 F9000 X154.628 Y138.789
G1 F720 X155.471 Y139.632 E68.26208
G0 F9000 X155.471 Y139.514
G1 F720 X153.42 Y140.064 E68.28311
G0 F9000 X153.42 Y140.055
G1 F720 X154.29 Y140.926 E68.2953
G0 F9000 X154.628 Y140.769
G1 F720 X155.15 Y141.291 E68.30261
G0 F9000 X155.471 Y141.117
G1 F720 X154.628 Y140.274 E68.31442
G0 F9000 X154.29 Y140.431
G1 F720 X153.42 Y139.56 E68.32661
G0 F9000 X153.42 Y139.065
G1 F720 X154.29 Y139.936 E68.3388
G0 F9000 X154.628 Y139.779
G1 F720 X155.471 Y140.622 E68.35061
G0 F9000 X155.471 Y140.622
G1 F720 X153.42 Y138.571 E68.37933
G0 F9000 X153.42 Y138.571
G1 F720 X154.29 Y139.441 E68.39152
G0 F9000 X154.628 Y139.284
G1 F720 X155.471 Y140.127 E68.40332
G0 F9000 X154.628 Y141.264
G1 F720 X154.655 Y141.291 E68.4037
G0 F9000 X155.471 Y135.672
G1 F720 X154.627 Y134.828 E68.41552
G0 F9000 X154.289 Y134.985
G1 F720 X153.42 Y134.116 E68.42769
G0 F9000 X153.509 Y133.71
G1 F720 X154.289 Y134.491 E68.43862
G0 F9000 X154.627 Y134.334
G1 F720 X155.471 Y135.177 E68.45044
G0 F9000 X155.471 Y134.682
G1 F720 X154.627 Y133.839 E68.46225
G0 F9000 X154.289 Y133.996
G1 F720 X154.004 Y133.71 E68.46625
G0 F9000 X153.509 Y133.71
G1 F720 X155.471 Y135.672 E68.49372
G0 F9000 X155.471 Y134.187
G1 F720 X154.994 Y133.71 E68.50041
G0 F9000 X153.121 Y131.908
; TYPE:SUPPORT
G1 F720 X148.654 Y127.441 E68.56297
G0 F9000 X148.654 Y127.601
G0 X144.863 Y127.777
G0 X144.863 Y127.777
G0 X144.702 Y127.731
G1 F720 X150.531 Y133.561 E68.64461
G0 F9000 X150.531 Y133.401
G0 X146.463 Y132.347
G0 X146.411 Y131.879
G0 X144.808 Y131.92
G0 X144.808 Y132.08
G1 F720 X144.702 Y131.974 E68.64609
G0 F9000 X146.209 Y141.966
G1 F720 X151.693 Y147.45 E68.72289
G0 F9000 X151.674 Y147.292
G0 X152.963 Y144.636
G0 X152.963 Y144.636
G0 X153.121 Y144.636
G1 F720 X149.925 Y141.44 E68.76765
G0 F9000 X149.925 Y141.601
G0 X144.863 Y144.702
G0 X144.863 Y144.702
G0 X144.702 Y144.702
G1 F720 X147.56 Y147.56 E68.80768
; LAYER:15
G0 F9000 X144.718 Y141.809 Z3.25
; TYPE:WALL-INNER
G1 F720 X141.765 Y141.809 E68.83692
G1 X141.765 Y133.192 E68.92226
G1 X144.718 Y133.192 E68.9515
G1 X144.718 Y141.809 E69.03684
G0 F9000 X144.368 Y141.459
G1 F720 X142.115 Y141.459 E69.05915
G1 X142.115 Y133.542 E69.13755
G1 X144.368 Y133.542 E69.15986
G1 X144.368 Y141.459 E69.23826
G0 F9000 X145.068 Y142.159
; TYPE:WALL-OUTER
G1 F600 X141.415 Y142.159 E69.27444
G1 X141.415 Y132.842 E69.3667
G1 X145.068 Y132.842 E69.40288
G1 X145.068 Y142.159 E69.49514
G0 F9000 X144.793 Y141.974
G0 X143.761 Y141.344
G0 X143.761 Y141.344
; TYPE:FILL
G1 F720 X144.251 Y140.853 E69.50201
G0 F9000 X144.251 Y140.358
G1 F720 X143.409 Y141.201 E69.51381
G0 F9000 X143.3 Y141.343
G1 F720 X144.252 Y137.789 E69.55025
G0 F9000 X144.251 Y137.883
G1 F720 X143.409 Y138.726 E69.56205
G0 F9000 X143.072 Y138.568
G1 F720 X142.229 Y139.411 E69.57385
G0 F9000 X142.229 Y139.439
G1 F720 X144.252 Y138.897 E69.59459
G0 F9000 X144.251 Y138.873
G1 F720 X143.409 Y139.716 E69.60639
G0 F9000 X143.072 Y139.558
G1 F720 X142.229 Y140.401 E69.6182
G0 F9000 X142.229 Y140.895
G1 F720 X143.072 Y140.053 E69.63
G0 F9000 X143.409 Y140.211
G1 F720 X144.251 Y139.368 E69.6418
G0 F9000 X144.251 Y139.302
G1 F720 X142.229 Y137.279 E69.67012
G0 F9000 X142.229 Y137.431
G1 F720 X143.072 Y136.588 E69.68193
G0 F9000 X143.409 Y136.746
G1 F720 X144.252 Y135.903 E69.69374
G0 F9000 X144.252 Y135.408
G1 F720 X143.409 Y136.251 E69.70554
G0 F9000 X143.072 Y136.093
G1 F720 X142.229 Y136.936 E69.71735
G0 F9000 X142.229 Y136.441
G1 F720 X143.072 Y135.598 E69.72915
G0 F9000 X143.409 Y135.756
G1 F720 X144.252 Y134.913 E69.74096
G0 F9000 X144.252 Y135.273
G1 F720 X142.229 Y135.816 E69.7617
G0 F9000 X142.229 Y135.946
G1 F720 X143.072 Y135.103 E69.77351
G0 F9000 X143.409 Y135.261
G1 F720 X144.252 Y134.418 E69.78532
G0 F9000 X144.252 Y134.353
G1 F720 X143.556 Y133.657 E69.79506
G0 F9000 X143.529 Y133.656
G1 F720 X143.409 Y133.776 E69.79674
G0 F9000 X143.034 Y133.656
G1 F720 X142.229 Y134.461 E69.80802
G0 F9000 X142.229 Y134.956
G1 F720 X143.072 Y134.113 E69.81982
G0 F9000 X143.409 Y134.271
G1 F720 X144.023 Y133.657 E69.82842
G0 F9000 X144.252 Y133.923
G1 F720 X143.409 Y134.766 E69.84023
G0 F9000 X143.072 Y134.608
G1 F720 X142.229 Y135.451 E69.85203
G0 F9000 X142.229 Y133.966
G1 F720 X142.539 Y133.656 E69.85638
G0 F9000 X144.252 Y136.398
G1 F720 X143.409 Y137.241 E69.86818
G0 F9000 X143.072 Y137.083
G1 F720 X142.229 Y137.926 E69.87999
G0 F9000 X142.229 Y138.421
G1 F720 X143.072 Y137.578 E69.89179
G0 F9000 X143.409 Y137.736
G1 F720 X144.252 Y136.893 E69.9036
G0 F9000 X144.252 Y137.388
G1 F720 X143.409 Y138.231 E69.91541
G0 F9000 X143.072 Y138.073
G1 F720 X142.229 Y138.916 E69.92721
G0 F9000 X143.072 Y139.063
G1 F720 X142.229 Y139.906 E69.93902
G0 F9000 X143.072 Y140.548
G1 F720 X142.276 Y141.344 E69.95017
G0 F9000 X142.771 Y141.344
G1 F720 X143.072 Y141.043 E69.95438
G0 F9000 X143.409 Y140.706
G1 F720 X144.251 Y139.863 E69.96618
G0 F9000 X143.409 Y139.221
G1 F720 X144.251 Y138.378 E69.97798
G1 F1800 E66.97798
G1 Z4.25
G0 F9000 X153.283 Y141.809
; TYPE:WALL-INNER
G1 Z3.25
G1 F1800 E69.97798
G1 F720 X153.283 Y133.192 E70.06332
G1 X156.236 Y133.192 E70.09256
G1 X156.236 Y141.809 E70.17789
G1 X153.283 Y141.809 E70.20714
G0 F9000 X153.633 Y141.459
G1 F720 X153.633 Y133.542 E70.28554
G1 X155.886 Y133.542 E70.30785
G1 X155.886 Y141.459 E70.38625
G1 X153.633 Y141.459 E70.40856
G0 F9000 X152.933 Y142.159
; TYPE:WALL-OUTER
G1 F600 X152.933 Y132.842 E70.50083
G1 X156.586 Y132.842 E70.537
G1 X156.586 Y142.159 E70.62927
G1 X152.933 Y142.159 E70.66545
G0 F9000 X153.746 Y141.258
; TYPE:FILL
G1 F720 X154.59 Y140.414 E70.67727
G0 F9000 X154.927 Y140.572
G1 F720 X155.77 Y139.729 E70.68907
G0 F9000 X155.77 Y139.434
G1 F720 X153.747 Y139.976 E70.70981
G0 F9000 X153.746 Y139.773
G1 F720 X154.59 Y138.929 E70.72163
G0 F9000 X154.927 Y139.087
G1 F720 X155.77 Y138.244 E70.73344
G0 F9000 X155.77 Y137.749
G1 F720 X154.927 Y138.592 E70.74524
G0 F9000 X154.59 Y138.434
G1 F720 X153.746 Y139.278 E70.75706
G0 F9000 X153.746 Y138.897
G1 F720 X155.77 Y140.921 E70.78541
G0 F9000 X155.77 Y140.719
G1 F720 X155.146 Y141.343 E70.79415
G0 F9000 X154.927 Y141.067
G1 F720 X155.77 Y140.224 E70.80596
G0 F9000 X154.927 Y140.077
G1 F720 X155.77 Y139.234 E70.81776
G0 F9000 X155.77 Y138.739
G1 F720 X154.927 Y139.582 E70.82957
G0 F9000 X154.59 Y139.424
G1 F720 X153.746 Y140.268 E70.84139
G0 F9000 X153.746 Y140.763
G1 F720 X154.59 Y139.919 E70.85321
G0 F9000 X154.59 Y140.909
G1 F720 X154.155 Y141.344 E70.8593
G0 F9000 X154.17 Y141.343
G1 F720 X155.77 Y135.372 E70.92052
G0 F9000 X155.769 Y135.275
G1 F720 X154.927 Y136.118 E70.93232
G0 F9000 X154.59 Y135.959
G1 F720 X153.747 Y136.802 E70.94412
G0 F9000 X153.747 Y136.353
G1 F720 X155.77 Y135.811 E70.96486
G0 F9000 X155.769 Y135.77
G1 F720 X154.927 Y136.613 E70.97666
G0 F9000 X154.59 Y136.454
G1 F720 X153.747 Y137.297 E70.98847
G0 F9000 X153.746 Y137.793
G1 F720 X154.59 Y136.949 E71.00029
G0 F9000 X154.927 Y137.108
G1 F720 X155.769 Y136.265 E71.01209
G0 F9000 X155.769 Y135.97
G1 F720 X153.747 Y133.948 E71.04041
G0 F9000 X153.747 Y133.832
G1 F720 X153.923 Y133.657 E71.04286
G0 F9000 X154.417 Y133.657
G1 F720 X153.747 Y134.327 E71.05225
G0 F9000 X153.747 Y134.822
G1 F720 X154.59 Y133.979 E71.06405
G0 F9000 X154.927 Y134.138
G1 F720 X155.407 Y133.657 E71.07078
G0 F9000 X155.769 Y133.79
G1 F720 X154.927 Y134.633 E71.08258
G0 F9000 X154.59 Y134.474
G1 F720 X153.747 Y135.317 E71.09439
G0 F9000 X153.747 Y135.812
G1 F720 X154.59 Y134.969 E71.10619
G0 F9000 X154.927 Y135.128
G1 F720 X155.769 Y134.285 E71.11799
G0 F9000 X155.769 Y134.78
G1 F720 X154.927 Y135.623 E71.12979
G0 F9000 X154.59 Y135.464
G1 F720 X153.747 Y136.307 E71.1416
G0 F9000 X154.59 Y137.444
G1 F720 X153.746 Y138.288 E71.15342
G0 F9000 X153.746 Y138.783
G1 F720 X154.59 Y137.939 E71.16524
G0 F9000 X154.927 Y138.097
G1 F720 X155.769 Y137.255 E71.17703
G0 F9000 X155.769 Y136.76
G1 F720 X154.927 Y137.602 E71.18882
G0 F9000 X155.77 Y141.214
G1 F720 X155.64 Y141.344 E71.19064
G0 F9000 X153.122 Y144.637
; TYPE:SUPPORT
G1 F720 X149.926 Y141.441 E71.2354
G0 F9000 X149.926 Y141.601
G0 X146.043 Y141.659
G0 X146.043 Y141.659
G0 X145.882 Y141.639
G1 F720 X151.693 Y147.45 E71.31679
G0 F9000 X151.674 Y147.292
G0 X147.56 Y147.401
G0 X147.56 Y147.401
G0 X147.56 Y147.56
G1 F720 X144.702 Y144.702 E71.35681
G0 F9000 X146.172 Y133.444
G1 F720 X145.882 Y133.154 E71.36087
G0 F9000 X146.043 Y133.154
G0 X146.083 Y133.195
G0 X146.084 Y131.826
G0 X144.773 Y131.867
G0 X144.754 Y132.026
G1 F720 X144.702 Y131.974 E71.3616
G0 F9000 X144.863 Y131.957
G0 X144.863 Y127.777
G0 X144.863 Y127.777
G0 X144.702 Y127.731
G1 F720 X150.531 Y133.561 E71.44324
G0 F9000 X150.531 Y133.401
G0 X151.886 Y132.568
G0 X151.917 Y131.826
G0 X152.963 Y131.909
G0 X153.122 Y131.909
G1 F720 X148.654 Y127.441 E71.50582
; LAYER:16
G0 F9000 X144.419 Y133.139 Z3.45
; TYPE:WALL-INNER
G1 F720 X144.419 Y141.862 E71.5922
G1 X141.49 Y141.862 E71.62121
G1 X141.49 Y133.139 E71.70759
G1 X144.419 Y133.139 E71.7366
G0 F9000 X144.069 Y133.489
G1 F720 X144.069 Y141.512 E71.81605
G1 X141.84 Y141.512 E71.83812
G1 X141.84 Y133.489 E71.91757
G1 X144.069 Y133.489 E71.93965
G0 F9000 X144.769 Y132.789
; TYPE:WALL-OUTER
G1 F600 X144.769 Y142.212 E72.03296
G1 X141.14 Y142.212 E72.0689
G1 X141.14 Y132.789 E72.16222
G1 X144.769 Y132.789 E72.19815
G0 F9000 X144.584 Y133.064
G0 X143.953 Y134.054
G0 X143.953 Y134.054
; TYPE:FILL
G1 F720 X143.503 Y133.604 E72.20446
G1 X143.953 Y134.054 E72.21076
G0 F9000 X143.953 Y134.548
G1 F720 X143.11 Y133.706 E72.22256
G0 F9000 X142.772 Y133.863
G1 F720 X142.513 Y133.604 E72.22618
G0 F9000 X142.018 Y133.603
G1 F720 X142.772 Y134.358 E72.23675
G0 F9000 X143.11 Y134.201
G1 F720 X143.953 Y135.043 E72.24855
G0 F9000 X143.953 Y135.354
G1 F720 X141.953 Y135.889 E72.26905
G0 F9000 X141.954 Y136.014
G1 F720 X142.772 Y136.832 E72.28051
G0 F9000 X143.11 Y136.675
G1 F720 X143.953 Y137.518 E72.29232
G0 F9000 X143.953 Y137.023
G1 F720 X143.11 Y136.18 E72.30412
G0 F9000 X142.772 Y136.337
G1 F720 X141.954 Y135.519 E72.31558
G0 F9000 X141.954 Y135.024
G1 F720 X142.772 Y135.842 E72.32703
G0 F9000 X143.11 Y135.686
G1 F720 X143.953 Y136.528 E72.33883
G0 F9000 X143.953 Y136.033
G1 F720 X143.11 Y135.191 E72.35063
G0 F9000 X142.772 Y135.348
G1 F720 X141.954 Y134.529 E72.36209
G0 F9000 X141.954 Y134.034
G1 F720 X142.772 Y134.853 E72.37356
G0 F9000 X143.11 Y134.696
G1 F720 X143.953 Y135.538 E72.38536
G0 F9000 X143.11 Y137.17
G1 F720 X143.953 Y138.013 E72.39716
G0 F9000 X143.953 Y138.508
G1 F720 X143.109 Y137.665 E72.40898
G0 F9000 X142.771 Y137.822
G1 F720 X141.954 Y137.004 E72.42043
G0 F9000 X141.954 Y137.004
G1 F720 X143.953 Y139.003 E72.44842
G0 F9000 X143.953 Y139.003
G1 F720 X143.109 Y138.16 E72.46023
G0 F9000 X142.771 Y138.317
G1 F720 X141.954 Y137.499 E72.47168
G0 F9000 X141.954 Y137.994
G1 F720 X142.771 Y138.812 E72.48313
G0 F9000 X143.109 Y138.655
G1 F720 X143.953 Y139.498 E72.49495
G0 F9000 X143.953 Y139.993
G1 F720 X143.109 Y139.15 E72.50676
G0 F9000 X142.771 Y139.307
G1 F720 X141.954 Y138.489 E72.51821
G0 F9000 X141.954 Y138.984
G1 F720 X142.771 Y139.802 E72.52966
G0 F9000 X143.109 Y139.645
G1 F720 X143.953 Y140.488 E72.54147
G0 F9000 X143.953 Y140.983
G1 F720 X143.109 Y140.14 E72.55328
G0 F9000 X142.771 Y140.297
G1 F720 X141.954 Y139.479 E72.56473
G0 F9000 X141.953 Y139.513
G1 F720 X143.953 Y138.977 E72.58524
G0 F9000 X143.954 Y138.904
G1 F720 X143.286 Y141.396 E72.61079
G0 F9000 X143.377 Y141.397
G1 F720 X143.109 Y141.13 E72.61453
G0 F9000 X142.771 Y141.287
G1 F720 X141.954 Y140.469 E72.62598
G0 F9000 X141.954 Y139.974
G1 F720 X142.771 Y140.792 E72.63743
G0 F9000 X143.109 Y140.635
G1 F720 X143.871 Y141.396 E72.6481
G0 F9000 X142.387 Y141.397
G1 F720 X141.954 Y140.964 E72.65416
G0 F9000 X142.772 Y137.327
G1 F720 X141.954 Y136.509 E72.66562
G1 F1800 E69.66562
G1 Z4.45
G0 F9000 X153.582 Y133.139
; TYPE:WALL-INNER
G1 Z3.45
G1 F1800 E72.66562
G1 F720 X156.511 Y133.139 E72.69462
G1 X156.511 Y141.862 E72.781
G1 X153.582 Y141.862 E72.81001
G1 X153.582 Y133.139 E72.89639
G0 F9000 X153.932 Y133.489
G1 F720 X156.161 Y133.489 E72.91847
G1 X156.161 Y141.512 E72.99792
G1 X153.932 Y141.512 E73.01999
G1 X153.932 Y133.489 E73.09944
G0 F9000 X153.232 Y132.789
; TYPE:WALL-OUTER
G1 F600 X156.861 Y132.789 E73.13538
G1 X156.861 Y142.212 E73.2287
G1 X153.232 Y142.212 E73.26464
G1 X153.232 Y132.789 E73.35795
G0 F9000 X154.046 Y133.752
; TYPE:FILL
G1 F720 X154.889 Y134.595 E73.36976
G0 F9000 X155.227 Y134.438
G1 F720 X156.045 Y135.256 E73.38121
G0 F9000 X156.045 Y135.737
G1 F720 X154.046 Y136.273 E73.40171
G0 F9000 X154.046 Y136.226
G1 F720 X154.889 Y137.07 E73.41352
G0 F9000 X155.227 Y136.913
G1 F720 X156.045 Y137.73 E73.42497
G0 F9000 X156.045 Y137.235
G1 F720 X155.227 Y136.418 E73.43642
G0 F9000 X154.889 Y136.575
G1 F720 X154.046 Y135.731 E73.44823
G0 F9000 X154.046 Y135.237
G1 F720 X154.889 Y136.08 E73.46004
G0 F9000 X155.227 Y135.923
G1 F720 X156.045 Y136.741 E73.4715
G0 F9000 X156.045 Y136.246
G1 F720 X155.227 Y135.428 E73.48295
G0 F9000 X154.889 Y135.585
G1 F720 X154.046 Y134.742 E73.49476
G0 F9000 X154.046 Y134.247
G1 F720 X154.889 Y135.09 E73.50656
G0 F9000 X155.227 Y134.933
G1 F720 X156.045 Y135.751 E73.51802
G0 F9000 X156.045 Y136.246
G1 F720 X154.046 Y134.247 E73.54602
G0 F9000 X154.392 Y133.603
G1 F720 X154.889 Y134.1 E73.55298
G0 F9000 X155.227 Y133.943
G1 F720 X156.045 Y134.761 E73.56443
G0 F9000 X156.045 Y134.345
G1 F720 X154.156 Y141.396 E73.63672
G0 F9000 X154.266 Y141.397
G1 F720 X154.046 Y141.176 E73.63981
G0 F9000 X154.046 Y140.681
G1 F720 X154.761 Y141.397 E73.64983
G0 F9000 X154.888 Y141.029
G1 F720 X154.046 Y140.186 E73.66163
G0 F9000 X154.045 Y139.896
G1 F720 X156.045 Y139.361 E73.68213
G0 F9000 X156.045 Y139.215
G1 F720 X155.226 Y138.397 E73.69359
G0 F9000 X154.888 Y138.554
G1 F720 X154.046 Y137.711 E73.70539
G0 F9000 X154.046 Y137.216
G1 F720 X154.888 Y138.059 E73.71719
G0 F9000 X155.226 Y137.902
G1 F720 X156.045 Y138.72 E73.72866
G0 F9000 X156.045 Y138.225
G1 F720 X155.227 Y137.408 E73.7401
G0 F9000 X154.888 Y137.564
G1 F720 X154.046 Y136.721 E73.7519
G0 F9000 X154.046 Y138.206
G1 F720 X154.888 Y139.049 E73.7637
G0 F9000 X155.226 Y138.892
G1 F720 X156.045 Y139.71 E73.77517
G0 F9000 X156.045 Y140.205
G1 F720 X155.226 Y139.387 E73.78663
G0 F9000 X154.888 Y139.544
G1 F720 X154.046 Y138.701 E73.79843
G0 F9000 X154.046 Y139.196
G1 F720 X154.888 Y140.039 E73.81023
G0 F9000 X155.226 Y139.882
G1 F720 X156.045 Y140.7 E73.82169
G0 F9000 X156.045 Y141.195
G1 F720 X155.226 Y140.377 E73.83315
G0 F9000 X154.888 Y140.534
G1 F720 X154.046 Y139.691 E73.84495
G0 F9000 X154.046 Y139.196
G1 F720 X156.045 Y141.195 E73.87295
G0 F9000 X155.75 Y141.396
G1 F720 X155.226 Y140.872 E73.88029
G0 F9000 X155.226 Y141.367
G1 F720 X155.256 Y141.397 E73.88071
G0 F9000 X156.045 Y134.266
G1 F720 X155.383 Y133.604 E73.88998
G0 F9000 X154.889 Y133.605
G1 F720 X154.888 Y133.604 E73.88999
G0 F9000 X155.878 Y133.604
G1 F720 X156.045 Y133.771 E73.89233
G0 F9000 X153.122 Y131.909
; TYPE:SUPPORT
G1 F720 X148.654 Y127.441 E73.95491
G0 F9000 X148.654 Y127.601
G0 X144.863 Y127.777
G0 X144.863 Y127.777
G0 X144.702 Y127.731
G1 F720 X150.531 Y133.561 E74.03655
G0 F9000 X150.531 Y133.401
G0 X146.189 Y133.286
G0 X146.189 Y133.286
G0 X146.172 Y133.444
G1 F720 X145.583 Y132.855 E74.0448
G0 F9000 X145.841 Y141.598
G1 F720 X151.693 Y147.45 E74.12675
G0 F9000 X151.674 Y147.292
G0 X152.963 Y144.636
G0 X152.963 Y144.636
G0 X153.121 Y144.636
G1 F720 X149.926 Y141.441 E74.1715
G0 F9000 X149.926 Y141.601
G0 X144.863 Y144.702
G0 X144.863 Y144.702
G0 X144.702 Y144.702
G1 F720 X147.56 Y147.56 E74.21152
; LAYER:17
G0 F9000 X144.12 Y141.915 Z3.65
; TYPE:WALL-INNER
G1 F720 X141.356 Y141.915 E74.2389
G1 X141.356 Y133.086 E74.32633
G1 X144.12 Y133.086 E74.3537
G1 X144.12 Y141.915 E74.44113
G0 F9000 X143.77 Y141.565
G1 F720 X141.706 Y141.565 E74.46157
G1 X141.706 Y133.436 E74.54208
G1 X143.77 Y133.436 E74.56252
G1 X143.77 Y141.565 E74.64302
G0 F9000 X144.47 Y142.265
; TYPE:WALL-OUTER
G1 F600 X141.006 Y142.265 E74.67732
G1 X141.006 Y132.736 E74.77169
G1 X144.47 Y132.736 E74.80599
G1 X144.47 Y142.265 E74.90036
G0 F9000 X143.272 Y141.449
; TYPE:FILL
G1 F720 X143.654 Y140.02 E74.915
G0 F9000 X143.654 Y139.966
G1 F720 X142.811 Y140.809 E74.92681
G0 F9000 X142.473 Y140.652
G1 F720 X141.82 Y141.305 E74.93595
G0 F9000 X142.17 Y141.449
G1 F720 X142.473 Y141.146 E74.9402
G0 F9000 X142.811 Y141.303
G1 F720 X143.654 Y140.461 E74.952
G0 F9000 X143.654 Y140.956
G1 F720 X143.16 Y141.449 E74.95891
G0 F9000 X142.811 Y140.314
G1 F720 X143.654 Y139.471 E74.97072
G0 F9000 X143.654 Y139.057
G1 F720 X141.82 Y139.549 E74.98952
G0 F9000 X141.82 Y139.325
G1 F720 X142.473 Y138.672 E74.99866
G0 F9000 X142.811 Y138.829
G1 F720 X143.654 Y137.986 E75.01047
G0 F9000 X143.654 Y137.491
G1 F720 X142.811 Y138.334 E75.02228
G0 F9000 X142.473 Y138.177
G1 F720 X141.82 Y138.83 E75.03142
G0 F9000 X141.82 Y138.335
G1 F720 X142.473 Y137.682 E75.04057
G0 F9000 X142.811 Y137.839
G1 F720 X143.654 Y136.996 E75.05237
G0 F9000 X143.654 Y136.501
G1 F720 X142.811 Y137.344 E75.06418
G0 F9000 X142.473 Y137.187
G1 F720 X141.82 Y137.84 E75.07332
G0 F9000 X141.82 Y137.345
G1 F720 X142.473 Y136.692 E75.08247
G0 F9000 X142.811 Y136.849
G1 F720 X143.654 Y136.006 E75.09428
G0 F9000 X143.654 Y135.511
G1 F720 X142.811 Y136.354 E75.10608
G0 F9000 X142.473 Y136.197
G1 F720 X141.82 Y136.85 E75.11523
G0 F9000 X141.82 Y136.87
G1 F720 X143.654 Y138.704 E75.14091
G0 F9000 X143.654 Y138.481
G1 F720 X142.811 Y139.324 E75.15272
G0 F9000 X142.473 Y139.167
G1 F720 X141.82 Y139.82 E75.16186
G0 F9000 X141.82 Y140.315
G1 F720 X142.473 Y139.662 E75.17101
G0 F9000 X142.811 Y139.819
G1 F720 X143.654 Y138.976 E75.18282
G0 F9000 X142.473 Y140.157
G1 F720 X141.82 Y140.81 E75.19196
G0 F9000 X141.82 Y136.355
G1 F720 X142.473 Y135.702 E75.20111
G0 F9000 X142.811 Y135.859
G1 F720 X143.654 Y135.016 E75.21291
G0 F9000 X143.654 Y135.434
G1 F720 X141.82 Y135.925 E75.23171
G0 F9000 X141.82 Y135.86
G1 F720 X142.473 Y135.207 E75.24086
G0 F9000 X142.811 Y135.364
G1 F720 X143.654 Y134.521 E75.25266
G0 F9000 X143.654 Y134.026
G1 F720 X142.811 Y134.869 E75.26447
G0 F9000 X142.473 Y134.712
G1 F720 X141.82 Y135.365 E75.27362
G0 F9000 X141.82 Y134.87
G1 F720 X142.473 Y134.217 E75.28276
G0 F9000 X142.811 Y134.374
G1 F720 X143.634 Y133.551 E75.29429
G0 F9000 X143.45 Y133.551
G1 F720 X143.396 Y133.652 E75.29714
G1 X142.811 Y133.879 E75.30336
G0 F9000 X142.473 Y133.722
G1 F720 X141.82 Y134.375 E75.3125
G0 F9000 X141.82 Y133.88
G1 F720 X142.149 Y133.551 E75.31711
G1 F1800 E72.31711
G1 Z4.65
G0 F9000 X153.881 Y133.086
; TYPE:WALL-INNER
G1 Z3.65
G1 F1800 E75.31711
G1 F720 X156.645 Y133.086 E75.34448
G1 X156.645 Y141.915 E75.43191
G1 X153.881 Y141.915 E75.45929
G1 X153.881 Y133.086 E75.54672
G0 F9000 X154.231 Y133.436
G1 F720 X156.295 Y133.436 E75.56716
G1 X156.295 Y141.565 E75.64766
G1 X154.231 Y141.565 E75.6681
G1 X154.231 Y133.436 E75.7486
G0 F9000 X153.531 Y132.736
; TYPE:WALL-OUTER
G1 F600 X156.995 Y132.736 E75.78291
G1 X156.995 Y142.265 E75.87727
G1 X153.531 Y142.265 E75.91157
G1 X153.531 Y132.736 E76.00594
G0 F9000 X154.524 Y133.55
; TYPE:FILL
G1 F720 X154.345 Y133.73 E76.00845
G0 F9000 X154.345 Y134.225
G1 F720 X155.019 Y133.551 E76.01789
G0 F9000 X155.188 Y133.876
G1 F720 X154.345 Y134.72 E76.02971
G0 F9000 X154.345 Y134.546
G1 F720 X156.179 Y136.38 E76.05539
G0 F9000 X156.179 Y136.35
G1 F720 X155.526 Y137.003 E76.06454
G0 F9000 X155.188 Y136.846
G1 F720 X154.345 Y137.689 E76.07634
G0 F9000 X154.345 Y137.194
G1 F720 X155.188 Y136.351 E76.08815
G0 F9000 X155.526 Y136.508
G1 F720 X156.179 Y135.855 E76.09729
G0 F9000 X156.178 Y135.701
G1 F720 X154.345 Y136.193 E76.11609
G0 F9000 X154.345 Y136.205
G1 F720 X155.188 Y135.361 E76.1279
G0 F9000 X155.526 Y135.518
G1 F720 X156.179 Y134.865 E76.13705
G0 F9000 X156.179 Y134.37
G1 F720 X155.526 Y135.023 E76.14619
G0 F9000 X155.188 Y134.866
G1 F720 X154.345 Y135.71 E76.15801
G0 F9000 X154.345 Y135.215
G1 F720 X155.188 Y134.371 E76.16982
G0 F9000 X155.526 Y134.528
G1 F720 X156.179 Y133.875 E76.17896
G0 F9000 X156.179 Y133.847
G1 F720 X154.345 Y140.691 E76.24913
G0 F9000 X154.345 Y140.659
G1 F720 X155.188 Y139.816 E76.26094
G0 F9000 X155.526 Y139.973
G1 F720 X156.179 Y139.32 E76.27008
G0 F9000 X156.179 Y139.325
G1 F720 X154.345 Y139.816 E76.28888
G0 F9000 X154.345 Y139.669
G1 F720 X155.188 Y138.826 E76.30069
G0 F9000 X155.526 Y138.983
G1 F720 X156.179 Y138.33 E76.30984
G0 F9000 X156.179 Y137.835
G1 F720 X155.526 Y138.488 E76.31898
G0 F9000 X155.188 Y138.332
G1 F720 X154.345 Y139.174 E76.33078
G0 F9000 X154.345 Y139.495
G1 F720 X156.179 Y141.33 E76.35647
G0 F9000 X156.179 Y141.3
G1 F720 X156.029 Y141.45 E76.35857
G0 F9000 X155.534 Y141.45
G1 F720 X156.179 Y140.805 E76.36761
G0 F9000 X156.179 Y140.31
G1 F720 X155.526 Y140.963 E76.37675
G0 F9000 X155.188 Y140.806
G1 F720 X154.544 Y141.45 E76.38577
G0 F9000 X154.345 Y141.154
G1 F720 X155.188 Y140.311 E76.39758
G0 F9000 X155.526 Y140.468
G1 F720 X156.179 Y139.815 E76.40672
G0 F9000 X155.526 Y139.478
G1 F720 X156.179 Y138.825 E76.41587
G0 F9000 X155.526 Y137.994
G1 F720 X156.179 Y137.34 E76.42502
G0 F9000 X156.179 Y136.845
G1 F720 X155.526 Y137.498 E76.43416
G0 F9000 X155.188 Y137.341
G1 F720 X154.345 Y138.184 E76.44597
G0 F9000 X154.345 Y138.679
G1 F720 X155.188 Y137.837 E76.45777
G0 F9000 X154.345 Y136.7
G1 F720 X155.188 Y135.856 E76.46958
G0 F9000 X155.526 Y136.013
G1 F720 X156.179 Y135.36 E76.47873
G0 F9000 X155.526 Y134.033
G1 F720 X156.009 Y133.55 E76.48549
G0 F9000 X155.188 Y139.321
G1 F720 X154.345 Y140.164 E76.4973
G0 F9000 X155.188 Y141.301
G1 F720 X155.039 Y141.45 E76.49939
G0 F9000 X153.122 Y144.637
; TYPE:SUPPORT
G1 F720 X149.926 Y141.441 E76.54415
G0 F9000 X149.926 Y141.601
G0 X145.856 Y141.758
G0 X145.856 Y141.758
G0 X145.842 Y141.599
G1 F720 X151.693 Y147.45 E76.62609
G0 F9000 X151.674 Y147.292
