; Generated with MatterSlice 1.0
; filamentDiameter = 3
; extrusionWidth = 0.35
; firstLayerExtrusionWidth = 0.7
; layerThickness = 0.2
; firstLayerThickness = 0.25
; automatic settings before start_gcode
G21 ; set units to millimeters
M107 ; fan off
M190 S65 ; wait for bed temperature to be reached
M104 T0 S230 ; start heating extruder 0
T0 ; set the active extruder to 0
; settings from start_gcode
G28 ; home all axes
G1 Z5 F5000 ; lift nozzle
; automatic settings after start_gcode
M109 T0 S185 ; wait for extruder 0 to reach temperature
T0 ; set the active extruder to 0
G90 ; use absolute coordinates
G92 E0 ; reset the expected extruder position
M82 ; use absolute distance for extrusion
; Layer count: 133
; LAYER:0
M107
G0 F9000 X163.585 Y118.47 Z0.25
G0 X163.585 Y118.47
; TYPE:SKIRT
G1 Z0.25
G1 F1800 E0
G1 F1080 X163.585 Y121.951 E0.08618
G1 X172.985 Y121.951 E0.3189
G1 X172.985 Y154.051 E1.11361
G1 X163.585 Y154.051 E1.34633
G1 X163.585 Y156.532 E1.40776
G1 X151.436 Y158.051 E1.71088
G1 X146.813 Y158.051 E1.82533
G1 X134.385 Y156.672 E2.1349
G1 X134.385 Y155.651 E2.16018
G1 X125.385 Y155.651 E2.383
G1 X125.385 Y151.154 E2.49433
G1 X124.985 Y150.954 E2.5054
G1 X124.985 Y119.751 E3.27791
G1 X134.385 Y119.751 E3.51063
G1 X134.385 Y118.33 E3.54581
G1 X146.813 Y116.951 E3.85539
G1 X151.436 Y116.951 E3.96984
G1 X163.585 Y118.47 E4.27296
G0 F9000 X162.885 Y119.088
G1 F1080 X162.885 Y122.651 E4.36117
G1 X172.285 Y122.651 E4.59389
G1 X172.285 Y153.351 E5.35394
G1 X162.885 Y153.351 E5.58666
G1 X162.885 Y155.914 E5.65012
G1 X151.392 Y157.351 E5.93687
G1 X146.851 Y157.351 E6.04929
G1 X135.085 Y156.046 E6.34237
G1 X135.085 Y154.951 E6.36948
G1 X126.085 Y154.951 E6.5923
G1 X126.085 Y150.722 E6.697
G1 X125.685 Y150.522 E6.70807
G1 X125.685 Y120.451 E7.45255
G1 X135.085 Y120.451 E7.68527
G1 X135.085 Y118.956 E7.72228
G1 X146.851 Y117.651 E8.01537
G1 X151.392 Y117.651 E8.12779
G1 X162.885 Y119.088 E8.41454
G0 F9000 X162.185 Y119.706
G1 F1080 X162.185 Y123.351 E8.50478
G1 X171.585 Y123.351 E8.7375
G1 X171.585 Y152.651 E9.4629
G1 X162.185 Y152.651 E9.69562
G1 X162.185 Y155.296 E9.7611
G1 X151.349 Y156.651 E10.03146
G1 X146.89 Y156.651 E10.14185
G1 X135.785 Y155.419 E10.41847
G1 X135.785 Y154.251 E10.44739
G1 X126.785 Y154.251 E10.67021
G1 X126.785 Y150.289 E10.76829
G1 X126.385 Y150.089 E10.77937
G1 X126.385 Y121.151 E11.4958
G1 X135.785 Y121.151 E11.72852
G1 X135.785 Y119.583 E11.76734
G1 X146.89 Y118.351 E12.04396
G1 X151.349 Y118.351 E12.15435
G1 X162.185 Y119.706 E12.42471
G0 F9000 X161.485 Y120.323
G1 F1080 X161.485 Y124.051 E12.51701
G1 X170.885 Y124.051 E12.74972
G1 X170.885 Y151.951 E13.44046
G1 X161.485 Y151.951 E13.67318
G1 X161.485 Y154.679 E13.74072
G1 X151.305 Y155.951 E13.99471
G1 X146.929 Y155.951 E14.10304
G1 X136.485 Y154.792 E14.3632
G1 X136.485 Y153.551 E14.39392
G1 X127.485 Y153.551 E14.61674
G1 X127.485 Y149.856 E14.70822
G1 X127.085 Y149.656 E14.71929
G1 X127.085 Y121.851 E15.40767
G1 X136.485 Y121.851 E15.64039
G1 X136.485 Y120.21 E15.68102
G1 X146.929 Y119.051 E15.94117
G1 X151.305 Y119.051 E16.04951
G1 X161.485 Y120.323 E16.3035
G0 F9000 X160.785 Y120.941
G1 F1080 X160.785 Y124.751 E16.39783
G1 X170.185 Y124.751 E16.63055
G1 X170.185 Y151.251 E17.28662
G1 X160.785 Y151.251 E17.51934
G1 X160.785 Y154.061 E17.58891
G1 X151.261 Y155.251 E17.82653
G1 X146.967 Y155.251 E17.93284
G1 X137.185 Y154.166 E18.1765
G1 X137.185 Y152.851 E18.20906
G1 X128.185 Y152.851 E18.43187
G1 X128.185 Y149.424 E18.51672
G1 X127.785 Y149.224 E18.52779
G1 X127.785 Y122.551 E19.18814
G1 X137.185 Y122.551 E19.42086
G1 X137.185 Y120.836 E19.46332
G1 X146.967 Y119.751 E19.70699
G1 X151.261 Y119.751 E19.81329
G1 X160.785 Y120.941 E20.05092
G0 F9000 X160.085 Y121.559
G1 F1080 X160.085 Y125.451 E20.14727
G1 X169.485 Y125.451 E20.37999
G1 X169.485 Y150.551 E21.0014
G1 X160.085 Y150.551 E21.23412
G1 X160.085 Y153.443 E21.30572
G1 X151.218 Y154.551 E21.52695
G1 X147.006 Y154.551 E21.63123
G1 X137.885 Y153.539 E21.85843
G1 X137.885 Y152.151 E21.89279
G1 X128.885 Y152.151 E22.11561
G1 X128.885 Y148.991 E22.19384
G1 X128.485 Y148.791 E22.20492
G1 X128.485 Y123.251 E22.83722
G1 X137.885 Y123.251 E23.06994
G1 X137.885 Y121.463 E23.11421
G1 X147.006 Y120.451 E23.34141
G1 X151.218 Y120.451 E23.44568
G1 X160.085 Y121.559 E23.66692
G0 F9000 X159.385 Y122.177
G1 F1080 X159.385 Y126.151 E23.7653
G1 X168.785 Y126.151 E23.99802
G1 X168.785 Y149.851 E24.58477
G1 X159.385 Y149.851 E24.81749
G1 X159.385 Y152.825 E24.89112
G1 X151.174 Y153.851 E25.09599
G1 X147.045 Y153.851 E25.19821
G1 X138.585 Y152.913 E25.40894
G1 X138.585 Y151.451 E25.44514
G1 X129.585 Y151.451 E25.66795
G1 X129.585 Y148.559 E25.73955
G1 X129.185 Y148.359 E25.75062
G1 X129.185 Y123.951 E26.3549
G1 X138.585 Y123.951 E26.58762
G1 X138.585 Y122.089 E26.63372
G1 X147.045 Y121.151 E26.84445
G1 X151.174 Y121.151 E26.94668
G1 X159.385 Y122.177 E27.15154
G0 F9000 X149.289 Y133.818
; TYPE:WALL-OUTER
G1 F1080 X149.289 Y141.183 E27.33388
G1 X148.733 Y141.183 E27.34764
G1 X148.733 Y133.818 E27.52998
G1 X149.289 Y133.818 E27.54375
G0 F9000 X138.204 Y133.961
; TYPE:SUPPORT
G1 F3600 X135.473 Y131.231 E27.59155
G0 F9000 X135.473 Y135.473
G1 F3600 X138.294 Y138.294 E27.64093
G0 F9000 X138.135 Y138.294
G0 X136.035 Y140.117
G0 X136.035 Y140.117
G0 X135.874 Y140.117
G1 F3600 X138.294 Y142.537 E27.6833
G0 F9000 X138.135 Y142.537
G0 X136.675 Y145.001
G0 X136.675 Y145.001
G0 X136.675 Y145.16
G1 F3600 X135.474 Y143.959 E27.70432
G0 F9000 X144.874 Y144.874
G1 F3600 X147.56 Y147.56 E27.75134
G0 F9000 X147.56 Y147.401
G0 X151.671 Y147.289
G0 X151.671 Y147.289
G0 X151.69 Y147.448
G1 F3600 X145.854 Y141.611 E27.85352
G0 F9000 X145.871 Y141.771
G0 X147.481 Y141.777
G0 X147.542 Y142.374
G0 X150.48 Y142.374
G0 X150.439 Y141.793
G0 X150.278 Y141.793
G1 F3600 X153.094 Y144.608 E27.90281
G0 F9000 X150.531 Y133.561
G1 F3600 X150.278 Y133.308 E27.90724
G0 F9000 X149.798 Y132.827
G1 F3600 X144.874 Y127.903 E27.99344
G0 F9000 X145.035 Y127.903
G0 X148.654 Y127.601
G0 X148.654 Y127.601
G0 X148.654 Y127.441
G1 F3600 X153.094 Y131.881 E28.07116
G0 F9000 X152.935 Y131.881
G0 X148.789 Y132.727
G0 X147.542 Y132.627
G0 X146.167 Y133.264
G0 X146.15 Y133.422
G1 F3600 X144.874 Y132.146 E28.0935
G0 F9000 X159.674 Y134.218
G1 F3600 X162.494 Y137.038 E28.14287
G0 F9000 X162.335 Y137.038
G0 X159.835 Y138.461
G0 X159.835 Y138.461
G0 X159.674 Y138.461
G1 F3600 X162.493 Y141.28 E28.19222
G0 F9000 X162.335 Y141.28
G0 X160.531 Y143.401
G0 X160.531 Y143.401
G0 X160.531 Y143.561
G1 F3600 X159.674 Y142.704 E28.20722
G0 F9000 X159.835 Y142.704
G0 X162.335 Y132.796
G0 X162.335 Y132.796
G0 X162.494 Y132.796
G1 F3600 X162.139 Y132.441 E28.21344
G0 F9000 X147.721 Y132.929
; TYPE:SUPPORT-INTERFACE
G1 F3600 X143.874 Y136.776 E28.28078
G0 F9000 X143.874 Y136.281
G1 F3600 X147.35 Y132.805 E28.34163
G0 F9000 X146.979 Y132.681
G1 F3600 X143.874 Y135.786 E28.39599
G0 F9000 X143.874 Y135.291
G1 F3600 X146.524 Y132.641 E28.44238
G0 F9000 X146.029 Y132.641
G1 F3600 X143.874 Y134.796 E28.48011
G0 F9000 X143.874 Y134.301
G1 F3600 X145.534 Y132.641 E28.50917
G0 F9000 X145.039 Y132.641
G1 F3600 X143.874 Y133.806 E28.52956
G0 F9000 X143.874 Y133.311
G1 F3600 X144.544 Y132.641 E28.54129
G0 F9000 X144.049 Y132.641
G1 F3600 X143.874 Y132.816 E28.54435
G0 F9000 X144.035 Y132.816
G0 X147.583 Y133.402
G0 X147.583 Y133.402
G0 X147.742 Y133.402
G1 F3600 X143.874 Y137.271 E28.61208
G0 F9000 X143.874 Y137.766
G1 F3600 X147.742 Y133.897 E28.6798
G0 F9000 X147.742 Y134.392
G1 F3600 X143.874 Y138.261 E28.74752
G0 F9000 X143.874 Y138.756
G1 F3600 X147.742 Y134.887 E28.81524
G0 F9000 X147.742 Y135.382
G1 F3600 X143.874 Y139.251 E28.88297
G0 F9000 X143.874 Y139.746
G1 F3600 X147.742 Y135.877 E28.95069
G0 F9000 X147.742 Y136.372
G1 F3600 X143.874 Y140.241 E29.01841
G0 F9000 X143.874 Y140.736
G1 F3600 X147.742 Y136.867 E29.08614
G0 F9000 X147.742 Y137.362
G1 F3600 X143.874 Y141.231 E29.15386
G0 F9000 X143.874 Y141.726
G1 F3600 X147.742 Y137.858 E29.22157
G0 F9000 X147.742 Y138.353
G1 F3600 X143.874 Y142.221 E29.28929
G0 F9000 X144.229 Y142.361
G1 F3600 X147.742 Y138.848 E29.35078
G0 F9000 X147.742 Y139.343
G1 F3600 X144.724 Y142.361 E29.40362
G0 F9000 X145.219 Y142.361
G1 F3600 X147.742 Y139.838 E29.44779
G0 F9000 X147.742 Y140.333
G1 F3600 X145.714 Y142.361 E29.48329
G0 F9000 X146.209 Y142.361
G1 F3600 X147.742 Y140.828 E29.51013
G0 F9000 X147.742 Y141.323
G1 F3600 X146.704 Y142.361 E29.5283
G0 F9000 X147.283 Y142.276
G1 F3600 X147.742 Y141.818 E29.53632
G0 F9000 X150.278 Y141.756
G1 F3600 X154.094 Y137.94 E29.60313
G0 F9000 X154.094 Y137.446
G1 F3600 X150.278 Y141.261 E29.66992
G0 F9000 X150.278 Y140.766
G1 F3600 X154.094 Y136.951 E29.73672
G0 F9000 X154.094 Y136.456
G1 F3600 X150.278 Y140.271 E29.80351
G0 F9000 X150.278 Y139.776
G1 F3600 X154.094 Y135.961 E29.87031
G0 F9000 X154.094 Y135.466
G1 F3600 X150.278 Y139.281 E29.9371
G0 F9000 X150.278 Y138.786
G1 F3600 X154.094 Y134.971 E30.0039
G0 F9000 X154.094 Y134.476
G1 F3600 X150.278 Y138.291 E30.07069
G0 F9000 X150.278 Y137.796
G1 F3600 X154.094 Y133.981 E30.13748
G0 F9000 X154.094 Y133.486
G1 F3600 X150.277 Y137.302 E30.2043
G0 F9000 X150.277 Y136.807
G1 F3600 X154.094 Y132.991 E30.27111
G0 F9000 X153.949 Y132.64
G1 F3600 X150.277 Y136.312 E30.33539
G0 F9000 X150.277 Y135.817
G1 F3600 X153.454 Y132.64 E30.39101
G0 F9000 X152.959 Y132.64
G1 F3600 X150.277 Y135.322 E30.43796
G0 F9000 X150.277 Y134.827
G1 F3600 X152.464 Y132.641 E30.47624
G0 F9000 X151.969 Y132.641
G1 F3600 X150.277 Y134.332 E30.50585
G0 F9000 X150.277 Y133.837
G1 F3600 X151.474 Y132.641 E30.52679
G0 F9000 X150.813 Y132.806
G1 F3600 X150.277 Y133.342 E30.53618
G0 F9000 X150.439 Y133.342
G0 X153.935 Y138.435
G0 X153.935 Y138.435
G0 X154.094 Y138.435
G1 F3600 X150.463 Y142.066 E30.59974
G0 F9000 X150.794 Y142.23
G1 F3600 X154.094 Y138.93 E30.65751
G0 F9000 X154.094 Y139.425
G1 F3600 X151.158 Y142.361 E30.70891
G0 F9000 X151.653 Y142.361
G1 F3600 X154.094 Y139.92 E30.75164
G0 F9000 X154.094 Y140.415
G1 F3600 X152.148 Y142.361 E30.78571
G0 F9000 X152.643 Y142.361
G1 F3600 X154.094 Y140.91 E30.81111
G0 F9000 X154.094 Y141.405
G1 F3600 X153.138 Y142.361 E30.82785
G0 F9000 X153.633 Y142.361
G1 F3600 X154.094 Y141.9 E30.83592
; LAYER:1
G0 F9000 X150.246 Y141.067 Z0.45
; TYPE:WALL-INNER
G1 F720 X147.777 Y141.067 E30.86037
G1 X147.777 Y133.934 E30.93101
G1 X150.246 Y133.934 E30.95546
G1 X150.246 Y141.067 E31.0261
G0 F9000 X149.896 Y140.717
G1 F720 X148.127 Y140.717 E31.04361
G1 X148.127 Y134.284 E31.10732
G1 X149.896 Y134.284 E31.12484
G1 X149.896 Y140.717 E31.18854
G0 F9000 X150.596 Y141.417
; TYPE:WALL-OUTER
G1 F600 X147.427 Y141.417 E31.21993
G1 X147.427 Y133.584 E31.2975
G1 X150.596 Y133.584 E31.32888
G1 X150.596 Y141.417 E31.40645
G0 F9000 X149.78 Y140.275
; TYPE:FILL
G1 F720 X149.453 Y140.601 E31.41102
G0 F9000 X148.958 Y140.601
G1 F720 X149.78 Y139.78 E31.42253
G0 F9000 X149.78 Y139.285
G1 F720 X148.463 Y140.601 E31.44096
G0 F9000 X148.241 Y140.328
G1 F720 X149.78 Y138.79 E31.46251
G0 F9000 X149.78 Y138.295
G1 F720 X148.241 Y139.833 E31.48406
G0 F9000 X148.241 Y139.338
G1 F720 X149.78 Y137.8 E31.5056
G0 F9000 X149.78 Y137.305
G1 F720 X148.241 Y138.843 E31.52715
G0 F9000 X148.241 Y138.348
G1 F720 X149.78 Y136.81 E31.5487
G0 F9000 X149.78 Y136.315
G1 F720 X148.241 Y137.854 E31.57025
G0 F9000 X148.241 Y137.359
G1 F720 X149.78 Y135.82 E31.5918
G0 F9000 X149.78 Y135.325
G1 F720 X148.241 Y136.864 E31.61336
G0 F9000 X148.241 Y136.369
G1 F720 X149.78 Y134.83 E31.63491
G0 F9000 X149.716 Y134.399
G1 F720 X148.241 Y135.874 E31.65557
G0 F9000 X148.241 Y135.379
G1 F720 X149.221 Y134.399 E31.66929
G0 F9000 X148.726 Y134.399
G1 F720 X148.241 Y134.884 E31.67609
G0 F9000 X145.854 Y141.611
; TYPE:SUPPORT
G1 F720 X151.69 Y147.448 E31.75783
G0 F9000 X151.671 Y147.289
G0 X152.935 Y144.608
G0 X152.935 Y144.608
G0 X153.094 Y144.608
G1 F720 X150.716 Y142.231 E31.79112
G0 F9000 X150.716 Y142.392
G0 X147.56 Y147.401
G0 X147.56 Y147.401
G0 X147.56 Y147.56
G1 F720 X144.874 Y144.874 E31.82874
G0 F9000 X159.674 Y142.704
G1 F720 X160.531 Y143.561 E31.84074
G0 F9000 X160.531 Y143.401
G0 X162.335 Y141.28
G0 X162.335 Y141.28
G0 X162.493 Y141.28
G1 F720 X159.674 Y138.461 E31.88022
G0 F9000 X159.835 Y138.461
G0 X162.335 Y137.038
G0 X162.335 Y137.038
G0 X162.494 Y137.038
G1 F720 X159.674 Y134.218 E31.91972
G0 F9000 X159.835 Y134.218
G0 X162.139 Y132.601
G0 X162.139 Y132.601
G0 X162.139 Y132.441
G1 F720 X162.494 Y132.796 E31.92469
G0 F9000 X153.094 Y131.881
G1 F720 X148.654 Y127.441 E31.98687
G0 F9000 X148.654 Y127.601
G0 X145.035 Y127.903
G0 X145.035 Y127.903
G0 X144.874 Y127.903
G1 F720 X149.739 Y132.769 E32.05501
G0 F9000 X149.739 Y132.609
G0 X149.388 Y132.672
G0 X146.411 Y132.568
G0 X146.168 Y133.264
G0 X146.15 Y133.422
G1 F720 X144.874 Y132.146 E32.07288
G0 F9000 X138.204 Y133.961
G1 F720 X135.473 Y131.231 E32.11112
G0 F9000 X135.473 Y135.473
G1 F720 X138.294 Y138.294 E32.15063
G0 F9000 X138.135 Y138.294
G0 X136.035 Y140.117
G0 X136.035 Y140.117
G0 X135.874 Y140.117
G1 F720 X138.294 Y142.537 E32.18452
G0 F9000 X138.135 Y142.537
G0 X136.675 Y145.001
G0 X136.675 Y145.001
G0 X136.675 Y145.16
G1 F720 X135.474 Y143.959 E32.20134
G0 F9000 X151.41 Y142.109
; TYPE:SUPPORT-INTERFACE
G1 F720 X154.094 Y139.425 E32.23893
G0 F9000 X154.094 Y138.93
G1 F720 X151.41 Y141.614 E32.27652
G0 F9000 X151.41 Y141.119
G1 F720 X154.094 Y138.435 E32.31411
G0 F9000 X154.094 Y137.94
G1 F720 X151.41 Y140.624 E32.3517
G0 F9000 X151.41 Y140.129
G1 F720 X154.094 Y137.446 E32.38928
G0 F9000 X154.094 Y136.951
G1 F720 X151.41 Y139.634 E32.42686
G0 F9000 X151.41 Y139.139
G1 F720 X154.094 Y136.456 E32.46444
G0 F9000 X154.094 Y135.961
G1 F720 X151.41 Y138.644 E32.50203
G0 F9000 X151.41 Y138.149
G1 F720 X154.094 Y135.466 E32.53961
G0 F9000 X154.094 Y134.971
G1 F720 X151.41 Y137.654 E32.57719
G0 F9000 X151.41 Y137.159
G1 F720 X154.094 Y134.476 E32.61477
G0 F9000 X154.094 Y133.981
G1 F720 X151.41 Y136.664 E32.65235
G0 F9000 X151.41 Y136.169
G1 F720 X154.094 Y133.486 E32.68994
G0 F9000 X154.094 Y132.991
G1 F720 X151.41 Y135.674 E32.72752
G0 F9000 X151.41 Y135.179
G1 F720 X153.949 Y132.64 E32.76308
G0 F9000 X153.454 Y132.64
G1 F720 X151.41 Y134.684 E32.7917
G0 F9000 X151.41 Y134.189
G1 F720 X152.959 Y132.64 E32.8134
G0 F9000 X152.464 Y132.641
G1 F720 X151.41 Y133.694 E32.82815
G0 F9000 X151.41 Y133.199
G1 F720 X151.969 Y132.641 E32.83597
G0 F9000 X151.474 Y132.641
G1 F720 X151.41 Y132.704 E32.83686
G0 F9000 X151.571 Y132.711
G0 X153.935 Y139.92
G0 X153.935 Y139.92
G0 X154.094 Y139.92
G1 F720 X151.653 Y142.361 E32.87105
G0 F9000 X152.148 Y142.361
G1 F720 X154.094 Y140.415 E32.8983
G0 F9000 X154.094 Y140.91
G1 F720 X152.643 Y142.361 E32.91862
G0 F9000 X153.138 Y142.361
G1 F720 X154.094 Y141.405 E32.93201
G0 F9000 X154.094 Y141.9
G1 F720 X153.633 Y142.361 E32.93847
G0 F9000 X146.61 Y141.959
G1 F720 X146.209 Y142.361 E32.94409
G0 F9000 X145.714 Y142.361
G1 F720 X146.61 Y141.464 E32.95665
G0 F9000 X146.61 Y140.969
G1 F720 X145.219 Y142.361 E32.97613
G0 F9000 X144.724 Y142.361
G1 F720 X146.61 Y140.474 E33.00255
G0 F9000 X146.61 Y139.979
G1 F720 X144.229 Y142.361 E33.03591
G0 F9000 X143.874 Y142.221
G1 F720 X146.61 Y139.484 E33.07423
G0 F9000 X146.61 Y138.989
G1 F720 X143.874 Y141.726 E33.11256
G0 F9000 X143.874 Y141.231
G1 F720 X146.61 Y138.494 E33.15088
G0 F9000 X146.61 Y137.999
G1 F720 X143.874 Y140.736 E33.18921
G0 F9000 X143.874 Y140.241
G1 F720 X146.61 Y137.504 E33.22753
G0 F9000 X146.61 Y137.009
G1 F720 X143.874 Y139.746 E33.26585
G0 F9000 X143.874 Y139.251
G1 F720 X146.61 Y136.514 E33.30418
G0 F9000 X146.61 Y136.019
G1 F720 X143.874 Y138.756 E33.3425
G0 F9000 X143.874 Y138.261
G1 F720 X146.61 Y135.524 E33.38083
G0 F9000 X146.61 Y135.029
G1 F720 X143.874 Y137.766 E33.41915
G0 F9000 X143.874 Y137.271
G1 F720 X146.61 Y134.534 E33.45748
G0 F9000 X146.61 Y134.039
G1 F720 X143.874 Y136.776 E33.4958
G0 F9000 X143.874 Y136.281
G1 F720 X146.61 Y133.544 E33.53413
G0 F9000 X146.61 Y133.049
G1 F720 X143.874 Y135.786 E33.57245
G0 F9000 X143.874 Y135.291
G1 F720 X146.524 Y132.641 E33.60956
G0 F9000 X146.029 Y132.641
G1 F720 X143.874 Y134.796 E33.63974
G0 F9000 X143.874 Y134.301
G1 F720 X145.534 Y132.641 E33.66299
G0 F9000 X145.039 Y132.641
G1 F720 X143.874 Y133.806 E33.67931
G0 F9000 X143.874 Y133.311
G1 F720 X144.544 Y132.641 E33.68869
G0 F9000 X144.049 Y132.641
G1 F720 X143.874 Y132.816 E33.69114
; LAYER:2
M106 S255
G0 F9000 X146.771 Y133.881 Z0.65
; TYPE:WALL-INNER
G1 F720 X151.251 Y133.881 E33.73551
G1 X151.251 Y141.12 E33.80719
G1 X146.771 Y141.12 E33.85156
G1 X146.771 Y133.881 E33.92325
G0 F9000 X147.121 Y134.231
G1 F720 X150.901 Y134.231 E33.96068
G1 X150.901 Y140.77 E34.02544
G1 X147.121 Y140.77 E34.06287
G1 X147.121 Y134.231 E34.12763
G0 F9000 X146.421 Y133.531
; TYPE:WALL-OUTER
G1 F600 X151.601 Y133.531 E34.17892
G1 X151.601 Y141.47 E34.25754
G1 X146.421 Y141.47 E34.30884
G1 X146.421 Y133.531 E34.38746
G0 F9000 X147.235 Y134.365
; TYPE:FILL
G1 F720 X150.784 Y137.915 E34.43717
G0 F9000 X150.784 Y137.42
G1 F720 X147.71 Y134.346 E34.48022
G0 F9000 X148.205 Y134.346
G1 F720 X150.784 Y136.925 E34.51634
G0 F9000 X150.784 Y136.43
G1 F720 X148.7 Y134.346 E34.54553
G0 F9000 X149.195 Y134.346
G1 F720 X150.784 Y135.935 E34.56778
G0 F9000 X150.784 Y135.44
G1 F720 X149.69 Y134.346 E34.5831
G0 F9000 X150.185 Y134.346
G1 F720 X150.784 Y134.945 E34.59149
G0 F9000 X150.784 Y134.45
G1 F720 X150.68 Y134.346 E34.59295
G0 F9000 X147.235 Y134.86
G1 F720 X150.784 Y138.41 E34.64266
G0 F9000 X150.784 Y138.905
G1 F720 X147.235 Y135.355 E34.69237
G0 F9000 X147.235 Y135.85
G1 F720 X150.784 Y139.4 E34.74208
G0 F9000 X150.784 Y139.895
G1 F720 X147.235 Y136.345 E34.79179
G0 F9000 X147.235 Y136.84
G1 F720 X150.784 Y140.39 E34.8415
G0 F9000 X150.554 Y140.654
G1 F720 X147.235 Y137.335 E34.88798
G0 F9000 X147.235 Y137.83
G1 F720 X150.059 Y140.654 E34.92753
G0 F9000 X149.564 Y140.654
G1 F720 X147.235 Y138.325 E34.96015
G0 F9000 X147.235 Y138.82
G1 F720 X149.069 Y140.654 E34.98583
G0 F9000 X148.574 Y140.654
G1 F720 X147.235 Y139.315 E35.00459
G0 F9000 X147.235 Y139.81
G1 F720 X148.079 Y140.654 E35.01641
G0 F9000 X147.584 Y140.654
G1 F720 X147.235 Y140.305 E35.02129
G0 F9000 X145.444 Y132.716
; TYPE:SUPPORT
G1 F720 X144.874 Y132.146 E35.02928
G0 F9000 X145.035 Y132.146
G0 X145.035 Y127.903
G0 X145.035 Y127.903
G0 X144.874 Y127.903
G1 F720 X149.686 Y132.715 E35.09667
G0 F9000 X149.686 Y132.556
G0 X152.935 Y131.881
G0 X152.935 Y131.881
G0 X153.094 Y131.881
G1 F720 X148.654 Y127.441 E35.15885
G0 F9000 X138.204 Y133.961
G1 F720 X135.473 Y131.231 E35.19709
G0 F9000 X135.473 Y135.473
G1 F720 X138.294 Y138.294 E35.2366
G0 F9000 X138.135 Y138.294
G0 X136.035 Y140.117
G0 X136.035 Y140.117
G0 X135.874 Y140.117
G1 F720 X138.294 Y142.537 E35.27049
G0 F9000 X138.135 Y142.537
G0 X136.675 Y145.001
G0 X136.675 Y145.001
G0 X136.675 Y145.16
G1 F720 X135.474 Y143.959 E35.28731
G0 F9000 X144.874 Y144.874
G1 F720 X147.56 Y147.56 E35.32493
G0 F9000 X147.56 Y147.401
G0 X151.671 Y147.289
G0 X151.671 Y147.289
G0 X151.69 Y147.448
G1 F720 X146.527 Y142.284 E35.39724
G0 F9000 X146.527 Y142.445
G0 X150.77 Y142.445
G0 X150.77 Y142.445
G0 X150.77 Y142.285
G1 F720 X153.094 Y144.608 E35.42978
G0 F9000 X159.674 Y142.704
G1 F720 X160.531 Y143.561 E35.44178
G0 F9000 X160.531 Y143.401
G0 X162.335 Y141.28
G0 X162.335 Y141.28
G0 X162.493 Y141.28
G1 F720 X159.674 Y138.461 E35.48126
G0 F9000 X159.835 Y138.461
G0 X162.335 Y137.038
G0 X162.335 Y137.038
G0 X162.494 Y137.038
G1 F720 X159.674 Y134.218 E35.52076
G0 F9000 X159.835 Y134.218
G0 X162.139 Y132.601
G0 X162.139 Y132.601
G0 X162.139 Y132.441
G1 F720 X162.494 Y132.796 E35.52573
G0 F9000 X145.605 Y133.065
; TYPE:SUPPORT-INTERFACE
G1 F720 X143.874 Y134.796 E35.54997
G0 F9000 X143.874 Y134.301
G1 F720 X145.534 Y132.641 E35.57322
G0 F9000 X145.039 Y132.641
G1 F720 X143.874 Y133.806 E35.58954
G0 F9000 X143.874 Y133.311
G1 F720 X144.544 Y132.641 E35.59892
G0 F9000 X144.049 Y132.641
G1 F720 X143.874 Y132.816 E35.60137
G0 F9000 X144.035 Y132.816
G0 X145.446 Y133.56
G0 X145.446 Y133.56
G0 X145.605 Y133.56
G1 F720 X143.874 Y135.291 E35.62561
G0 F9000 X143.874 Y135.786
G1 F720 X145.605 Y134.055 E35.64986
G0 F9000 X145.605 Y134.55
G1 F720 X143.874 Y136.281 E35.6741
G0 F9000 X143.874 Y136.776
G1 F720 X145.605 Y135.045 E35.69834
G0 F9000 X145.605 Y135.54
G1 F720 X143.874 Y137.271 E35.72258
G0 F9000 X143.874 Y137.766
G1 F720 X145.605 Y136.035 E35.74683
G0 F9000 X145.605 Y136.53
G1 F720 X143.874 Y138.261 E35.77107
G0 F9000 X143.874 Y138.756
G1 F720 X145.605 Y137.025 E35.79531
G0 F9000 X145.605 Y137.52
G1 F720 X143.874 Y139.251 E35.81955
G0 F9000 X143.874 Y139.746
G1 F720 X145.605 Y138.015 E35.8438
G0 F9000 X145.605 Y138.51
G1 F720 X143.874 Y140.241 E35.86804
G0 F9000 X143.874 Y140.736
G1 F720 X145.605 Y139.005 E35.89228
G0 F9000 X145.605 Y139.5
G1 F720 X143.874 Y141.231 E35.91652
G0 F9000 X143.874 Y141.726
G1 F720 X145.605 Y139.995 E35.94077
G0 F9000 X145.605 Y140.49
G1 F720 X143.874 Y142.221 E35.96501
G0 F9000 X144.229 Y142.361
G1 F720 X145.605 Y140.985 E35.98428
G0 F9000 X145.605 Y141.48
G1 F720 X144.724 Y142.361 E35.99662
G0 F9000 X145.219 Y142.361
G1 F720 X145.605 Y141.975 E36.00202
G0 F9000 X152.414 Y142.095
G1 F720 X154.094 Y140.415 E36.02555
G0 F9000 X154.094 Y139.92
G1 F720 X152.414 Y141.6 E36.04908
G0 F9000 X152.414 Y141.105
G1 F720 X154.094 Y139.425 E36.07261
G0 F9000 X154.094 Y138.93
G1 F720 X152.414 Y140.61 E36.09614
G0 F9000 X152.414 Y140.115
G1 F720 X154.094 Y138.435 E36.11966
G0 F9000 X154.094 Y137.94
G1 F720 X152.414 Y139.62 E36.14319
G0 F9000 X152.414 Y139.125
G1 F720 X154.094 Y137.446 E36.16671
G0 F9000 X154.094 Y136.951
G1 F720 X152.414 Y138.63 E36.19024
G0 F9000 X152.414 Y138.135
G1 F720 X154.094 Y136.456 E36.21376
G0 F9000 X154.094 Y135.961
G1 F720 X152.414 Y137.64 E36.23728
G0 F9000 X152.415 Y137.144
G1 F720 X154.094 Y135.466 E36.26079
G0 F9000 X154.094 Y134.971
G1 F720 X152.415 Y136.649 E36.28429
G0 F9000 X152.415 Y136.154
G1 F720 X154.094 Y134.476 E36.3078
G0 F9000 X154.094 Y133.981
G1 F720 X152.415 Y135.659 E36.33131
G0 F9000 X152.415 Y135.164
G1 F720 X154.094 Y133.486 E36.35481
G0 F9000 X154.094 Y132.991
G1 F720 X152.415 Y134.669 E36.37832
G0 F9000 X152.415 Y134.174
G1 F720 X153.949 Y132.64 E36.39981
G0 F9000 X153.454 Y132.64
G1 F720 X152.415 Y133.679 E36.41436
G0 F9000 X152.415 Y133.184
G1 F720 X152.959 Y132.64 E36.42198
G0 F9000 X152.464 Y132.64
G1 F720 X152.415 Y132.69 E36.42267
G0 F9000 X152.576 Y132.711
G0 X153.935 Y140.91
G0 X153.935 Y140.91
G0 X154.094 Y140.91
G1 F720 X152.643 Y142.361 E36.44299
G0 F9000 X153.138 Y142.361
G1 F720 X154.094 Y141.405 E36.45638
G0 F9000 X154.094 Y141.9
G1 F720 X153.633 Y142.361 E36.46283
; LAYER:3
G0 F9000 X152.332 Y141.338 Z0.85
G0 X152.257 Y141.173
G0 X152.257 Y141.173
; TYPE:WALL-INNER
G1 F720 X145.766 Y141.173 E36.52711
G1 X145.766 Y133.828 E36.59985
G1 X152.257 Y133.828 E36.66413
G1 X152.257 Y141.173 E36.73687
G0 F9000 X151.907 Y140.823
G1 F720 X146.116 Y140.823 E36.79422
G1 X146.116 Y134.178 E36.86002
G1 X151.907 Y134.178 E36.91737
G1 X151.907 Y140.823 E36.98318
G0 F9000 X152.607 Y141.523
; TYPE:WALL-OUTER
G1 F600 X145.416 Y141.523 E37.05439
G1 X145.416 Y133.478 E37.13406
G1 X152.607 Y133.478 E37.20527
G1 X152.607 Y141.523 E37.28494
G0 F9000 X152.332 Y141.338
G0 X151.791 Y140.244
G0 X151.791 Y140.244
; TYPE:FILL
G1 F720 X151.327 Y140.707 E37.29143
G0 F9000 X150.832 Y140.707
G1 F720 X151.791 Y139.749 E37.30485
G0 F9000 X151.791 Y139.254
G1 F720 X150.337 Y140.707 E37.32521
G0 F9000 X149.842 Y140.707
G1 F720 X151.791 Y138.759 E37.3525
G0 F9000 X151.791 Y138.264
G1 F720 X149.347 Y140.707 E37.38672
G0 F9000 X149.228 Y140.331
G1 F720 X151.791 Y137.769 E37.42261
G0 F9000 X151.791 Y137.274
G1 F720 X149.228 Y139.836 E37.4585
G0 F9000 X149.348 Y139.449
G1 F720 X148.672 Y138.773 E37.46796
G0 F9000 X148.792 Y138.788
G1 F720 X146.872 Y140.707 E37.49485
G0 F9000 X146.377 Y140.707
G1 F720 X148.792 Y138.293 E37.52866
G0 F9000 X149.228 Y138.351
G1 F720 X151.791 Y135.789 E37.56455
G0 F9000 X151.791 Y135.294
G1 F720 X149.228 Y137.856 E37.60044
G0 F9000 X149.348 Y137.531
G1 F720 X148.672 Y137.713 E37.60737
G0 F9000 X148.792 Y137.798
G1 F720 X146.23 Y140.359 E37.64324
G0 F9000 X146.23 Y139.865
G1 F720 X148.792 Y137.302 E37.67913
G0 F9000 X149.228 Y137.361
G1 F720 X151.791 Y134.799 E37.71502
G0 F9000 X151.791 Y134.304
G1 F720 X149.228 Y136.866 E37.7509
G0 F9000 X148.792 Y136.807
G1 F720 X146.23 Y139.37 E37.78679
G0 F9000 X146.23 Y138.875
G1 F720 X148.792 Y136.312 E37.82268
G0 F9000 X149.228 Y136.371
G1 F720 X151.307 Y134.293 E37.85179
G0 F9000 X150.812 Y134.293
G1 F720 X149.228 Y135.876 E37.87397
G0 F9000 X148.792 Y135.817
G1 F720 X146.23 Y138.38 E37.90985
G0 F9000 X146.23 Y137.885
G1 F720 X148.792 Y135.322 E37.94574
G0 F9000 X149.228 Y135.381
G1 F720 X150.317 Y134.293 E37.96099
G0 F9000 X149.822 Y134.293
G1 F720 X149.228 Y134.886 E37.9693
G0 F9000 X149.348 Y134.499
G1 F720 X149.185 Y134.342 E37.97218
G1 X149.07 Y134.292 E37.97357
G1 X148.672 Y134.817 E37.98009
G0 F9000 X148.792 Y134.827
G1 F720 X146.23 Y137.39 E38.01598
G0 F9000 X146.23 Y136.895
G1 F720 X148.792 Y134.332 E38.05187
G0 F9000 X148.337 Y134.293
G1 F720 X146.23 Y136.4 E38.08138
G0 F9000 X146.23 Y135.905
G1 F720 X147.842 Y134.293 E38.10395
G0 F9000 X147.347 Y134.293
G1 F720 X146.23 Y135.41 E38.1196
G0 F9000 X146.23 Y134.915
G1 F720 X146.852 Y134.293 E38.12831
G0 F9000 X146.357 Y134.293
G1 F720 X146.23 Y134.42 E38.13009
G0 F9000 X149.228 Y138.846
G1 F720 X151.791 Y136.284 E38.16597
G0 F9000 X151.791 Y136.779
G1 F720 X149.228 Y139.341 E38.20186
G0 F9000 X148.792 Y139.283
G1 F720 X147.367 Y140.707 E38.22181
G0 F9000 X147.861 Y140.708
G1 F720 X148.792 Y139.778 E38.23484
G0 F9000 X148.792 Y140.273
G1 F720 X148.356 Y140.708 E38.24094
G0 F9000 X148.356 Y142.498
G0 X146.581 Y142.498
G0 X146.581 Y142.498
G0 X146.581 Y142.338
; TYPE:SUPPORT
G1 F720 X151.69 Y147.448 E38.3125
G0 F9000 X151.671 Y147.289
G0 X152.935 Y144.608
G0 X152.935 Y144.608
G0 X153.094 Y144.608
G1 F720 X150.823 Y142.337 E38.34431
G0 F9000 X150.823 Y142.498
G0 X147.56 Y147.401
G0 X147.56 Y147.401
G0 X147.56 Y147.56
G1 F720 X144.874 Y144.874 E38.38192
G0 F9000 X159.674 Y142.704
G1 F720 X160.531 Y143.561 E38.39393
G0 F9000 X160.531 Y143.401
G0 X162.335 Y141.28
G0 X162.335 Y141.28
G0 X162.493 Y141.28
G1 F720 X159.674 Y138.461 E38.43341
G0 F9000 X159.835 Y138.461
G0 X162.335 Y137.038
G0 X162.335 Y137.038
G0 X162.494 Y137.038
G1 F720 X159.674 Y134.218 E38.4729
G0 F9000 X159.835 Y134.218
G0 X162.139 Y132.601
G0 X162.139 Y132.601
G0 X162.139 Y132.441
G1 F720 X162.494 Y132.796 E38.47787
G0 F9000 X153.094 Y131.881
G1 F720 X148.654 Y127.441 E38.54005
G0 F9000 X148.654 Y127.601
G0 X145.035 Y127.903
G0 X145.035 Y127.903
G0 X144.874 Y127.903
G1 F720 X149.633 Y132.663 E38.60671
G0 F9000 X149.633 Y132.503
G0 X145.391 Y132.503
G0 X145.391 Y132.503
G0 X145.391 Y132.663
G1 F720 X144.874 Y132.146 E38.61395
G0 F9000 X138.204 Y133.961
G1 F720 X135.473 Y131.231 E38.65219
G0 F9000 X135.473 Y135.473
G1 F720 X138.294 Y138.294 E38.6917
G0 F9000 X138.135 Y138.294
G0 X136.035 Y140.117
G0 X136.035 Y140.117
G0 X135.874 Y140.117
G1 F720 X138.294 Y142.537 E38.72559
G0 F9000 X138.135 Y142.537
G0 X136.675 Y145.001
G0 X136.675 Y145.001
G0 X136.675 Y145.16
G1 F720 X135.474 Y143.959 E38.74241
; LAYER:4
G0 F9000 X145.068 Y141.226 Z1.05
; TYPE:WALL-INNER
G1 F720 X145.068 Y133.775 E38.8162
G1 X152.955 Y133.775 E38.8943
G1 X152.955 Y141.226 E38.96809
G1 X145.068 Y141.226 E39.04619
G0 F9000 X145.418 Y140.876
G1 F720 X145.418 Y134.125 E39.11305
G1 X152.605 Y134.125 E39.18422
G1 X152.605 Y140.876 E39.25108
G1 X145.418 Y140.876 E39.32225
G0 F9000 X144.718 Y141.576
; TYPE:WALL-OUTER
G1 F600 X144.718 Y133.425 E39.40297
G1 X153.305 Y133.425 E39.488
G1 X153.305 Y141.576 E39.56872
G1 X144.718 Y141.576 E39.65376
G0 F9000 X145.71 Y140.76
; TYPE:FILL
G1 F720 X145.532 Y140.582 E39.65625
G0 F9000 X145.532 Y140.087
G1 F720 X146.205 Y140.76 E39.66568
G0 F9000 X146.7 Y140.76
G1 F720 X145.532 Y139.592 E39.68204
G0 F9000 X145.532 Y139.097
G1 F720 X147.196 Y140.761 E39.70534
G0 F9000 X147.691 Y140.761
G1 F720 X145.532 Y138.602 E39.73558
G0 F9000 X145.532 Y138.107
G1 F720 X148.186 Y140.761 E39.77275
G0 F9000 X148.186 Y140.266
G1 F720 X145.532 Y137.612 E39.80992
G0 F9000 X145.532 Y137.117
G1 F720 X148.186 Y139.771 E39.84708
G0 F9000 X148.186 Y139.276
G1 F720 X145.532 Y136.622 E39.88425
G0 F9000 X145.532 Y136.127
G1 F720 X148.186 Y138.781 E39.92142
G0 F9000 X148.186 Y138.286
G1 F720 X145.532 Y135.632 E39.95859
G0 F9000 X145.532 Y135.138
G1 F720 X148.186 Y137.791 E39.99575
G0 F9000 X147.716 Y137.816
G1 F720 X150.305 Y140.405 E40.03201
G0 F9000 X150.166 Y140.761
G1 F720 X149.835 Y140.43 E40.03665
G0 F9000 X149.835 Y139.935
G1 F720 X150.661 Y140.761 E40.04822
G0 F9000 X151.156 Y140.761
G1 F720 X149.835 Y139.44 E40.06672
G0 F9000 X149.835 Y138.945
G1 F720 X151.65 Y140.76 E40.09214
G0 F9000 X152.145 Y140.76
G1 F720 X149.835 Y138.45 E40.12449
G0 F9000 X149.835 Y137.955
G1 F720 X152.488 Y140.609 E40.16165
G0 F9000 X152.488 Y140.114
G1 F720 X149.835 Y137.461 E40.1988
G0 F9000 X149.835 Y136.966
G1 F720 X152.488 Y139.619 E40.23596
G0 F9000 X152.488 Y139.124
G1 F720 X149.835 Y136.471 E40.27311
G0 F9000 X149.835 Y135.976
G1 F720 X152.488 Y138.629 E40.31027
G0 F9000 X152.488 Y138.134
G1 F720 X149.835 Y135.481 E40.34742
G0 F9000 X150.305 Y135.456
G1 F720 X149.089 Y134.239 E40.36446
G0 F9000 X148.827 Y134.239
G1 F720 X147.716 Y138.384 E40.40696
G0 F9000 X147.716 Y137.969
G1 F720 X150.305 Y137.275 E40.4335
G0 F9000 X148.186 Y137.297
G1 F720 X145.532 Y134.643 E40.47067
G0 F9000 X145.624 Y134.239
G1 F720 X148.186 Y136.802 E40.50656
G0 F9000 X148.186 Y136.307
G1 F720 X146.119 Y134.239 E40.53551
G0 F9000 X146.614 Y134.239
G1 F720 X148.186 Y135.812 E40.55754
G0 F9000 X148.186 Y135.317
G1 F720 X147.109 Y134.239 E40.57263
G0 F9000 X147.604 Y134.239
G1 F720 X148.186 Y134.822 E40.58079
G0 F9000 X148.186 Y134.327
G1 F720 X148.106 Y134.239 E40.58201
G1 X147.715 Y134.346 E40.58602
G0 F9000 X149.835 Y134.491
G1 F720 X152.488 Y137.144 E40.62318
G0 F9000 X152.488 Y136.649
G1 F720 X150.079 Y134.239 E40.65692
G0 F9000 X150.574 Y134.239
G1 F720 X152.488 Y136.154 E40.68374
G0 F9000 X152.488 Y135.659
G1 F720 X151.069 Y134.239 E40.70362
G0 F9000 X151.564 Y134.239
G1 F720 X152.488 Y135.164 E40.71656
G0 F9000 X152.488 Y134.669
G1 F720 X152.059 Y134.239 E40.72258
G0 F9000 X149.835 Y134.986
G1 F720 X152.488 Y137.639 E40.75973
G0 F9000 X138.294 Y138.294
; TYPE:SUPPORT
G1 F720 X135.473 Y135.473 E40.79924
G0 F9000 X135.635 Y135.473
G0 X135.93 Y138.901
G0 X136.476 Y138.96
G0 X136.505 Y139.673
G0 X136.035 Y140.117
G0 X135.874 Y140.117
G1 F720 X138.294 Y142.537 E40.83313
G0 F9000 X138.135 Y142.537
G0 X136.675 Y145.001
G0 X136.675 Y145.001
G0 X136.675 Y145.16
G1 F720 X135.474 Y143.959 E40.84995
G0 F9000 X144.874 Y144.874
G1 F720 X147.56 Y147.56 E40.88757
G0 F9000 X147.56 Y147.401
G0 X151.671 Y147.289
G0 X151.671 Y147.289
G0 X151.69 Y147.448
G1 F720 X146.633 Y142.39 E40.9584
G0 F9000 X146.633 Y142.551
G0 X150.876 Y142.551
G0 X150.876 Y142.551
G0 X150.876 Y142.391
G1 F720 X153.094 Y144.608 E40.98946
G0 F9000 X149.579 Y132.609
G1 F720 X144.874 Y127.903 E41.05536
G0 F9000 X145.035 Y127.903
G0 X148.654 Y127.601
G0 X148.654 Y127.601
G0 X148.654 Y127.441
G1 F720 X153.094 Y131.881 E41.11754
G0 F9000 X152.935 Y131.881
G0 X145.338 Y132.45
G0 X145.338 Y132.45
G0 X145.338 Y132.61
G1 F720 X144.874 Y132.146 E41.12404
G0 F9000 X138.204 Y133.961
G1 F720 X135.473 Y131.231 E41.16228
G1 F1800 E38.16228
G1 Z2.05
G0 F9000 X159.674 Y134.218
G1 Z1.05
G1 F1800 E41.16228
G1 F720 X162.494 Y137.038 E41.20177
G0 F9000 X162.335 Y137.038
G0 X159.835 Y138.461
G0 X159.835 Y138.461
G0 X159.674 Y138.461
G1 F720 X162.493 Y141.28 E41.24125
G0 F9000 X162.335 Y141.28
G0 X160.531 Y143.401
G0 X160.531 Y143.401
G0 X160.531 Y143.561
G1 F720 X159.674 Y142.704 E41.25325
G0 F9000 X159.835 Y142.704
G0 X162.335 Y132.796
G0 X162.335 Y132.796
G0 X162.494 Y132.796
G1 F720 X162.139 Y132.441 E41.25823
; LAYER:5
G0 F9000 X153.254 Y133.722 Z1.25
; TYPE:WALL-INNER
G1 F720 X153.254 Y141.279 E41.33306
G1 X144.769 Y141.279 E41.41709
G1 X144.769 Y133.722 E41.49193
G1 X153.254 Y133.722 E41.57595
G0 F9000 X152.904 Y134.072
G1 F720 X152.904 Y140.929 E41.64386
G1 X145.119 Y140.929 E41.72095
G1 X145.119 Y134.072 E41.78886
G1 X152.904 Y134.072 E41.86595
G0 F9000 X153.604 Y133.372
; TYPE:WALL-OUTER
G1 F600 X153.604 Y141.629 E41.94772
G1 X144.419 Y141.629 E42.03868
G1 X144.419 Y133.372 E42.12045
G1 X153.604 Y133.372 E42.21141
G0 F9000 X152.788 Y134.297
; TYPE:FILL
G1 F720 X150.84 Y136.244 E42.23868
G0 F9000 X150.84 Y135.749
G1 F720 X152.403 Y134.186 E42.26057
G0 F9000 X151.908 Y134.186
G1 F720 X150.84 Y135.254 E42.27553
G0 F9000 X150.84 Y134.759
G1 F720 X151.413 Y134.186 E42.28355
G0 F9000 X150.918 Y134.186
G1 F720 X150.84 Y134.264 E42.28465
G0 F9000 X149.036 Y134.186
G1 F720 X151.31 Y136.461 E42.3165
G0 F9000 X151.31 Y137.006
G1 F720 X146.709 Y138.239 E42.36367
G0 F9000 X147.18 Y138.419
G1 F720 X145.233 Y140.367 E42.39095
G0 F9000 X145.281 Y140.813
G1 F720 X147.18 Y138.914 E42.41754
G0 F9000 X147.18 Y139.409
G1 F720 X145.776 Y140.813 E42.4372
G0 F9000 X146.271 Y140.813
G1 F720 X147.18 Y139.904 E42.44993
G0 F9000 X147.18 Y140.399
G1 F720 X146.766 Y140.813 E42.45573
G0 F9000 X147.065 Y140.813
G1 F720 X148.841 Y134.186 E42.52368
G0 F9000 X148.31 Y134.186
G1 F720 X146.71 Y134.615 E42.54008
G0 F9000 X146.463 Y134.186
G1 F720 X145.233 Y135.417 E42.55731
G0 F9000 X145.233 Y135.912
G1 F720 X146.958 Y134.186 E42.58148
G0 F9000 X147.18 Y134.459
G1 F720 X145.233 Y136.407 E42.60875
G0 F9000 X145.233 Y136.902
G1 F720 X147.18 Y134.954 E42.63603
G0 F9000 X147.18 Y135.449
G1 F720 X145.233 Y137.397 E42.6633
G0 F9000 X145.233 Y137.892
G1 F720 X147.18 Y135.944 E42.69058
G0 F9000 X147.18 Y136.439
G1 F720 X145.233 Y138.387 E42.71785
G0 F9000 X145.233 Y138.882
G1 F720 X147.18 Y136.934 E42.74513
G0 F9000 X146.709 Y136.81
G1 F720 X150.713 Y140.813 E42.80119
G0 F9000 X150.689 Y140.813
G1 F720 X151.31 Y138.495 E42.82496
G0 F9000 X150.84 Y138.719
G1 F720 X152.788 Y136.772 E42.85223
G0 F9000 X152.788 Y136.277
G1 F720 X150.84 Y138.224 E42.87951
G0 F9000 X150.84 Y137.729
G1 F720 X152.788 Y135.782 E42.90678
G0 F9000 X152.788 Y135.287
G1 F720 X150.84 Y137.234 E42.93406
G0 F9000 X150.84 Y136.739
G1 F720 X152.788 Y134.792 E42.96133
G0 F9000 X152.788 Y137.267
G1 F720 X150.84 Y139.214 E42.98861
G0 F9000 X150.84 Y139.709
G1 F720 X152.788 Y137.762 E43.01588
G0 F9000 X152.788 Y138.257
G1 F720 X150.84 Y140.204 E43.04316
G0 F9000 X150.84 Y140.699
G1 F720 X152.788 Y138.752 E43.07043
G0 F9000 X152.788 Y139.247
G1 F720 X151.221 Y140.813 E43.09237
G0 F9000 X151.31 Y140.629
G1 F720 X150.622 Y140.814 E43.09942
G0 F9000 X151.716 Y140.813
G1 F720 X152.788 Y139.741 E43.11444
G0 F9000 X152.788 Y140.236
G1 F720 X152.211 Y140.813 E43.12252
G0 F9000 X152.706 Y140.813
G1 F720 X152.788 Y140.731 E43.12367
G0 F9000 X147.18 Y137.924
G1 F720 X145.233 Y139.872 E43.15094
G0 F9000 X145.233 Y139.377
G1 F720 X147.18 Y137.429 E43.17822
G0 F9000 X145.233 Y134.922
G1 F720 X145.968 Y134.186 E43.18852
G0 F9000 X145.473 Y134.186
G1 F720 X145.233 Y134.427 E43.19188
G0 F9000 X159.674 Y134.218
; TYPE:SUPPORT
G1 F720 X162.494 Y137.038 E43.23138
G0 F9000 X162.335 Y137.038
G0 X159.835 Y138.461
G0 X159.835 Y138.461
G0 X159.674 Y138.461
G1 F720 X162.493 Y141.28 E43.27086
G0 F9000 X162.335 Y141.28
G0 X160.531 Y143.401
G0 X160.531 Y143.401
G0 X160.531 Y143.561
G1 F720 X159.674 Y142.704 E43.28286
G0 F9000 X159.835 Y142.704
G0 X162.335 Y132.796
G0 X162.335 Y132.796
G0 X162.494 Y132.796
G1 F720 X162.139 Y132.441 E43.28783
G0 F9000 X153.094 Y131.881
G1 F720 X148.654 Y127.441 E43.35001
G0 F9000 X148.654 Y127.601
G0 X145.035 Y127.903
G0 X145.035 Y127.903
G0 X144.874 Y127.903
G1 F720 X149.527 Y132.557 E43.41519
G0 F9000 X149.527 Y132.397
G0 X145.284 Y132.397
G0 X145.284 Y132.397
G0 X145.284 Y132.557
G1 F720 X144.874 Y132.146 E43.42093
G0 F9000 X146.687 Y142.444
G1 F720 X151.69 Y147.448 E43.49101
G0 F9000 X151.671 Y147.289
G0 X152.935 Y144.608
G0 X152.935 Y144.608
G0 X153.094 Y144.608
G1 F720 X150.929 Y142.443 E43.52133
G0 F9000 X150.929 Y142.604
G0 X147.56 Y147.401
G0 X147.56 Y147.401
G0 X147.56 Y147.56
G1 F720 X144.874 Y144.874 E43.55895
G0 F9000 X138.294 Y142.537
G1 F720 X135.874 Y140.117 E43.59284
G0 F9000 X136.035 Y140.117
G0 X138.135 Y138.294
G0 X138.135 Y138.294
G0 X138.294 Y138.294
G1 F720 X135.473 Y135.473 E43.63235
G0 F9000 X135.635 Y135.473
G0 X135.635 Y138.901
G0 X136.476 Y138.96
G0 X135.635 Y143.959
G0 X135.474 Y143.959
G1 F720 X136.675 Y145.16 E43.64917
G0 F9000 X138.204 Y133.961
G1 F720 X135.473 Y131.231 E43.68741
; LAYER:6
G0 F9000 X144.469 Y133.669 Z1.45
; TYPE:WALL-INNER
G1 F720 X153.554 Y133.669 E43.77738
G1 X153.554 Y141.332 E43.85326
G1 X144.469 Y141.332 E43.94323
G1 X144.469 Y133.669 E44.01912
G0 F9000 X144.819 Y134.019
G1 F720 X153.204 Y134.019 E44.10215
G1 X153.204 Y140.982 E44.17111
G1 X144.819 Y140.982 E44.25414
G1 X144.819 Y134.019 E44.3231
G0 F9000 X144.119 Y133.319
; TYPE:WALL-OUTER
G1 F600 X153.904 Y133.319 E44.42
G1 X153.904 Y141.682 E44.50282
G1 X144.119 Y141.682 E44.59972
G1 X144.119 Y133.319 E44.68254
G0 F9000 X145.023 Y134.133
; TYPE:FILL
G1 F720 X146.175 Y135.285 E44.69867
G0 F9000 X146.175 Y135.78
G1 F720 X144.932 Y134.538 E44.71607
G0 F9000 X144.932 Y135.033
G1 F720 X146.175 Y136.275 E44.73347
G0 F9000 X146.175 Y136.77
G1 F720 X144.932 Y135.528 E44.75087
G0 F9000 X144.932 Y136.023
G1 F720 X146.175 Y137.265 E44.76827
G0 F9000 X146.175 Y137.761
G1 F720 X144.932 Y136.518 E44.78568
G0 F9000 X144.932 Y137.013
G1 F720 X146.175 Y138.256 E44.80309
G0 F9000 X146.175 Y138.751
G1 F720 X144.932 Y137.508 E44.8205
G0 F9000 X144.932 Y138.003
G1 F720 X146.175 Y139.246 E44.83791
G0 F9000 X146.175 Y139.741
G1 F720 X144.932 Y138.498 E44.85532
G0 F9000 X144.932 Y138.993
G1 F720 X146.175 Y140.236 E44.87272
G0 F9000 X146.175 Y140.731
G1 F720 X144.932 Y139.488 E44.89013
G0 F9000 X144.932 Y139.983
G1 F720 X145.816 Y140.866 E44.9025
G0 F9000 X145.816 Y140.866
G1 F720 X145.513 Y140.81 E44.90405
G1 X144.932 Y140.478 E44.91067
G0 F9000 X145.705 Y138.508
G1 F720 X152.316 Y136.736 E44.97845
G0 F9000 X151.846 Y136.502
G1 F720 X153.088 Y137.744 E44.99585
G0 F9000 X153.088 Y137.249
G1 F720 X151.846 Y136.007 E45.01324
G0 F9000 X151.846 Y135.512
G1 F720 X153.088 Y136.754 E45.03064
G0 F9000 X153.088 Y136.259
G1 F720 X151.846 Y135.017 E45.04803
G0 F9000 X151.846 Y134.522
G1 F720 X153.088 Y135.764 E45.06542
G0 F9000 X153.088 Y135.269
G1 F720 X151.953 Y134.134 E45.08132
G0 F9000 X152.448 Y134.134
G1 F720 X153.088 Y134.774 E45.09028
G0 F9000 X153.088 Y134.279
G1 F720 X152.942 Y134.133 E45.09233
G0 F9000 X152.316 Y134.739
G1 F720 X150.675 Y140.866 E45.15514
G0 F9000 X150.766 Y140.866
G1 F720 X145.705 Y135.805 E45.22602
G0 F9000 X145.705 Y134.884
G1 F720 X148.508 Y134.133 E45.25476
G0 F9000 X148.855 Y134.133
G1 F720 X147.051 Y140.866 E45.32379
G0 F9000 X150.426 Y140.866
G1 F720 X152.315 Y140.36 E45.34315
G0 F9000 X151.846 Y140.462
G1 F720 X152.251 Y140.866 E45.34882
G0 F9000 X152.746 Y140.866
G1 F720 X151.846 Y139.967 E45.36142
G0 F9000 X151.846 Y139.472
G1 F720 X153.088 Y140.714 E45.37881
G0 F9000 X153.088 Y140.219
G1 F720 X151.846 Y138.977 E45.3962
G0 F9000 X151.846 Y138.482
G1 F720 X153.088 Y139.724 E45.4136
G0 F9000 X153.088 Y139.229
G1 F720 X151.846 Y137.987 E45.43099
G0 F9000 X151.846 Y137.491
G1 F720 X153.088 Y138.734 E45.44839
G0 F9000 X153.088 Y138.239
G1 F720 X151.846 Y136.996 E45.46579
G0 F9000 X152.316 Y137.467
G1 F720 X148.983 Y134.133 E45.51248
G0 F9000 X146.175 Y134.295
G1 F720 X146.014 Y134.134 E45.51473
G0 F9000 X145.518 Y134.133
G1 F720 X146.175 Y134.79 E45.52394
G0 F9000 X138.204 Y133.961
; TYPE:SUPPORT
G1 F720 X135.473 Y131.231 E45.56218
G0 F9000 X135.473 Y135.473
G1 F720 X138.294 Y138.294 E45.60168
G0 F9000 X138.135 Y138.294
G0 X136.035 Y140.117
G0 X136.035 Y140.117
G0 X135.874 Y140.117
G1 F720 X138.294 Y142.537 E45.63558
G0 F9000 X138.135 Y142.537
G0 X136.675 Y145.001
G0 X136.675 Y145.001
G0 X136.675 Y145.16
G1 F720 X135.474 Y143.959 E45.6524
G0 F9000 X145.231 Y132.504
G1 F720 X144.874 Y132.146 E45.6574
G0 F9000 X145.035 Y132.146
G0 X145.035 Y127.903
G0 X145.035 Y127.903
G0 X144.874 Y127.903
G1 F720 X149.473 Y132.503 E45.72182
G0 F9000 X149.473 Y132.344
G0 X152.935 Y131.881
G0 X152.935 Y131.881
G0 X153.094 Y131.881
G1 F720 X148.654 Y127.441 E45.784
G0 F9000 X146.739 Y142.496
G1 F720 X151.69 Y147.448 E45.85335
G0 F9000 X151.671 Y147.289
G0 X152.935 Y144.608
G0 X152.935 Y144.608
G0 X153.094 Y144.608
G1 F720 X150.982 Y142.497 E45.88292
G0 F9000 X150.982 Y142.657
G0 X147.56 Y147.401
G0 X147.56 Y147.401
G0 X147.56 Y147.56
G1 F720 X144.874 Y144.874 E45.92053
G0 F9000 X159.674 Y142.704
G1 F720 X160.531 Y143.561 E45.93254
G0 F9000 X160.531 Y143.401
G0 X162.335 Y141.28
G0 X162.335 Y141.28
G0 X162.493 Y141.28
G1 F720 X159.674 Y138.461 E45.97202
G0 F9000 X159.835 Y138.461
G0 X162.335 Y137.038
G0 X162.335 Y137.038
G0 X162.494 Y137.038
G1 F720 X159.674 Y134.218 E46.01151
G0 F9000 X159.835 Y134.218
G0 X162.139 Y132.601
G0 X162.139 Y132.601
G0 X162.139 Y132.441
G1 F720 X162.494 Y132.796 E46.01648
; LAYER:7
G0 F9000 X153.853 Y133.616 Z1.65
; TYPE:WALL-INNER
G1 F720 X153.853 Y141.385 E46.09342
G1 X144.17 Y141.385 E46.18931
G1 X144.17 Y133.616 E46.26624
G1 X153.853 Y133.616 E46.36214
G0 F9000 X153.503 Y133.966
G1 F720 X153.503 Y141.035 E46.43214
G1 X144.52 Y141.035 E46.5211
G1 X144.52 Y133.966 E46.5911
G1 X153.503 Y133.966 E46.68006
G0 F9000 X154.203 Y133.266
; TYPE:WALL-OUTER
G1 F600 X154.203 Y141.735 E46.76393
G1 X143.82 Y141.735 E46.86675
G1 X143.82 Y133.266 E46.95062
G1 X154.203 Y133.266 E47.05344
G0 F9000 X153.387 Y134.192
; TYPE:FILL
G1 F720 X152.544 Y135.035 E47.06525
G0 F9000 X152.544 Y134.54
G1 F720 X153.004 Y134.08 E47.07169
G0 F9000 X152.493 Y134.08
G1 F720 X150.66 Y140.919 E47.14181
G0 F9000 X150.819 Y140.92
G1 F720 X144.633 Y134.734 E47.22844
G0 F9000 X144.633 Y134.532
G1 F720 X145.084 Y134.081 E47.23476
G0 F9000 X145.246 Y134.081
G1 F720 X144.634 Y136.363 E47.25816
G0 F9000 X144.633 Y136.511
G1 F720 X145.477 Y135.668 E47.26997
G0 F9000 X145.477 Y135.173
G1 F720 X144.633 Y136.016 E47.28178
G0 F9000 X144.633 Y135.521
G1 F720 X145.477 Y134.678 E47.29359
G0 F9000 X145.477 Y134.183
G1 F720 X144.633 Y135.026 E47.30541
G0 F9000 X144.634 Y135.171
G1 F720 X148.705 Y134.08 E47.34715
G0 F9000 X148.869 Y134.081
G1 F720 X147.037 Y140.918 E47.41724
G0 F9000 X145.869 Y140.92
G1 F720 X144.633 Y139.683 E47.43456
G0 F9000 X144.633 Y139.481
G1 F720 X145.476 Y138.638 E47.44636
G0 F9000 X145.476 Y138.143
G1 F720 X144.633 Y138.986 E47.45817
G0 F9000 X144.634 Y138.795
G1 F720 X153.387 Y136.449 E47.54791
G0 F9000 X153.387 Y136.667
G1 F720 X152.544 Y137.51 E47.55972
G0 F9000 X152.544 Y137.015
G1 F720 X153.387 Y136.172 E47.57152
G0 F9000 X153.387 Y135.677
G1 F720 X152.544 Y136.52 E47.58333
G0 F9000 X152.544 Y136.025
G1 F720 X153.387 Y135.182 E47.59513
G0 F9000 X153.387 Y134.687
G1 F720 X152.544 Y135.53 E47.60694
G0 F9000 X153.387 Y137.162
G1 F720 X152.544 Y138.005 E47.61875
G0 F9000 X152.544 Y138.5
G1 F720 X153.387 Y137.657 E47.63055
G0 F9000 X153.387 Y138.152
G1 F720 X152.544 Y138.995 E47.64236
G0 F9000 X152.544 Y139.49
G1 F720 X153.387 Y138.647 E47.65417
G0 F9000 X153.387 Y138.538
G1 F720 X148.93 Y134.08 E47.71659
G0 F9000 X145.477 Y136.163
G1 F720 X144.633 Y137.006 E47.72841
G0 F9000 X144.633 Y137.501
G1 F720 X145.477 Y136.658 E47.74022
G0 F9000 X145.477 Y137.153
G1 F720 X144.633 Y137.996 E47.75203
G0 F9000 X144.633 Y138.491
G1 F720 X145.476 Y137.648 E47.76384
G0 F9000 X145.476 Y139.133
G1 F720 X144.633 Y139.976 E47.77564
G0 F9000 X144.633 Y140.471
G1 F720 X145.476 Y139.628 E47.78745
G0 F9000 X145.476 Y140.123
G1 F720 X144.68 Y140.92 E47.79861
G0 F9000 X145.175 Y140.92
G1 F720 X145.476 Y140.618 E47.80283
G0 F9000 X150.227 Y140.919
G1 F720 X153.387 Y140.073 E47.83522
G0 F9000 X153.387 Y140.132
G1 F720 X152.6 Y140.92 E47.84625
G0 F9000 X152.544 Y140.48
G1 F720 X153.387 Y139.637 E47.85806
G0 F9000 X153.387 Y139.142
G1 F720 X152.544 Y139.985 E47.86986
G0 F9000 X153.387 Y140.627
G1 F720 X153.094 Y140.92 E47.87397
G0 F9000 X159.674 Y142.704
; TYPE:SUPPORT
G1 F720 X160.531 Y143.561 E47.88597
G0 F9000 X160.531 Y143.401
G0 X162.335 Y141.28
G0 X162.335 Y141.28
G0 X162.493 Y141.28
G1 F720 X159.674 Y138.461 E47.92545
G0 F9000 X159.835 Y138.461
G0 X162.335 Y137.038
G0 X162.335 Y137.038
G0 X162.494 Y137.038
G1 F720 X159.674 Y134.218 E47.96494
G0 F9000 X159.835 Y134.218
G0 X162.139 Y132.601
G0 X162.139 Y132.601
G0 X162.139 Y132.441
G1 F720 X162.494 Y132.796 E47.96992
G0 F9000 X153.094 Y131.881
G1 F720 X148.654 Y127.441 E48.0321
G0 F9000 X148.654 Y127.601
G0 X145.035 Y127.903
G0 X145.035 Y127.903
G0 X144.874 Y127.903
G1 F720 X149.421 Y132.45 E48.09578
G0 F9000 X149.421 Y132.291
G0 X145.178 Y132.291
G0 X145.178 Y132.291
G0 X145.178 Y132.45
G1 F720 X144.874 Y132.146 E48.10004
G0 F9000 X146.792 Y142.549
G1 F720 X151.69 Y147.448 E48.16864
G0 F9000 X151.671 Y147.289
G0 X152.935 Y144.608
G0 X152.935 Y144.608
G0 X153.094 Y144.608
G1 F720 X151.035 Y142.549 E48.19747
G0 F9000 X151.035 Y142.71
G0 X147.56 Y147.401
G0 X147.56 Y147.401
G0 X147.56 Y147.56
G1 F720 X144.874 Y144.874 E48.23509
G0 F9000 X138.294 Y142.537
G1 F720 X135.874 Y140.117 E48.26898
G0 F9000 X136.035 Y140.117
G0 X138.135 Y138.294
G0 X138.135 Y138.294
G0 X138.294 Y138.294
G1 F720 X135.473 Y135.473 E48.30849
G0 F9000 X135.635 Y135.473
G0 X135.635 Y138.901
G0 X136.476 Y138.96
G0 X135.635 Y143.959
G0 X135.474 Y143.959
G1 F720 X136.675 Y145.16 E48.32531
G0 F9000 X138.204 Y133.961
G1 F720 X135.473 Y131.231 E48.36355
; LAYER:8
G0 F9000 X143.871 Y133.563 Z1.85
; TYPE:WALL-INNER
G1 F720 X154.152 Y133.563 E48.46536
G1 X154.152 Y141.438 E48.54335
G1 X143.871 Y141.438 E48.64516
G1 X143.871 Y133.563 E48.72315
G0 F9000 X144.221 Y133.913
G1 F720 X153.802 Y133.913 E48.81803
G1 X153.802 Y141.088 E48.88908
G1 X144.221 Y141.088 E48.98396
G1 X144.221 Y133.913 E49.05502
G0 F9000 X143.521 Y133.213
; TYPE:WALL-OUTER
G1 F600 X154.502 Y133.213 E49.16376
G1 X154.502 Y141.788 E49.24868
G1 X143.521 Y141.788 E49.35742
G1 X143.521 Y133.213 E49.44234
G0 F9000 X144.423 Y134.028
; TYPE:FILL
G1 F720 X145.178 Y134.783 E49.45292
G0 F9000 X145.178 Y135.278
G1 F720 X144.335 Y134.435 E49.46472
G0 F9000 X144.335 Y134.435
G1 F720 X148.133 Y138.233 E49.51791
G0 F9000 X148.133 Y137.857
G1 F720 X144.335 Y138.875 E49.55685
G0 F9000 X144.335 Y138.89
G1 F720 X145.178 Y139.734 E49.56866
G0 F9000 X145.178 Y139.239
G1 F720 X144.335 Y138.395 E49.58048
G0 F9000 X144.335 Y137.9
G1 F720 X145.178 Y138.744 E49.59229
G0 F9000 X145.178 Y138.249
G1 F720 X144.335 Y137.405 E49.6041
G0 F9000 X144.335 Y137.48
G1 F720 X145.26 Y134.027 E49.63951
G0 F9000 X145.178 Y134.288
G1 F720 X144.917 Y134.028 E49.64315
G0 F9000 X144.335 Y134.93
G1 F720 X145.178 Y135.773 E49.65496
G0 F9000 X145.178 Y136.268
G1 F720 X144.335 Y135.425 E49.66677
G0 F9000 X144.334 Y135.251
G1 F720 X148.133 Y134.234 E49.70571
G0 F9000 X147.887 Y134.027
G1 F720 X150.357 Y136.498 E49.74031
G0 F9000 X150.357 Y136.993
G1 F720 X147.663 Y134.299 E49.77804
G0 F9000 X147.663 Y134.794
G1 F720 X150.357 Y137.488 E49.81577
G0 F9000 X149.887 Y137.387
G1 F720 X153.686 Y136.369 E49.85472
G0 F9000 X153.686 Y136.362
G1 F720 X152.843 Y135.519 E49.86652
G0 F9000 X152.843 Y135.024
G1 F720 X153.686 Y135.867 E49.87833
G0 F9000 X153.686 Y135.372
G1 F720 X152.843 Y134.529 E49.89014
G0 F9000 X152.843 Y134.034
G1 F720 X153.686 Y134.877 E49.90194
G0 F9000 X153.686 Y134.382
G1 F720 X153.331 Y134.027 E49.90691
G0 F9000 X152.507 Y134.026
G1 F720 X150.646 Y140.972 E49.97813
G0 F9000 X150.872 Y140.973
G1 F720 X149.886 Y139.987 E49.99194
G0 F9000 X150.357 Y139.963
G1 F720 X147.663 Y137.269 E50.02966
G0 F9000 X147.663 Y136.774
G1 F720 X150.357 Y139.468 E50.06739
G0 F9000 X150.357 Y138.973
G1 F720 X147.663 Y136.279 E50.10512
G0 F9000 X147.663 Y135.784
G1 F720 X150.357 Y138.478 E50.14285
G0 F9000 X150.357 Y137.983
G1 F720 X147.663 Y135.289 E50.18058
G0 F9000 X148.382 Y134.027
G1 F720 X150.357 Y136.003 E50.20825
G0 F9000 X150.357 Y135.508
G1 F720 X148.877 Y134.027 E50.22898
G0 F9000 X149.372 Y134.027
G1 F720 X150.357 Y135.013 E50.24278
G0 F9000 X149.886 Y135.037
G1 F720 X153.686 Y138.837 E50.296
G0 F9000 X153.686 Y138.837
G1 F720 X152.843 Y137.994 E50.30781
G0 F9000 X152.843 Y138.488
G1 F720 X153.686 Y139.332 E50.31962
G0 F9000 X153.686 Y139.827
G1 F720 X152.843 Y138.983 E50.33144
G0 F9000 X152.843 Y139.478
G1 F720 X153.686 Y140.322 E50.34325
G0 F9000 X153.686 Y139.993
G1 F720 X150.03 Y140.972 E50.38073
G0 F9000 X149.882 Y140.973
G1 F720 X147.663 Y138.754 E50.41181
G0 F9000 X147.663 Y138.259
G1 F720 X150.357 Y140.953 E50.44954
G0 F9000 X150.357 Y140.458
G1 F720 X147.663 Y137.764 E50.48727
G0 F9000 X148.133 Y136.829
G1 F720 X147.023 Y140.971 E50.52973
G0 F9000 X147.663 Y140.734
G1 F720 X147.902 Y140.973 E50.53308
G0 F9000 X148.397 Y140.973
G1 F720 X147.663 Y140.239 E50.54336
G0 F9000 X147.663 Y139.744
G1 F720 X148.892 Y140.973 E50.56057
G0 F9000 X149.387 Y140.973
G1 F720 X147.663 Y139.249 E50.58471
G0 F9000 X145.922 Y140.972
G1 F720 X144.335 Y139.385 E50.60694
G0 F9000 X144.335 Y139.385
G1 F720 X145.178 Y140.229 E50.61875
G0 F9000 X145.178 Y140.724
G1 F720 X144.335 Y139.88 E50.63057
G0 F9000 X144.335 Y140.375
G1 F720 X144.932 Y140.973 E50.63893
G0 F9000 X144.437 Y140.972
G1 F720 X144.335 Y140.87 E50.64036
G0 F9000 X145.178 Y137.754
G1 F720 X144.335 Y136.91 E50.65218
G0 F9000 X144.335 Y136.415
G1 F720 X145.178 Y137.258 E50.66398
G0 F9000 X145.178 Y136.763
G1 F720 X144.335 Y135.92 E50.67579
G0 F9000 X149.867 Y134.027
G1 F720 X150.357 Y134.518 E50.68266
G0 F9000 X152.843 Y136.014
G1 F720 X153.686 Y136.857 E50.69446
G0 F9000 X153.686 Y137.352
G1 F720 X152.843 Y136.509 E50.70627
G0 F9000 X152.843 Y137.004
G1 F720 X153.686 Y137.847 E50.71808
G0 F9000 X153.686 Y138.342
G1 F720 X152.843 Y137.499 E50.72988
G0 F9000 X152.843 Y139.973
G1 F720 X153.686 Y140.817 E50.7417
G0 F9000 X153.347 Y140.973
G1 F720 X152.843 Y140.468 E50.74876
G0 F9000 X152.843 Y140.963
G1 F720 X152.851 Y140.972 E50.74888
G0 F9000 X138.204 Y133.961
; TYPE:SUPPORT
G1 F720 X135.473 Y131.231 E50.78712
G0 F9000 X135.473 Y135.473
G1 F720 X138.294 Y138.294 E50.82663
G0 F9000 X138.135 Y138.294
G0 X136.035 Y140.117
G0 X136.035 Y140.117
G0 X135.874 Y140.117
G1 F720 X138.294 Y142.537 E50.86052
G0 F9000 X138.135 Y142.537
G0 X136.675 Y145.001
G0 X136.675 Y145.001
G0 X136.675 Y145.16
G1 F720 X135.474 Y143.959 E50.87734
G0 F9000 X145.125 Y132.397
G1 F720 X144.874 Y132.146 E50.88086
G0 F9000 X145.035 Y132.146
G0 X145.035 Y127.903
G0 X145.035 Y127.903
G0 X144.874 Y127.903
G1 F720 X149.369 Y132.398 E50.94381
G0 F9000 X149.369 Y132.238
G0 X152.935 Y131.881
G0 X152.935 Y131.881
G0 X153.094 Y131.881
G1 F720 X148.654 Y127.441 E51.00599
G0 F9000 X146.845 Y142.602
G1 F720 X151.69 Y147.448 E51.07385
G0 F9000 X151.671 Y147.289
G0 X152.935 Y144.608
G0 X152.935 Y144.608
G0 X153.094 Y144.608
G1 F720 X151.088 Y142.603 E51.10194
G0 F9000 X151.088 Y142.763
G0 X147.56 Y147.401
G0 X147.56 Y147.401
G0 X147.56 Y147.56
G1 F720 X144.874 Y144.874 E51.13955
G0 F9000 X159.674 Y142.704
G1 F720 X160.531 Y143.561 E51.15156
G0 F9000 X160.531 Y143.401
G0 X162.335 Y141.28
G0 X162.335 Y141.28
G0 X162.493 Y141.28
G1 F720 X159.674 Y138.461 E51.19104
G0 F9000 X159.835 Y138.461
G0 X162.335 Y137.038
G0 X162.335 Y137.038
G0 X162.494 Y137.038
G1 F720 X159.674 Y134.218 E51.23053
G0 F9000 X159.835 Y134.218
G0 X162.139 Y132.601
G0 X162.139 Y132.601
G0 X162.139 Y132.441
G1 F720 X162.494 Y132.796 E51.2355
; LAYER:9
G0 F9000 X154.452 Y133.51 Z2.05
; TYPE:WALL-INNER
G1 F720 X154.452 Y141.491 E51.31454
G1 X143.571 Y141.491 E51.42229
G1 X143.571 Y133.51 E51.50133
G1 X154.452 Y133.51 E51.60908
G0 F9000 X154.102 Y133.86
G1 F720 X154.102 Y141.141 E51.68119
G1 X143.921 Y141.141 E51.78201
G1 X143.921 Y133.86 E51.85411
G1 X154.102 Y133.86 E51.95493
G0 F9000 X154.802 Y133.16
; TYPE:WALL-OUTER
G1 F600 X154.802 Y141.841 E52.0409
G1 X143.221 Y141.841 E52.15559
G1 X143.221 Y133.16 E52.24155
G1 X154.802 Y133.16 E52.35624
G0 F9000 X153.985 Y134.089
; TYPE:FILL
G1 F720 X153.143 Y134.932 E52.36804
G0 F9000 X153.143 Y134.437
G1 F720 X153.689 Y133.974 E52.37452
G1 X153.985 Y134.186 E52.37813
G0 F9000 X153.985 Y134.584
G1 F720 X153.143 Y135.427 E52.38993
G0 F9000 X153.143 Y135.922
G1 F720 X153.985 Y135.079 E52.40173
G0 F9000 X153.985 Y135.574
G1 F720 X153.143 Y136.417 E52.41353
G0 F9000 X153.143 Y136.912
G1 F720 X153.985 Y136.069 E52.42532
G0 F9000 X153.986 Y136.289
G1 F720 X150.895 Y137.117 E52.45701
G0 F9000 X151.363 Y137.206
G1 F720 X147.544 Y141.026 E52.51051
G0 F9000 X147.049 Y141.026
G1 F720 X151.363 Y136.711 E52.57093
G0 F9000 X151.363 Y136.216
G1 F720 X146.657 Y140.922 E52.63684
G0 F9000 X147.008 Y141.026
G1 F720 X147.127 Y140.584 E52.64137
G0 F9000 X146.657 Y140.427
G1 F720 X151.363 Y135.721 E52.70728
G0 F9000 X151.363 Y135.226
G1 F720 X146.657 Y139.932 E52.77318
G0 F9000 X146.657 Y139.437
G1 F720 X151.363 Y134.731 E52.83909
G0 F9000 X151.363 Y134.236
G1 F720 X146.657 Y138.942 E52.905
G0 F9000 X146.657 Y138.447
G1 F720 X151.13 Y133.974 E52.96764
G0 F9000 X150.635 Y133.974
G1 F720 X146.657 Y137.952 E53.02335
G0 F9000 X146.657 Y137.458
G1 F720 X150.14 Y133.974 E53.07214
G0 F9000 X149.645 Y133.974
G1 F720 X146.657 Y136.963 E53.11399
G0 F9000 X146.657 Y136.468
G1 F720 X149.15 Y133.974 E53.14892
G0 F9000 X148.655 Y133.974
G1 F720 X146.657 Y135.973 E53.1769
G0 F9000 X146.657 Y135.478
G1 F720 X148.16 Y133.974 E53.19796
G0 F9000 X147.665 Y133.974
G1 F720 X146.657 Y134.983 E53.21208
G0 F9000 X146.657 Y134.488
G1 F720 X147.17 Y133.974 E53.21928
G0 F9000 X146.675 Y133.974
G1 F720 X146.657 Y133.993 E53.21953
G0 F9000 X147.127 Y134.503
G1 F720 X144.035 Y135.332 E53.25124
G0 F9000 X144.035 Y135.13
G1 F720 X144.878 Y134.287 E53.26304
G0 F9000 X144.695 Y133.974
G1 F720 X144.035 Y134.635 E53.27229
G0 F9000 X144.035 Y134.14
G1 F720 X144.2 Y133.974 E53.27461
G0 F9000 X144.035 Y134.136
G1 F720 X147.127 Y137.227 E53.31791
G0 F9000 X147.127 Y138.127
G1 F720 X144.035 Y138.955 E53.34961
G0 F9000 X144.035 Y139.085
G1 F720 X145.975 Y141.026 E53.37678
G0 F9000 X144.878 Y140.722
G1 F720 X144.574 Y141.026 E53.38104
G0 F9000 X144.079 Y141.026
G1 F720 X144.878 Y140.227 E53.39223
G0 F9000 X144.878 Y139.732
G1 F720 X144.035 Y140.574 E53.40403
G0 F9000 X144.035 Y140.079
G1 F720 X144.878 Y139.237 E53.41583
G0 F9000 X144.878 Y138.742
G1 F720 X144.035 Y139.584 E53.42763
G0 F9000 X144.035 Y139.09
G1 F720 X144.878 Y138.247 E53.43943
G0 F9000 X144.878 Y137.752
G1 F720 X144.035 Y138.595 E53.45124
G0 F9000 X144.035 Y138.598
G1 F720 X145.275 Y133.974 E53.49865
G0 F9000 X144.878 Y134.782
G1 F720 X144.035 Y135.625 E53.51045
G0 F9000 X144.035 Y136.12
G1 F720 X144.878 Y135.277 E53.52226
G0 F9000 X144.878 Y135.772
G1 F720 X144.035 Y136.615 E53.53407
G0 F9000 X144.035 Y137.11
G1 F720 X144.878 Y136.267 E53.54587
G0 F9000 X144.878 Y136.762
G1 F720 X144.035 Y137.605 E53.55768
G0 F9000 X144.035 Y138.1
G1 F720 X144.878 Y137.257 E53.56949
G0 F9000 X148.039 Y141.026
G1 F720 X151.363 Y137.701 E53.61604
G0 F9000 X151.363 Y138.196
G1 F720 X148.534 Y141.026 E53.65567
G0 F9000 X149.029 Y141.026
G1 F720 X151.363 Y138.691 E53.68837
G0 F9000 X151.363 Y139.186
G1 F720 X149.524 Y141.026 E53.71413
G0 F9000 X150.019 Y141.026
G1 F720 X151.363 Y139.681 E53.73296
G0 F9000 X151.363 Y140.176
G1 F720 X150.514 Y141.026 E53.74486
G0 F9000 X150.894 Y140.994
G1 F720 X150.967 Y141.026 E53.74529
G1 X151.363 Y140.671 E53.75056
G0 F9000 X150.895 Y140.741
G1 F720 X153.986 Y139.912 E53.78225
G0 F9000 X153.985 Y140.029
G1 F720 X153.143 Y140.871 E53.79404
G0 F9000 X153.483 Y141.026
G1 F720 X153.985 Y140.524 E53.80107
G0 F9000 X153.985 Y141.019
G1 F720 X153.978 Y141.026 E53.80117
G0 F9000 X153.143 Y140.376
G1 F720 X153.985 Y139.534 E53.81296
G0 F9000 X153.985 Y139.136
G1 F720 X150.894 Y136.045 E53.85625
G0 F9000 X153.143 Y137.407
G1 F720 X153.985 Y136.564 E53.86805
G0 F9000 X153.985 Y137.059
G1 F720 X153.143 Y137.902 E53.87985
G0 F9000 X153.143 Y138.397
G1 F720 X153.985 Y137.554 E53.89165
G0 F9000 X153.985 Y138.049
G1 F720 X153.143 Y138.892 E53.90345
G0 F9000 X153.143 Y139.387
G1 F720 X153.985 Y138.544 E53.91525
G0 F9000 X153.985 Y139.039
G1 F720 X153.143 Y139.881 E53.92704
G0 F9000 X150.894 Y140.048
G1 F720 X152.521 Y133.974 E53.98931
G0 F9000 X159.674 Y134.218
; TYPE:SUPPORT
G1 F720 X162.494 Y137.038 E54.02881
G0 F9000 X162.335 Y137.038
G0 X159.835 Y138.461
G0 X159.835 Y138.461
G0 X159.674 Y138.461
G1 F720 X162.493 Y141.28 E54.06829
G0 F9000 X162.335 Y141.28
G0 X160.531 Y143.401
G0 X160.531 Y143.401
G0 X160.531 Y143.561
G1 F720 X159.674 Y142.704 E54.08029
G0 F9000 X159.835 Y142.704
G0 X162.335 Y132.796
G0 X162.335 Y132.796
G0 X162.494 Y132.796
G1 F720 X162.139 Y132.441 E54.08526
G0 F9000 X153.094 Y131.881
G1 F720 X148.654 Y127.441 E54.14744
G0 F9000 X148.654 Y127.601
G0 X145.035 Y127.903
G0 X145.035 Y127.903
G0 X144.874 Y127.903
G1 F720 X149.315 Y132.344 E54.20964
G0 F9000 X149.315 Y132.185
G0 X145.072 Y132.185
G0 X145.072 Y132.185
G0 X145.072 Y132.344
G1 F720 X144.874 Y132.146 E54.21241
G0 F9000 X146.898 Y142.655
G1 F720 X151.69 Y147.448 E54.27953
G0 F9000 X151.671 Y147.289
G0 X152.935 Y144.608
G0 X152.935 Y144.608
G0 X153.094 Y144.608
G1 F720 X151.141 Y142.655 E54.30688
G0 F9000 X151.141 Y142.816
G0 X147.56 Y147.401
G0 X147.56 Y147.401
G0 X147.56 Y147.56
G1 F720 X144.874 Y144.874 E54.3445
G0 F9000 X138.294 Y142.537
G1 F720 X135.874 Y140.117 E54.37839
G0 F9000 X136.035 Y140.117
G0 X138.135 Y138.294
G0 X138.135 Y138.294
G0 X138.294 Y138.294
G1 F720 X135.473 Y135.473 E54.4179
G0 F9000 X135.635 Y135.473
G0 X135.635 Y138.901
G0 X136.476 Y138.96
G0 X135.635 Y143.959
G0 X135.474 Y143.959
G1 F720 X136.675 Y145.16 E54.43472
G0 F9000 X138.204 Y133.961
G1 F720 X135.473 Y131.231 E54.47296
; LAYER:10
G0 F9000 X143.272 Y133.457 Z2.25
; TYPE:WALL-INNER
G1 F720 X154.751 Y133.457 E54.58663
G1 X154.751 Y141.544 E54.66672
G1 X143.272 Y141.544 E54.7804
G1 X143.272 Y133.457 E54.86048
G0 F9000 X143.622 Y133.807
G1 F720 X154.401 Y133.807 E54.96723
G1 X154.401 Y141.194 E55.04038
G1 X143.622 Y141.194 E55.14712
G1 X143.622 Y133.807 E55.22028
G0 F9000 X142.922 Y133.107
; TYPE:WALL-OUTER
G1 F600 X155.101 Y133.107 E55.34088
G1 X155.101 Y141.894 E55.4279
G1 X142.922 Y141.894 E55.54851
G1 X142.922 Y133.107 E55.63553
G0 F9000 X143.821 Y133.921
; TYPE:FILL
G1 F720 X144.579 Y134.679 E55.64614
G0 F9000 X144.579 Y135.174
G1 F720 X143.736 Y134.331 E55.65795
G0 F9000 X143.821 Y133.921
G1 F720 X146.121 Y136.222 E55.69017
G0 F9000 X145.651 Y136.246
G1 F720 X150.483 Y141.079 E55.75785
G0 F9000 X150.978 Y141.079
G1 F720 X145.651 Y135.751 E55.83246
G0 F9000 X145.651 Y135.256
G1 F720 X151.473 Y141.079 E55.914
G0 F9000 X151.968 Y141.079
G1 F720 X145.651 Y134.761 E56.00248
G0 F9000 X146.121 Y134.773
G1 F720 X143.736 Y135.412 E56.02693
G0 F9000 X143.736 Y135.321
G1 F720 X144.579 Y136.164 E56.03874
G0 F9000 X144.579 Y135.669
G1 F720 X143.736 Y134.826 E56.05054
G0 F9000 X143.736 Y135.816
G1 F720 X144.579 Y136.659 E56.06235
G0 F9000 X144.579 Y137.154
G1 F720 X143.736 Y136.311 E56.07415
G0 F9000 X143.736 Y136.806
G1 F720 X144.579 Y137.649 E56.08596
G0 F9000 X144.579 Y138.144
G1 F720 X143.736 Y137.301 E56.09777
G0 F9000 X143.736 Y137.796
G1 F720 X144.579 Y138.639 E56.10957
G0 F9000 X144.579 Y139.134
G1 F720 X143.736 Y138.291 E56.12138
G0 F9000 X143.736 Y138.786
G1 F720 X144.579 Y139.629 E56.13318
G0 F9000 X144.579 Y140.124
G1 F720 X143.736 Y139.281 E56.14499
G0 F9000 X143.736 Y139.035
G1 F720 X146.121 Y138.396 E56.16944
G0 F9000 X145.651 Y138.226
G1 F720 X148.503 Y141.079 E56.20939
G0 F9000 X148.998 Y141.079
G1 F720 X145.651 Y137.731 E56.25627
G0 F9000 X145.651 Y137.236
G1 F720 X149.493 Y141.079 E56.31009
G0 F9000 X149.988 Y141.079
G1 F720 X145.651 Y136.741 E56.37083
G0 F9000 X145.651 Y138.721
G1 F720 X148.008 Y141.079 E56.40385
G0 F9000 X147.513 Y141.079
G1 F720 X145.651 Y139.216 E56.42993
G0 F9000 X145.651 Y139.711
G1 F720 X147.018 Y141.079 E56.44909
G0 F9000 X146.523 Y141.079
G1 F720 X145.651 Y140.206 E56.4613
G0 F9000 X145.651 Y140.701
G1 F720 X146.028 Y141.079 E56.46659
G0 F9000 X146.028 Y141.079
G1 F720 X143.736 Y138.786 E56.4987
G0 F9000 X143.736 Y139.714
G1 F720 X145.289 Y133.92 E56.5581
G0 F9000 X145.651 Y134.266
G1 F720 X152.37 Y140.985 E56.6522
G0 F9000 X152.37 Y140.49
G1 F720 X145.801 Y133.921 E56.7442
G0 F9000 X146.296 Y133.921
G1 F720 X152.37 Y139.995 E56.82926
G0 F9000 X152.37 Y139.5
G1 F720 X146.791 Y133.921 E56.9074
G0 F9000 X147.286 Y133.921
G1 F720 X152.37 Y139.005 E56.9786
G0 F9000 X152.37 Y138.51
G1 F720 X147.781 Y133.921 E57.04287
G0 F9000 X148.276 Y133.921
G1 F720 X152.37 Y138.015 E57.1002
G0 F9000 X152.37 Y137.52
G1 F720 X148.771 Y133.921 E57.15061
G0 F9000 X149.265 Y133.921
G1 F720 X152.37 Y137.025 E57.19409
G0 F9000 X151.9 Y137.051
G1 F720 X154.285 Y139.435 E57.22748
G0 F9000 X154.285 Y139.435
G1 F720 X153.442 Y138.592 E57.23929
G0 F9000 X153.442 Y138.097
G1 F720 X154.285 Y138.94 E57.25109
G0 F9000 X154.285 Y138.445
G1 F720 X153.442 Y137.602 E57.2629
G0 F9000 X153.442 Y137.108
G1 F720 X154.285 Y137.95 E57.2747
G0 F9000 X154.285 Y137.455
G1 F720 X153.442 Y136.613 E57.2865
G0 F9000 X153.442 Y136.118
G1 F720 X154.285 Y136.96 E57.2983
G0 F9000 X154.285 Y136.465
G1 F720 X153.442 Y135.623 E57.3101
G0 F9000 X153.442 Y135.128
G1 F720 X154.285 Y135.97 E57.32189
G0 F9000 X154.285 Y136.209
G1 F720 X151.9 Y136.848 E57.34635
G0 F9000 X151.9 Y136.292
G1 F720 X152.536 Y133.921 E57.37066
G0 F9000 X152.37 Y134.056
G1 F720 X152.235 Y133.921 E57.37255
G0 F9000 X151.74 Y133.921
G1 F720 X152.37 Y134.551 E57.38137
G0 F9000 X152.37 Y135.046
G1 F720 X151.245 Y133.921 E57.39713
G0 F9000 X150.75 Y133.921
G1 F720 X152.37 Y135.541 E57.41981
G0 F9000 X152.37 Y136.036
G1 F720 X150.255 Y133.921 E57.44943
G0 F9000 X149.76 Y133.921
G1 F720 X152.37 Y136.531 E57.48599
G0 F9000 X153.442 Y134.633
G1 F720 X154.285 Y135.476 E57.49779
G0 F9000 X154.285 Y134.981
G1 F720 X153.442 Y134.138 E57.5096
G0 F9000 X153.72 Y133.921
G1 F720 X154.285 Y134.486 E57.51751
G0 F9000 X154.285 Y134.486
G1 F720 X153.72 Y133.921 E57.52542
G0 F9000 X154.215 Y133.921
G1 F720 X154.285 Y133.991 E57.52641
G0 F9000 X153.442 Y139.087
G1 F720 X154.285 Y139.93 E57.53821
G0 F9000 X154.285 Y139.832
G1 F720 X151.9 Y140.471 E57.56266
G0 F9000 X153.442 Y140.572
G1 F720 X153.948 Y141.079 E57.56976
G0 F9000 X154.242 Y141.077
G1 F720 X154.285 Y140.915 E57.57142
G0 F9000 X154.285 Y140.92
G1 F720 X153.442 Y140.077 E57.58322
G0 F9000 X153.442 Y139.582
G1 F720 X154.285 Y140.425 E57.59503
G0 F9000 X153.453 Y141.079
G1 F720 X153.442 Y141.067 E57.59519
G0 F9000 X144.579 Y140.619
G1 F720 X143.736 Y139.776 E57.607
G0 F9000 X143.736 Y140.271
G1 F720 X144.543 Y141.079 E57.6183
G0 F9000 X144.048 Y141.079
G1 F720 X143.736 Y140.766 E57.62268
G0 F9000 X144.579 Y134.184
G1 F720 X144.316 Y133.921 E57.62636
G0 F9000 X138.204 Y133.961
; TYPE:SUPPORT
G1 F720 X135.473 Y131.231 E57.66461
G0 F9000 X135.473 Y135.473
G1 F720 X138.294 Y138.294 E57.70411
G0 F9000 X138.135 Y138.294
G0 X136.035 Y140.117
G0 X136.035 Y140.117
G0 X135.874 Y140.117
G1 F720 X138.294 Y142.537 E57.738
G0 F9000 X138.135 Y142.537
G0 X136.675 Y145.001
G0 X136.675 Y145.001
G0 X136.675 Y145.16
G1 F720 X135.474 Y143.959 E57.75482
G0 F9000 X145.019 Y132.291
G1 F720 X144.874 Y132.146 E57.75686
G0 F9000 X145.035 Y132.146
G0 X145.035 Y127.903
G0 X145.035 Y127.903
G0 X144.874 Y127.903
G1 F720 X149.263 Y132.292 E57.81832
G0 F9000 X149.263 Y132.132
G0 X152.935 Y131.881
G0 X152.935 Y131.881
G0 X153.094 Y131.881
G1 F720 X148.654 Y127.441 E57.8805
G0 F9000 X146.951 Y142.708
G1 F720 X151.69 Y147.448 E57.94688
G0 F9000 X151.671 Y147.289
G0 X152.935 Y144.609
G0 X152.935 Y144.609
G0 X153.094 Y144.609
G1 F720 X151.194 Y142.708 E57.9735
G0 F9000 X151.194 Y142.869
G0 X147.56 Y147.401
G0 X147.56 Y147.401
G0 X147.56 Y147.56
G1 F720 X144.874 Y144.874 E58.01111
G0 F9000 X159.674 Y142.704
G1 F720 X160.531 Y143.561 E58.02312
G0 F9000 X160.531 Y143.401
G0 X162.335 Y141.28
G0 X162.335 Y141.28
G0 X162.493 Y141.28
G1 F720 X159.674 Y138.461 E58.0626
G0 F9000 X159.835 Y138.461
G0 X162.335 Y137.038
G0 X162.335 Y137.038
G0 X162.494 Y137.038
G1 F720 X159.674 Y134.218 E58.10209
G0 F9000 X159.835 Y134.218
G0 X162.139 Y132.601
G0 X162.139 Y132.601
G0 X162.139 Y132.441
G1 F720 X162.494 Y132.796 E58.10706
; LAYER:11
G0 F9000 X148.074 Y133.404 Z2.45
; TYPE:WALL-INNER
G1 F780 X148.074 Y141.597 E58.1882
G1 X142.973 Y141.597 E58.23871
G1 X142.973 Y133.404 E58.31985
G1 X148.074 Y133.404 E58.37036
G0 F9000 X147.724 Y133.754
G1 F780 X147.724 Y141.247 E58.44457
G1 X143.323 Y141.247 E58.48815
G1 X143.323 Y133.754 E58.56235
G1 X147.724 Y133.754 E58.60593
G0 F9000 X148.424 Y133.054
; TYPE:WALL-OUTER
G1 F660 X148.424 Y141.947 E58.694
G1 X142.623 Y141.947 E58.75145
G1 X142.623 Y133.054 E58.83952
G1 X148.424 Y133.054 E58.89696
G0 F9000 X147.608 Y134.032
; TYPE:FILL
G1 F780 X144.645 Y136.995 E58.93846
G0 F9000 X144.28 Y136.865
G1 F780 X143.437 Y137.708 E58.95027
G0 F9000 X143.437 Y137.213
G1 F780 X144.28 Y136.37 E58.96207
G0 F9000 X144.645 Y136.5
G1 F780 X147.276 Y133.869 E58.99892
G0 F9000 X146.781 Y133.869
G1 F780 X144.645 Y136.005 E59.02883
G0 F9000 X144.28 Y135.875
G1 F780 X143.437 Y136.718 E59.04064
G0 F9000 X143.437 Y136.223
G1 F780 X144.28 Y135.38 E59.05245
G0 F9000 X144.645 Y135.51
G1 F780 X146.286 Y133.869 E59.07543
G0 F9000 X145.791 Y133.868
G1 F780 X144.645 Y135.015 E59.09148
G0 F9000 X144.28 Y134.885
G1 F780 X143.437 Y135.728 E59.10329
G0 F9000 X143.437 Y135.492
G1 F780 X145.115 Y135.042 E59.1205
G0 F9000 X145.115 Y135.215
G1 F780 X143.768 Y133.868 E59.13936
G0 F9000 X143.812 Y133.868
G1 F780 X143.437 Y134.243 E59.14461
G0 F9000 X143.437 Y134.738
G1 F780 X144.28 Y133.895 E59.15642
G0 F9000 X144.645 Y134.025
G1 F780 X144.802 Y133.868 E59.15862
G0 F9000 X145.297 Y133.868
G1 F780 X144.645 Y134.52 E59.16775
G0 F9000 X144.28 Y134.39
G1 F780 X143.437 Y135.233 E59.17955
G0 F9000 X145.115 Y134.568
G1 F780 X143.438 Y140.83 E59.24375
G0 F9000 X143.437 Y140.678
G1 F780 X144.28 Y139.835 E59.25556
G0 F9000 X144.645 Y139.965
G1 F780 X147.608 Y137.001 E59.29706
G0 F9000 X147.608 Y136.506
G1 F780 X144.645 Y139.47 E59.33856
G0 F9000 X144.28 Y139.34
G1 F780 X143.437 Y140.183 E59.35037
G0 F9000 X143.437 Y139.688
G1 F780 X144.28 Y138.845 E59.36218
G0 F9000 X144.645 Y138.975
G1 F780 X147.608 Y136.011 E59.40368
G0 F9000 X147.608 Y135.517
G1 F780 X144.645 Y138.48 E59.44518
G0 F9000 X144.28 Y138.35
G1 F780 X143.437 Y139.193 E59.45698
G0 F9000 X143.437 Y139.115
G1 F780 X145.115 Y138.666 E59.47419
G0 F9000 X144.645 Y137.985
G1 F780 X147.608 Y135.022 E59.51568
G0 F9000 X147.608 Y134.527
G1 F780 X144.645 Y137.49 E59.55718
G0 F9000 X144.28 Y137.36
G1 F780 X143.437 Y138.203 E59.56898
G0 F9000 X143.437 Y138.487
G1 F780 X145.115 Y140.165 E59.59248
G0 F9000 X144.645 Y140.46
G1 F780 X147.608 Y137.496 E59.63399
G0 F9000 X147.607 Y137.992
G1 F780 X144.645 Y140.955 E59.67548
G0 F9000 X144.963 Y141.132
G1 F780 X147.607 Y138.487 E59.71251
G0 F9000 X147.607 Y138.982
G1 F780 X145.458 Y141.132 E59.74262
G0 F9000 X145.953 Y141.132
G1 F780 X147.607 Y139.477 E59.76579
G0 F9000 X147.607 Y139.972
G1 F780 X146.448 Y141.132 E59.78203
G0 F9000 X146.943 Y141.132
G1 F780 X147.607 Y140.467 E59.79133
G0 F9000 X147.607 Y140.962
G1 F780 X147.438 Y141.132 E59.79371
G0 F9000 X144.28 Y140.825
G1 F780 X143.973 Y141.132 E59.79801
G0 F9000 X143.478 Y141.132
G1 F780 X144.28 Y140.33 E59.80924
G0 F9000 X143.437 Y138.698
G1 F780 X144.28 Y137.855 E59.82105
G1 F1800 E56.82105
G1 Z3.45
G0 F9000 X149.948 Y141.597
; TYPE:WALL-INNER
G1 Z2.45
G1 F1800 E59.82105
G1 F780 X149.948 Y133.404 E59.90218
G1 X155.05 Y133.404 E59.95271
G1 X155.05 Y141.597 E60.03384
G1 X149.948 Y141.597 E60.08437
G0 F9000 X150.298 Y141.247
G1 F780 X150.298 Y133.754 E60.15857
G1 X154.7 Y133.754 E60.20216
G1 X154.7 Y141.247 E60.27636
G1 X150.298 Y141.247 E60.31996
G0 F9000 X149.598 Y141.947
; TYPE:WALL-OUTER
G1 F660 X149.598 Y133.054 E60.40802
G1 X155.4 Y133.054 E60.46548
G1 X155.4 Y141.947 E60.55355
G1 X149.598 Y141.947 E60.61101
G0 F9000 X150.412 Y141.127
; TYPE:FILL
G1 F780 X153.376 Y138.163 E60.65252
G0 F9000 X153.741 Y138.293
G1 F780 X154.584 Y137.45 E60.66432
G0 F9000 X154.584 Y136.955
G1 F780 X153.741 Y137.798 E60.67613
G0 F9000 X153.376 Y137.668
G1 F780 X150.412 Y140.632 E60.71764
G0 F9000 X150.412 Y140.137
G1 F780 X153.376 Y137.173 E60.75915
G0 F9000 X153.741 Y137.303
G1 F780 X154.584 Y136.461 E60.77095
G0 F9000 X154.584 Y136.129
G1 F780 X152.906 Y136.578 E60.78815
G0 F9000 X153.376 Y136.678
G1 F780 X150.412 Y139.642 E60.82966
G0 F9000 X150.412 Y139.148
G1 F780 X153.376 Y136.183 E60.87118
G0 F9000 X153.741 Y136.313
G1 F780 X154.584 Y135.471 E60.88298
G0 F9000 X154.584 Y134.976
G1 F780 X153.741 Y135.818 E60.89478
G0 F9000 X153.376 Y135.688
G1 F780 X150.412 Y138.653 E60.93629
G0 F9000 X150.412 Y138.158
G1 F780 X153.376 Y135.193 E60.97781
G0 F9000 X153.741 Y135.323
G1 F780 X154.584 Y134.481 E60.98961
G0 F9000 X154.584 Y134.785
G1 F780 X153.668 Y133.869 E61.00244
G0 F9000 X153.376 Y134.203
G1 F780 X150.412 Y137.168 E61.04396
G0 F9000 X150.412 Y136.673
G1 F780 X153.216 Y133.868 E61.08323
G0 F9000 X152.721 Y133.868
G1 F780 X150.412 Y136.178 E61.11558
G0 F9000 X150.412 Y135.683
G1 F780 X152.226 Y133.868 E61.14099
G0 F9000 X151.731 Y133.868
G1 F780 X150.412 Y135.188 E61.15947
G0 F9000 X150.412 Y134.693
G1 F780 X151.236 Y133.868 E61.17102
G0 F9000 X150.741 Y133.868
G1 F780 X150.412 Y134.198 E61.17563
G0 F9000 X153.376 Y134.698
G1 F780 X150.412 Y137.663 E61.21715
G0 F9000 X152.906 Y138.056
G1 F780 X154.584 Y139.734 E61.24065
G0 F9000 X154.583 Y139.752
G1 F780 X152.906 Y140.202 E61.25784
G0 F9000 X153.376 Y140.143
G1 F780 X152.387 Y141.132 E61.2717
G0 F9000 X151.892 Y141.132
G1 F780 X153.376 Y139.648 E61.29248
G0 F9000 X153.741 Y139.778
G1 F780 X154.584 Y138.935 E61.30428
G0 F9000 X154.584 Y138.44
G1 F780 X153.741 Y139.283 E61.31609
G0 F9000 X153.376 Y139.153
G1 F780 X151.397 Y141.132 E61.34381
G0 F9000 X150.902 Y141.132
G1 F780 X153.376 Y138.658 E61.37845
G0 F9000 X153.741 Y138.788
G1 F780 X154.584 Y137.945 E61.39026
G0 F9000 X153.741 Y136.808
G1 F780 X154.584 Y135.966 E61.40206
G0 F9000 X153.741 Y134.828
G1 F780 X154.584 Y133.986 E61.41386
G0 F9000 X154.206 Y133.868
G1 F780 X153.741 Y134.334 E61.42038
G0 F9000 X154.584 Y139.43
G1 F780 X153.741 Y140.273 E61.43218
G0 F9000 X153.741 Y140.768
G1 F780 X154.584 Y139.925 E61.44399
G0 F9000 X154.584 Y139.798
G1 F780 X154.227 Y141.131 E61.45766
G0 F9000 X154.367 Y141.132
G1 F780 X154.584 Y140.915 E61.4607
G0 F9000 X154.584 Y140.42
G1 F780 X153.872 Y141.132 E61.47067
G0 F9000 X153.376 Y140.638
G1 F780 X152.882 Y141.132 E61.47759
G0 F9000 X159.674 Y142.704
; TYPE:SUPPORT
G1 F780 X160.531 Y143.561 E61.48959
G0 F9000 X160.531 Y143.401
G0 X162.335 Y141.28
G0 X162.335 Y141.28
G0 X162.493 Y141.28
G1 F780 X159.674 Y138.461 E61.52907
G0 F9000 X159.835 Y138.461
G0 X162.335 Y137.038
G0 X162.335 Y137.038
G0 X162.494 Y137.038
G1 F780 X159.674 Y134.218 E61.56856
G0 F9000 X159.835 Y134.218
G0 X162.139 Y132.601
G0 X162.139 Y132.601
G0 X162.139 Y132.441
G1 F780 X162.494 Y132.796 E61.57353
G0 F9000 X153.094 Y131.881
G1 F780 X148.654 Y127.441 E61.63572
G0 F9000 X148.654 Y127.601
G0 X145.035 Y127.903
G0 X145.035 Y127.903
G0 X144.874 Y127.903
G1 F780 X149.209 Y132.238 E61.69643
G0 F9000 X149.209 Y132.079
G0 X144.966 Y132.079
G0 X144.966 Y132.079
G0 X144.966 Y132.238
G1 F780 X144.874 Y132.146 E61.69771
G0 F9000 X147.004 Y142.762
G1 F780 X151.69 Y147.448 E61.76334
G0 F9000 X151.671 Y147.289
G0 X152.935 Y144.608
G0 X152.935 Y144.608
G0 X153.094 Y144.608
G1 F780 X151.247 Y142.762 E61.7892
G0 F9000 X151.247 Y142.922
G0 X147.56 Y147.401
G0 X147.56 Y147.401
G0 X147.56 Y147.56
G1 F780 X144.874 Y144.874 E61.82682
G0 F9000 X138.294 Y142.537
G1 F780 X135.874 Y140.117 E61.86071
G0 F9000 X136.035 Y140.117
G0 X138.135 Y138.294
G0 X138.135 Y138.294
G0 X138.294 Y138.294
G1 F780 X135.473 Y135.473 E61.90022
G0 F9000 X135.635 Y135.473
G0 X135.635 Y138.901
G0 X136.476 Y138.96
G0 X135.635 Y143.959
G0 X135.474 Y143.959
G1 F780 X136.675 Y145.16 E61.91704
G0 F9000 X138.204 Y133.961
G1 F780 X135.473 Y131.231 E61.95528
; LAYER:12
G0 F9000 X142.674 Y133.351 Z2.65
; TYPE:WALL-INNER
G1 F720 X147.068 Y133.351 E61.99879
G1 X147.068 Y141.65 E62.08098
G1 X142.674 Y141.65 E62.12449
G1 X142.674 Y133.351 E62.20668
G0 F9000 X143.024 Y133.701
G1 F720 X146.718 Y133.701 E62.24326
G1 X146.718 Y141.3 E62.31851
G1 X143.024 Y141.3 E62.35509
G1 X143.024 Y133.701 E62.43034
G0 F9000 X142.324 Y133.001
; TYPE:WALL-OUTER
G1 F600 X147.418 Y133.001 E62.48079
G1 X147.418 Y142 E62.56991
G1 X142.324 Y142 E62.62035
G1 X142.324 Y133.001 E62.70947
G0 F9000 X143.22 Y133.815
; TYPE:FILL
G1 F720 X143.98 Y134.575 E62.72011
G0 F9000 X144.318 Y134.418
G1 F720 X146.602 Y136.702 E62.7521
G0 F9000 X146.602 Y136.207
G1 F720 X144.318 Y133.923 E62.78409
G0 F9000 X143.98 Y134.08
G1 F720 X143.715 Y133.816 E62.78779
G0 F9000 X143.715 Y133.815
G1 F720 X144.788 Y134.889 E62.80283
G0 F9000 X144.788 Y135.13
G1 F720 X143.138 Y135.572 E62.81974
G0 F9000 X143.138 Y135.713
G1 F720 X143.98 Y136.555 E62.83154
G0 F9000 X144.318 Y136.398
G1 F720 X146.602 Y138.682 E62.86352
G0 F9000 X146.602 Y138.187
G1 F720 X144.318 Y135.903 E62.89551
G0 F9000 X143.98 Y136.06
G1 F720 X143.138 Y135.218 E62.9073
G0 F9000 X143.138 Y134.723
G1 F720 X143.98 Y135.565 E62.91909
G0 F9000 X144.318 Y135.408
G1 F720 X146.602 Y137.692 E62.95108
G0 F9000 X146.602 Y137.197
G1 F720 X144.318 Y134.913 E62.98307
G0 F9000 X143.98 Y135.07
G1 F720 X143.138 Y134.228 E62.99486
G0 F9000 X144.705 Y133.816
G1 F720 X146.602 Y135.712 E63.02142
G0 F9000 X146.602 Y135.217
G1 F720 X145.2 Y133.816 E63.04105
G0 F9000 X145.695 Y133.816
G1 F720 X146.602 Y134.722 E63.05374
G0 F9000 X146.602 Y134.227
G1 F720 X146.19 Y133.816 E63.05951
G0 F9000 X144.788 Y135.789
G1 F720 X143.343 Y141.184 E63.11482
G0 F9000 X143.165 Y141.185
G1 F720 X143.138 Y141.158 E63.1152
G0 F9000 X143.138 Y140.663
G1 F720 X143.659 Y141.184 E63.12249
G0 F9000 X143.98 Y141.01
G1 F720 X143.138 Y140.168 E63.13428
G0 F9000 X143.138 Y139.673
G1 F720 X143.98 Y140.515 E63.14608
G0 F9000 X144.318 Y140.358
G1 F720 X145.144 Y141.184 E63.15764
G0 F9000 X145.639 Y141.184
G1 F720 X144.318 Y139.863 E63.17614
G0 F9000 X143.98 Y140.02
G1 F720 X143.138 Y139.178 E63.18794
G0 F9000 X143.138 Y139.195
G1 F720 X144.788 Y138.753 E63.20485
G0 F9000 X144.318 Y138.873
G1 F720 X146.602 Y141.157 E63.23684
G0 F9000 X146.134 Y141.184
G1 F720 X144.318 Y139.368 E63.26227
G0 F9000 X143.98 Y139.525
G1 F720 X143.138 Y138.683 E63.27406
G0 F9000 X143.138 Y138.188
G1 F720 X143.98 Y139.03 E63.28586
G0 F9000 X143.98 Y138.535
G1 F720 X143.138 Y137.693 E63.29765
G0 F9000 X143.138 Y137.198
G1 F720 X143.98 Y138.04 E63.30944
G0 F9000 X144.318 Y137.883
G1 F720 X146.602 Y140.167 E63.34143
G0 F9000 X146.602 Y139.672
G1 F720 X144.318 Y137.388 E63.37342
G0 F9000 X143.98 Y137.545
G1 F720 X143.138 Y136.703 E63.38521
G0 F9000 X143.138 Y136.208
G1 F720 X143.98 Y137.05 E63.397
G0 F9000 X144.318 Y136.893
G1 F720 X146.602 Y139.177 E63.42899
G0 F9000 X146.602 Y140.662
G1 F720 X144.318 Y138.378 E63.46097
G0 F9000 X143.138 Y138.188
G1 F720 X144.788 Y139.838 E63.48408
G0 F9000 X144.318 Y140.853
G1 F720 X144.649 Y141.184 E63.48872
G1 F1800 E60.48872
G1 Z3.65
G0 F9000 X150.955 Y141.65
; TYPE:WALL-INNER
G1 Z2.65
G1 F1800 E63.48872
G1 F720 X150.955 Y133.351 E63.5709
G1 X155.349 Y133.351 E63.61442
G1 X155.349 Y141.65 E63.6966
G1 X150.955 Y141.65 E63.74012
G0 F9000 X151.305 Y141.3
G1 F720 X151.305 Y133.701 E63.81537
G1 X154.999 Y133.701 E63.85195
G1 X154.999 Y141.3 E63.9272
G1 X151.305 Y141.3 E63.96378
G0 F9000 X150.605 Y142
; TYPE:WALL-OUTER
G1 F600 X150.605 Y133.001 E64.0529
G1 X155.699 Y133.001 E64.10335
G1 X155.699 Y142 E64.19246
G1 X150.605 Y142 E64.24291
G0 F9000 X151.578 Y141.184
; TYPE:FILL
G1 F720 X151.419 Y141.024 E64.24514
G0 F9000 X151.419 Y140.529
G1 F720 X152.073 Y141.184 E64.25431
G0 F9000 X152.569 Y141.185
G1 F720 X151.419 Y140.034 E64.27042
G0 F9000 X151.419 Y139.539
G1 F720 X153.064 Y141.185 E64.29347
G0 F9000 X153.559 Y141.185
G1 F720 X151.419 Y139.044 E64.32344
G0 F9000 X151.419 Y138.549
G1 F720 X153.703 Y140.834 E64.35544
G0 F9000 X154.041 Y140.677
G1 F720 X154.549 Y141.185 E64.36255
G0 F9000 X154.213 Y141.184
G1 F720 X154.883 Y138.684 E64.38818
G0 F9000 X154.883 Y138.549
G1 F720 X154.041 Y137.707 E64.39998
G0 F9000 X153.703 Y137.864
G1 F720 X151.419 Y135.579 E64.43197
G0 F9000 X151.419 Y135.084
G1 F720 X153.703 Y137.368 E64.46396
G0 F9000 X154.041 Y137.211
G1 F720 X154.883 Y138.054 E64.47576
G0 F9000 X154.883 Y137.559
G1 F720 X154.041 Y136.716 E64.48756
G0 F9000 X153.703 Y136.873
G1 F720 X151.419 Y134.589 E64.51954
G0 F9000 X151.419 Y134.095
G1 F720 X153.703 Y136.378 E64.55152
G0 F9000 X154.041 Y136.222
G1 F720 X154.883 Y137.064 E64.56332
G0 F9000 X154.883 Y136.569
G1 F720 X154.041 Y135.727 E64.57511
G0 F9000 X153.703 Y135.884
G1 F720 X151.635 Y133.816 E64.60407
G0 F9000 X152.13 Y133.816
G1 F720 X153.703 Y135.389 E64.6261
G0 F9000 X154.041 Y135.232
G1 F720 X154.883 Y136.074 E64.63789
G0 F9000 X154.883 Y136.048
G1 F720 X153.233 Y136.49 E64.65481
G0 F9000 X153.703 Y134.894
G1 F720 X152.625 Y133.816 E64.66991
G0 F9000 X153.12 Y133.816
G1 F720 X153.703 Y134.399 E64.67807
G0 F9000 X154.041 Y134.242
G1 F720 X154.883 Y135.084 E64.68986
G0 F9000 X154.883 Y135.084
G1 F720 X153.615 Y133.816 E64.70762
G0 F9000 X153.615 Y133.816
G1 F720 X153.703 Y133.904 E64.70885
G0 F9000 X154.11 Y133.816
G1 F720 X154.883 Y134.589 E64.71968
G0 F9000 X154.883 Y134.094
G1 F720 X154.604 Y133.815 E64.72359
G0 F9000 X154.041 Y134.737
G1 F720 X154.883 Y135.579 E64.73538
G0 F9000 X154.041 Y138.202
G1 F720 X154.883 Y139.044 E64.74717
G0 F9000 X154.883 Y139.539
G1 F720 X154.041 Y138.697 E64.75896
G0 F9000 X153.703 Y138.854
G1 F720 X151.419 Y136.569 E64.79096
G0 F9000 X151.419 Y136.074
G1 F720 X153.703 Y138.359 E64.82295
G0 F9000 X153.232 Y138.383
G1 F720 X154.883 Y140.034 E64.84607
G0 F9000 X154.883 Y140.034
G1 F720 X154.041 Y139.192 E64.85787
G0 F9000 X153.703 Y139.349
G1 F720 X151.419 Y137.064 E64.88986
G0 F9000 X151.419 Y137.559
G1 F720 X153.703 Y139.844 E64.92185
G0 F9000 X154.041 Y139.687
G1 F720 X154.883 Y140.528 E64.93364
G0 F9000 X154.883 Y141.023
G1 F720 X154.041 Y140.182 E64.94542
G0 F9000 X153.703 Y140.339
G1 F720 X151.419 Y138.054 E64.97742
G0 F9000 X153.233 Y140.114
G1 F720 X154.883 Y139.672 E64.99433
G0 F9000 X154.041 Y141.172
G1 F720 X154.054 Y141.185 E64.99452
G0 F9000 X138.204 Y133.961
; TYPE:SUPPORT
G1 F720 X135.473 Y131.231 E65.03276
G0 F9000 X135.473 Y135.473
G1 F720 X138.294 Y138.294 E65.07226
G0 F9000 X138.135 Y138.294
G0 X136.035 Y140.117
G0 X136.035 Y140.117
G0 X135.874 Y140.117
G1 F720 X138.294 Y142.537 E65.10616
G0 F9000 X138.135 Y142.537
G0 X136.675 Y145.001
G0 X136.675 Y145.001
G0 X136.675 Y145.16
G1 F720 X135.474 Y143.959 E65.12298
G0 F9000 X144.913 Y132.185
G1 F720 X144.874 Y132.146 E65.12352
G0 F9000 X145.035 Y132.116
G0 X145.035 Y127.903
G0 X145.035 Y127.903
G0 X144.874 Y127.903
G1 F720 X149.789 Y132.818 E65.19236
G0 F9000 X149.63 Y132.818
G0 X149.537 Y132.843
G0 X149.589 Y131.985
G0 X152.935 Y131.881
G0 X153.094 Y131.881
G1 F720 X148.654 Y127.441 E65.25454
G0 F9000 X147.057 Y142.815
G1 F720 X151.69 Y147.448 E65.31942
G0 F9000 X151.671 Y147.289
G0 X152.935 Y144.608
G0 X152.935 Y144.608
G0 X153.094 Y144.608
G1 F720 X151.299 Y142.814 E65.34456
G0 F9000 X151.299 Y142.975
G0 X147.56 Y147.401
G0 X147.56 Y147.401
G0 X147.56 Y147.56
G1 F720 X144.874 Y144.874 E65.38217
G0 F9000 X159.674 Y142.704
G1 F720 X160.531 Y143.561 E65.39417
G0 F9000 X160.531 Y143.401
G0 X162.335 Y141.28
G0 X162.335 Y141.28
G0 X162.493 Y141.28
G1 F720 X159.674 Y138.461 E65.43365
G0 F9000 X159.835 Y138.461
G0 X162.335 Y137.038
G0 X162.335 Y137.038
G0 X162.494 Y137.038
G1 F720 X159.674 Y134.218 E65.47315
G0 F9000 X159.835 Y134.218
G0 X162.139 Y132.601
G0 X162.139 Y132.601
G0 X162.139 Y132.441
G1 F720 X162.494 Y132.796 E65.47812
; LAYER:13
G0 F9000 X146.062 Y133.298 Z2.85
; TYPE:WALL-INNER
G1 F720 X146.062 Y141.703 E65.56135
G1 X142.374 Y141.703 E65.59788
G1 X142.374 Y133.298 E65.68111
G1 X146.062 Y133.298 E65.71763
G0 F9000 X145.712 Y133.648
G1 F720 X145.712 Y141.353 E65.79394
G1 X142.724 Y141.353 E65.82353
G1 X142.724 Y133.648 E65.89983
G1 X145.712 Y133.648 E65.92942
G0 F9000 X146.412 Y132.948
; TYPE:WALL-OUTER
G1 F600 X146.412 Y142.053 E66.01959
G1 X142.024 Y142.053 E66.06304
G1 X142.024 Y132.948 E66.15321
G1 X146.412 Y132.948 E66.19666
G0 F9000 X145.402 Y133.763
; TYPE:FILL
G1 F720 X144.019 Y135.146 E66.21603
G0 F9000 X143.681 Y134.989
G1 F720 X142.838 Y135.832 E66.22784
G0 F9000 X142.838 Y135.652
G1 F720 X144.489 Y135.21 E66.24476
G0 F9000 X144.489 Y134.589
G1 F720 X143.662 Y133.763 E66.25634
G0 F9000 X143.681 Y133.999
G1 F720 X142.838 Y134.842 E66.26814
G0 F9000 X142.838 Y134.347
G1 F720 X143.422 Y133.763 E66.27632
G0 F9000 X142.927 Y133.763
G1 F720 X142.838 Y133.852 E66.27757
G0 F9000 X143.681 Y134.494
G1 F720 X142.838 Y135.337 E66.28937
G0 F9000 X143.681 Y135.484
G1 F720 X142.838 Y136.327 E66.30118
G0 F9000 X142.838 Y136.822
G1 F720 X143.681 Y135.979 E66.31299
G0 F9000 X144.019 Y136.136
G1 F720 X145.596 Y134.559 E66.33507
G0 F9000 X145.596 Y134.064
G1 F720 X144.019 Y135.641 E66.35716
G0 F9000 X143.681 Y136.474
G1 F720 X142.838 Y137.317 E66.36896
G0 F9000 X142.838 Y137.812
G1 F720 X143.681 Y136.969 E66.38077
G0 F9000 X144.019 Y137.126
G1 F720 X145.596 Y135.549 E66.40286
G0 F9000 X145.596 Y135.054
G1 F720 X144.019 Y136.631 E66.42494
G0 F9000 X144.489 Y136.904
G1 F720 X143.329 Y141.236 E66.46935
G0 F9000 X143.372 Y141.237
G1 F720 X143.681 Y140.929 E66.47367
G0 F9000 X144.019 Y141.086
G1 F720 X145.596 Y139.509 E66.49576
G0 F9000 X145.596 Y139.014
G1 F720 X144.019 Y140.591 E66.51784
G0 F9000 X143.681 Y140.434
G1 F720 X142.877 Y141.237 E66.5291
G0 F9000 X142.838 Y140.782
G1 F720 X143.681 Y139.939 E66.5409
G0 F9000 X144.019 Y140.096
G1 F720 X145.596 Y138.519 E66.56299
G0 F9000 X145.596 Y138.024
G1 F720 X144.019 Y139.601 E66.58507
G0 F9000 X143.681 Y139.444
G1 F720 X142.838 Y140.287 E66.59688
G0 F9000 X142.838 Y139.792
G1 F720 X143.681 Y138.949 E66.60869
G0 F9000 X144.019 Y139.106
G1 F720 X145.596 Y137.529 E66.63077
G0 F9000 X145.596 Y137.034
G1 F720 X144.019 Y138.611 E66.65286
G0 F9000 X143.681 Y138.454
G1 F720 X142.838 Y139.297 E66.66466
G0 F9000 X142.838 Y139.276
G1 F720 X144.489 Y138.834 E66.68159
G0 F9000 X144.489 Y139.539
G1 F720 X142.838 Y137.888 E66.70471
G0 F9000 X142.838 Y138.307
G1 F720 X143.681 Y137.464 E66.71652
G0 F9000 X144.019 Y137.621
G1 F720 X145.596 Y136.044 E66.7386
G0 F9000 X145.596 Y136.539
G1 F720 X144.019 Y138.116 E66.76069
G0 F9000 X143.681 Y137.959
G1 F720 X142.838 Y138.802 E66.7725
G0 F9000 X144.362 Y141.237
G1 F720 X145.596 Y140.004 E66.78977
G0 F9000 X145.596 Y140.499
G1 F720 X144.857 Y141.237 E66.80011
G0 F9000 X145.352 Y141.237
G1 F720 X145.596 Y140.994 E66.80352
G0 F9000 X144.019 Y134.651
G1 F720 X144.907 Y133.763 E66.81596
G0 F9000 X144.412 Y133.763
G1 F720 X144.019 Y134.156 E66.82146
G1 F1800 E63.82146
G1 Z3.85
G0 F9000 X151.961 Y133.298
; TYPE:WALL-INNER
G1 Z2.85
G1 F1800 E66.82146
G1 F720 X155.649 Y133.298 E66.85799
G1 X155.649 Y141.703 E66.94122
G1 X151.961 Y141.703 E66.97774
G1 X151.961 Y133.298 E67.06098
G0 F9000 X152.311 Y133.648
G1 F720 X155.299 Y133.648 E67.09057
G1 X155.299 Y141.353 E67.16687
G1 X152.311 Y141.353 E67.19646
G1 X152.311 Y133.648 E67.27276
G0 F9000 X151.611 Y132.948
; TYPE:WALL-OUTER
G1 F600 X155.999 Y132.948 E67.31622
G1 X155.999 Y142.053 E67.40638
G1 X151.611 Y142.053 E67.44984
G1 X151.611 Y132.948 E67.54
G0 F9000 X152.826 Y133.763
; TYPE:FILL
G1 F720 X152.425 Y134.165 E67.54563
G0 F9000 X152.425 Y134.66
G1 F720 X153.321 Y133.763 E67.55818
G0 F9000 X153.561 Y133.762
G1 F720 X155.183 Y135.384 E67.5809
G0 F9000 X155.183 Y135.367
G1 F720 X154.34 Y136.209 E67.5927
G0 F9000 X154.002 Y136.053
G1 F720 X152.425 Y137.629 E67.61478
G0 F9000 X152.425 Y137.134
G1 F720 X154.002 Y135.558 E67.63686
G0 F9000 X154.34 Y135.715
G1 F720 X155.183 Y134.872 E67.64866
G0 F9000 X155.183 Y134.377
G1 F720 X154.34 Y135.22 E67.66047
G0 F9000 X154.002 Y135.063
G1 F720 X152.425 Y136.639 E67.68255
G0 F9000 X152.425 Y136.144
G1 F720 X154.002 Y134.568 E67.70463
G0 F9000 X154.34 Y134.725
G1 F720 X155.183 Y133.882 E67.71643
G0 F9000 X154.806 Y133.763
G1 F720 X154.34 Y134.23 E67.72296
G0 F9000 X154.002 Y134.073
G1 F720 X152.425 Y135.649 E67.74504
G0 F9000 X152.425 Y135.154
G1 F720 X153.816 Y133.763 E67.76452
G0 F9000 X155.183 Y135.862
G1 F720 X154.34 Y136.704 E67.77632
G0 F9000 X154.002 Y136.547
G1 F720 X152.425 Y138.124 E67.79841
G0 F9000 X152.425 Y138.619
G1 F720 X154.002 Y137.042 E67.8205
G0 F9000 X154.34 Y137.199
G1 F720 X155.183 Y136.357 E67.83229
G0 F9000 X155.183 Y135.968
G1 F720 X153.532 Y136.411 E67.84922
G0 F9000 X154.002 Y137.537
G1 F720 X152.425 Y139.114 E67.87131
G0 F9000 X152.425 Y139.609
G1 F720 X154.002 Y138.032 E67.89339
G0 F9000 X154.34 Y138.189
G1 F720 X155.183 Y137.347 E67.90519
G0 F9000 X155.183 Y137.563
G1 F720 X154.199 Y141.237 E67.94286
G0 F9000 X154.34 Y141.159
G1 F720 X155.183 Y140.316 E67.95467
G0 F9000 X155.183 Y140.334
G1 F720 X153.531 Y138.682 E67.9778
G0 F9000 X154.002 Y138.527
G1 F720 X152.425 Y140.104 E67.99989
G0 F9000 X152.425 Y140.599
G1 F720 X154.002 Y139.022 E68.02197
G0 F9000 X154.34 Y139.179
G1 F720 X155.183 Y138.336 E68.03378
G0 F9000 X155.183 Y137.841
G1 F720 X154.34 Y138.684 E68.04559
G0 F9000 X155.183 Y138.831
G1 F720 X154.34 Y139.674 E68.05739
G0 F9000 X154.002 Y139.517
G1 F720 X152.425 Y141.094 E68.07948
G0 F9000 X152.777 Y141.237
G1 F720 X154.002 Y140.012 E68.09663
G0 F9000 X154.34 Y140.169
G1 F720 X155.183 Y139.326 E68.10844
G0 F9000 X155.183 Y139.591
G1 F720 X153.532 Y140.034 E68.12537
G0 F9000 X154.002 Y140.507
G1 F720 X153.272 Y141.237 E68.13559
G0 F9000 X153.767 Y141.237
G1 F720 X154.002 Y141.002 E68.13888
G0 F9000 X154.34 Y140.664
G1 F720 X155.183 Y139.821 E68.15069
G0 F9000 X155.183 Y140.811
G1 F720 X154.757 Y141.237 E68.15665
G0 F9000 X154.34 Y137.694
G1 F720 X155.183 Y136.852 E68.16845
G0 F9000 X159.674 Y138.461
; TYPE:SUPPORT
G1 F720 X162.493 Y141.28 E68.20793
G0 F9000 X162.335 Y141.28
G0 X160.531 Y143.401
G0 X160.531 Y143.401
G0 X160.531 Y143.561
G1 F720 X159.674 Y142.704 E68.21994
G0 F9000 X159.835 Y142.704
G0 X162.335 Y137.038
G0 X162.335 Y137.038
G0 X162.494 Y137.038
G1 F720 X159.674 Y134.218 E68.25943
G0 F9000 X159.835 Y134.218
G0 X162.139 Y132.601
G0 X162.139 Y132.601
G0 X162.139 Y132.441
G1 F720 X162.494 Y132.796 E68.2644
G0 F9000 X153.094 Y131.881
G1 F720 X148.654 Y127.441 E68.32658
G0 F9000 X148.654 Y127.601
G0 X145.035 Y127.903
G0 X145.035 Y127.903
G0 X144.874 Y127.903
G1 F720 X150.531 Y133.561 E68.40582
G0 F9000 X149.926 Y141.441
G1 F720 X150.794 Y142.309 E68.41797
G0 F9000 X151.353 Y142.868
G1 F720 X153.094 Y144.608 E68.44235
G0 F9000 X152.935 Y144.608
G0 X151.671 Y147.289
G0 X151.671 Y147.289
G0 X151.69 Y147.448
G1 F720 X147.11 Y142.868 E68.50649
G0 F9000 X147.11 Y143.028
G0 X145.035 Y144.874
G0 X145.035 Y144.874
G0 X144.874 Y144.874
G1 F720 X147.56 Y147.56 E68.54411
G0 F9000 X138.294 Y142.537
G1 F720 X135.874 Y140.117 E68.578
G0 F9000 X136.035 Y140.117
G0 X138.135 Y138.294
G0 X138.135 Y138.294
G0 X138.294 Y138.294
G1 F720 X135.473 Y135.473 E68.61751
G0 F9000 X135.635 Y135.473
G0 X135.635 Y138.901
G0 X136.476 Y138.96
G0 X135.635 Y143.959
G0 X135.474 Y143.959
G1 F720 X136.675 Y145.16 E68.63433
G0 F9000 X138.204 Y133.961
G1 F720 X135.473 Y131.231 E68.67257
; LAYER:14
G0 F9000 X142.075 Y133.245 Z3.05
; TYPE:WALL-INNER
G1 F720 X145.056 Y133.245 E68.70209
G1 X145.056 Y141.756 E68.78637
G1 X142.075 Y141.756 E68.81589
G1 X142.075 Y133.245 E68.90018
G0 F9000 X142.425 Y133.595
G1 F720 X144.706 Y133.595 E68.92277
G1 X144.706 Y141.406 E69.00012
G1 X142.425 Y141.406 E69.02271
G1 X142.425 Y133.595 E69.10006
G0 F9000 X141.725 Y132.895
; TYPE:WALL-OUTER
G1 F600 X145.406 Y132.895 E69.13651
G1 X145.406 Y142.106 E69.22773
G1 X141.725 Y142.106 E69.26418
G1 X141.725 Y132.895 E69.3554
G0 F9000 X142.619 Y133.71
; TYPE:FILL
G1 F720 X143.382 Y134.472 E69.36608
G0 F9000 X143.72 Y134.315
G1 F720 X144.59 Y135.186 E69.37827
G0 F9000 X144.589 Y135.183
G1 F720 X142.539 Y135.733 E69.39929
G0 F9000 X142.539 Y135.609
G1 F720 X143.382 Y136.452 E69.41109
G0 F9000 X143.72 Y136.295
G1 F720 X144.59 Y137.165 E69.42328
G0 F9000 X144.59 Y136.671
G1 F720 X143.72 Y135.8 E69.43547
G0 F9000 X143.382 Y135.957
G1 F720 X142.539 Y135.114 E69.44727
G0 F9000 X142.539 Y134.619
G1 F720 X143.382 Y135.462 E69.45908
G0 F9000 X143.72 Y135.305
G1 F720 X144.59 Y136.176 E69.47127
G0 F9000 X144.59 Y136.529
G1 F720 X143.314 Y141.289 E69.52007
G0 F9000 X143.27 Y141.29
G1 F720 X142.539 Y140.559 E69.53031
G0 F9000 X142.539 Y140.064
G1 F720 X143.382 Y140.907 E69.54212
G0 F9000 X143.72 Y140.75
G1 F720 X144.261 Y141.291 E69.54969
G0 F9000 X144.59 Y141.125
G1 F720 X143.72 Y140.255 E69.56188
G0 F9000 X143.382 Y140.412
G1 F720 X142.539 Y139.569 E69.57369
G0 F9000 X142.54 Y139.356
G1 F720 X144.59 Y138.806 E69.5947
G0 F9000 X144.59 Y138.65
G1 F720 X143.72 Y137.78 E69.60689
G0 F9000 X143.382 Y137.937
G1 F720 X142.539 Y137.094 E69.61869
G0 F9000 X142.539 Y136.599
G1 F720 X143.382 Y137.442 E69.6305
G0 F9000 X143.72 Y137.285
G1 F720 X144.59 Y138.155 E69.64269
G0 F9000 X144.59 Y137.66
G1 F720 X143.72 Y136.79 E69.65487
G0 F9000 X143.382 Y136.947
G1 F720 X142.539 Y136.104 E69.66668
G0 F9000 X143.382 Y134.967
G1 F720 X142.539 Y134.124 E69.67848
G0 F9000 X143.114 Y133.71
G1 F720 X143.382 Y133.977 E69.68223
G0 F9000 X143.609 Y133.709
G1 F720 X144.59 Y134.691 E69.69597
G0 F9000 X144.59 Y134.691
G1 F720 X143.72 Y133.82 E69.70817
G0 F9000 X144.104 Y133.71
G1 F720 X144.59 Y134.196 E69.71497
G0 F9000 X143.72 Y134.81
G1 F720 X144.59 Y135.681 E69.72716
G0 F9000 X143.72 Y138.275
G1 F720 X144.59 Y139.145 E69.73935
G0 F9000 X144.59 Y139.64
G1 F720 X143.72 Y138.77 E69.75153
G0 F9000 X143.382 Y138.927
G1 F720 X142.539 Y138.084 E69.76334
G0 F9000 X142.539 Y137.589
G1 F720 X143.382 Y138.432 E69.77514
G0 F9000 X142.539 Y138.579
G1 F720 X143.382 Y139.422 E69.78695
G0 F9000 X143.72 Y139.265
G1 F720 X144.59 Y140.135 E69.79913
G0 F9000 X144.59 Y140.63
G1 F720 X143.72 Y139.76 E69.81132
G0 F9000 X143.382 Y139.917
G1 F720 X142.539 Y139.074 E69.82312
G0 F9000 X142.539 Y137.589
G1 F720 X144.59 Y139.64 E69.85185
G0 F9000 X143.72 Y141.245
G1 F720 X143.765 Y141.29 E69.85248
G0 F9000 X142.775 Y141.29
G1 F720 X142.539 Y141.054 E69.85578
G1 F1800 E66.85578
G1 Z4.05
G0 F9000 X152.967 Y141.756
; TYPE:WALL-INNER
G1 Z3.05
G1 F1800 E69.85578
G1 F720 X152.967 Y133.245 E69.94007
G1 X155.948 Y133.245 E69.96959
G1 X155.948 Y141.756 E70.05387
G1 X152.967 Y141.756 E70.08339
G0 F9000 X153.317 Y141.406
G1 F720 X153.317 Y133.595 E70.16075
G1 X155.598 Y133.595 E70.18333
G1 X155.598 Y141.406 E70.26069
G1 X153.317 Y141.406 E70.28328
G0 F9000 X152.617 Y142.106
; TYPE:WALL-OUTER
G1 F600 X152.617 Y132.895 E70.37449
G1 X156.298 Y132.895 E70.41094
G1 X156.298 Y142.106 E70.50216
G1 X152.617 Y142.106 E70.53861
G0 F9000 X153.665 Y141.291
; TYPE:FILL
G1 F720 X153.43 Y141.056 E70.5419
G0 F9000 X153.43 Y140.561
G1 F720 X154.159 Y141.29 E70.55211
G0 F9000 X154.185 Y141.29
G1 F720 X155.482 Y136.448 E70.60176
G0 F9000 X155.482 Y136.673
G1 F720 X154.639 Y135.83 E70.61356
G0 F9000 X154.301 Y135.987
G1 F720 X153.431 Y135.117 E70.62575
G0 F9000 X153.431 Y134.622
G1 F720 X154.301 Y135.492 E70.63793
G0 F9000 X154.639 Y135.335
G1 F720 X155.482 Y136.178 E70.64974
G0 F9000 X155.482 Y135.888
G1 F720 X153.431 Y136.437 E70.67076
G0 F9000 X153.431 Y136.602
G1 F720 X154.301 Y137.472 E70.68295
G0 F9000 X154.639 Y137.315
G1 F720 X155.482 Y138.158 E70.69475
G0 F9000 X155.482 Y137.663
G1 F720 X154.639 Y136.82 E70.70656
G0 F9000 X154.301 Y136.977
G1 F720 X153.431 Y136.107 E70.71874
G0 F9000 X153.431 Y135.612
G1 F720 X154.301 Y136.482 E70.73093
G0 F9000 X154.639 Y136.325
G1 F720 X155.482 Y137.168 E70.74273
G0 F9000 X154.639 Y137.81
G1 F720 X155.482 Y138.653 E70.75454
G0 F9000 X155.482 Y139.148
G1 F720 X154.639 Y138.305 E70.76635
G0 F9000 X154.301 Y138.462
G1 F720 X153.43 Y137.591 E70.77854
G0 F9000 X153.431 Y137.097
G1 F720 X154.301 Y137.967 E70.79073
G0 F9000 X153.43 Y138.086
G1 F720 X154.301 Y138.957 E70.80293
G0 F9000 X154.639 Y138.8
G1 F720 X155.482 Y139.642 E70.81473
G0 F9000 X155.482 Y139.511
G1 F720 X153.431 Y140.061 E70.83575
G0 F9000 X153.43 Y140.066
G1 F720 X154.301 Y140.936 E70.84795
G0 F9000 X154.639 Y140.78
G1 F720 X155.149 Y141.29 E70.85509
G0 F9000 X155.482 Y141.127
G1 F720 X154.639 Y140.285 E70.86689
G0 F9000 X154.301 Y140.442
G1 F720 X153.43 Y139.571 E70.87909
G0 F9000 X153.43 Y139.076
G1 F720 X154.301 Y139.947 E70.89128
G0 F9000 X154.639 Y139.79
G1 F720 X155.482 Y140.632 E70.90308
G0 F9000 X155.482 Y140.632
G1 F720 X153.43 Y138.581 E70.93181
G0 F9000 X153.43 Y138.581
G1 F720 X154.301 Y139.452 E70.94401
G0 F9000 X154.639 Y139.295
G1 F720 X155.482 Y140.137 E70.95581
G0 F9000 X154.639 Y141.274
G1 F720 X154.654 Y141.29 E70.95603
G0 F9000 X155.482 Y135.683
G1 F720 X154.639 Y134.84 E70.96783
G0 F9000 X154.301 Y134.997
G1 F720 X153.431 Y134.127 E70.98002
G0 F9000 X153.509 Y133.71
G1 F720 X154.301 Y134.502 E70.99111
G0 F9000 X154.639 Y134.345
G1 F720 X155.482 Y135.188 E71.00292
G0 F9000 X155.482 Y134.693
G1 F720 X154.639 Y133.85 E71.01472
G0 F9000 X154.301 Y134.007
G1 F720 X154.004 Y133.71 E71.01888
G0 F9000 X153.509 Y133.71
G1 F720 X155.482 Y135.683 E71.04651
G0 F9000 X155.482 Y134.198
G1 F720 X154.994 Y133.71 E71.05335
G0 F9000 X138.204 Y133.961
; TYPE:SUPPORT
G1 F720 X135.473 Y131.231 E71.09159
G0 F9000 X135.473 Y135.473
G1 F720 X138.294 Y138.294 E71.1311
G0 F9000 X138.135 Y138.294
G0 X136.035 Y140.117
G0 X136.035 Y140.117
G0 X135.874 Y140.117
G1 F720 X138.294 Y142.537 E71.16499
G0 F9000 X138.135 Y142.537
G0 X136.675 Y145.001
G0 X136.675 Y145.001
G0 X136.675 Y145.16
G1 F720 X135.474 Y143.959 E71.18181
G0 F9000 X150.531 Y133.561
G1 F720 X144.874 Y127.903 E71.26104
G0 F9000 X145.035 Y127.903
G0 X148.654 Y127.601
G0 X148.654 Y127.601
G0 X148.654 Y127.441
G1 F720 X153.094 Y131.881 E71.32322
G0 F9000 X149.926 Y141.441
G1 F720 X153.094 Y144.608 E71.36758
G0 F9000 X152.935 Y144.608
G0 X151.671 Y147.289
G0 X151.671 Y147.289
G0 X151.69 Y147.448
G1 F720 X146.22 Y141.977 E71.4442
G0 F9000 X146.381 Y141.977
G0 X146.365 Y142.01
G0 X146.422 Y143.122
G0 X145.035 Y144.874
G0 X144.874 Y144.874
G1 F720 X147.56 Y147.56 E71.48182
G0 F9000 X159.674 Y142.704
G1 F720 X160.531 Y143.561 E71.49382
G0 F9000 X160.531 Y143.401
G0 X162.335 Y141.28
G0 X162.335 Y141.28
G0 X162.493 Y141.28
G1 F720 X159.674 Y138.461 E71.5333
G0 F9000 X159.835 Y138.461
G0 X162.335 Y137.038
G0 X162.335 Y137.038
G0 X162.494 Y137.038
G1 F720 X159.674 Y134.218 E71.57279
G0 F9000 X159.835 Y134.218
G0 X162.139 Y132.601
G0 X162.139 Y132.601
G0 X162.139 Y132.441
G1 F720 X162.494 Y132.796 E71.57776
; LAYER:15
G0 F9000 X144.729 Y133.192 Z3.25
; TYPE:WALL-INNER
G1 F720 X144.729 Y141.809 E71.6631
G1 X141.776 Y141.809 E71.69234
G1 X141.776 Y133.192 E71.77767
G1 X144.729 Y133.192 E71.80692
G0 F9000 X144.379 Y133.542
G1 F720 X144.379 Y141.459 E71.88532
G1 X142.126 Y141.459 E71.90763
G1 X142.126 Y133.542 E71.98603
G1 X144.379 Y133.542 E72.00834
G0 F9000 X145.079 Y132.842
; TYPE:WALL-OUTER
G1 F600 X145.079 Y142.159 E72.10061
G1 X141.426 Y142.159 E72.13679
G1 X141.426 Y132.842 E72.22905
G1 X145.079 Y132.842 E72.26523
G0 F9000 X144.024 Y133.656
; TYPE:FILL
G1 F720 X143.42 Y134.26 E72.27369
G0 F9000 X143.083 Y134.102
G1 F720 X142.24 Y134.945 E72.28549
G0 F9000 X142.24 Y134.45
G1 F720 X143.033 Y133.657 E72.2966
G0 F9000 X143.42 Y133.765
G1 F720 X143.529 Y133.656 E72.29813
G0 F9000 X143.556 Y133.656
G1 F720 X144.263 Y134.363 E72.30803
G0 F9000 X144.263 Y134.407
G1 F720 X143.42 Y135.25 E72.31983
G0 F9000 X143.083 Y135.092
G1 F720 X142.24 Y135.935 E72.33164
G0 F9000 X142.24 Y135.813
G1 F720 X144.263 Y135.271 E72.35238
G0 F9000 X144.263 Y135.397
G1 F720 X143.42 Y136.24 E72.36419
G0 F9000 X143.083 Y136.082
G1 F720 X142.24 Y136.925 E72.37599
G0 F9000 X142.24 Y137.29
G1 F720 X144.263 Y139.313 E72.40432
G0 F9000 X144.263 Y139.357
G1 F720 X143.42 Y140.2 E72.41613
G0 F9000 X143.083 Y140.042
G1 F720 X142.24 Y140.885 E72.42794
G0 F9000 X142.276 Y141.343
G1 F720 X143.083 Y140.537 E72.43923
G0 F9000 X143.42 Y140.695
G1 F720 X144.263 Y139.852 E72.45104
G0 F9000 X144.263 Y140.347
G1 F720 X143.42 Y141.19 E72.46284
G0 F9000 X143.3 Y141.343
G1 F720 X144.263 Y137.748 E72.4997
G0 F9000 X144.263 Y137.872
G1 F720 X143.42 Y138.715 E72.51151
G0 F9000 X143.083 Y138.557
G1 F720 X142.24 Y139.4 E72.52331
G0 F9000 X142.24 Y139.436
G1 F720 X144.263 Y138.894 E72.54405
G0 F9000 X144.263 Y138.862
G1 F720 X143.42 Y139.705 E72.55586
G0 F9000 X143.083 Y139.547
G1 F720 X142.24 Y140.39 E72.56766
G0 F9000 X142.24 Y139.895
G1 F720 X143.083 Y139.052 E72.57947
G0 F9000 X143.42 Y139.21
G1 F720 X144.263 Y138.367 E72.59128
G0 F9000 X143.42 Y138.22
G1 F720 X144.263 Y137.377 E72.60308
G0 F9000 X144.263 Y136.882
G1 F720 X143.42 Y137.725 E72.61489
G0 F9000 X143.083 Y137.567
G1 F720 X142.24 Y138.41 E72.62669
G0 F9000 X142.24 Y137.915
G1 F720 X143.083 Y137.072 E72.6385
G0 F9000 X143.42 Y137.23
G1 F720 X144.263 Y136.387 E72.65031
G0 F9000 X144.263 Y135.892
G1 F720 X143.42 Y136.735 E72.66211
G0 F9000 X143.083 Y136.577
G1 F720 X142.24 Y137.42 E72.67392
G0 F9000 X142.24 Y136.43
G1 F720 X143.083 Y135.587 E72.68573
G0 F9000 X143.42 Y135.745
G1 F720 X144.263 Y134.902 E72.69753
G0 F9000 X143.42 Y134.755
G1 F720 X144.263 Y133.912 E72.70934
G0 F9000 X143.083 Y134.597
G1 F720 X142.24 Y135.44 E72.72114
G0 F9000 X142.24 Y133.955
G1 F720 X142.538 Y133.657 E72.72532
G0 F9000 X143.083 Y138.062
G1 F720 X142.24 Y138.905 E72.73712
G0 F9000 X143.083 Y141.032
G1 F720 X142.771 Y141.343 E72.74149
G0 F9000 X143.761 Y141.344
G1 F720 X144.263 Y140.842 E72.74852
G0 F9000 X144.263 Y141.337
G1 F720 X144.256 Y141.344 E72.74861
G1 F1800 E69.74861
G1 Z4.25
G0 F9000 X153.294 Y141.809
; TYPE:WALL-INNER
G1 Z3.25
G1 F1800 E72.74861
G1 F720 X153.294 Y133.192 E72.83395
G1 X156.247 Y133.192 E72.86319
G1 X156.247 Y141.809 E72.94853
G1 X153.294 Y141.809 E72.97777
G0 F9000 X153.644 Y141.459
G1 F720 X153.644 Y133.542 E73.05617
G1 X155.897 Y133.542 E73.07848
G1 X155.897 Y141.459 E73.15688
G1 X153.644 Y141.459 E73.1792
G0 F9000 X152.944 Y142.159
; TYPE:WALL-OUTER
G1 F600 X152.944 Y132.842 E73.27146
G1 X156.597 Y132.842 E73.30764
G1 X156.597 Y142.159 E73.3999
G1 X152.944 Y142.159 E73.43608
G0 F9000 X153.758 Y141.246
; TYPE:FILL
G1 F720 X154.601 Y140.403 E73.44789
G0 F9000 X154.938 Y140.561
G1 F720 X155.781 Y139.718 E73.45969
G0 F9000 X155.781 Y139.431
G1 F720 X153.758 Y139.973 E73.48043
G0 F9000 X153.758 Y139.761
G1 F720 X154.601 Y138.918 E73.49224
G0 F9000 X154.938 Y139.076
G1 F720 X155.781 Y138.233 E73.50404
G0 F9000 X155.781 Y137.738
G1 F720 X154.938 Y138.581 E73.51585
G0 F9000 X154.601 Y138.423
G1 F720 X153.758 Y139.266 E73.52766
G0 F9000 X153.758 Y138.909
G1 F720 X155.781 Y140.932 E73.55599
G0 F9000 X155.781 Y140.708
G1 F720 X155.146 Y141.343 E73.56488
G0 F9000 X154.938 Y141.056
G1 F720 X155.781 Y140.213 E73.57669
G0 F9000 X154.938 Y140.066
G1 F720 X155.781 Y139.223 E73.58849
G0 F9000 X155.781 Y138.728
G1 F720 X154.938 Y139.571 E73.6003
G0 F9000 X154.601 Y139.413
G1 F720 X153.758 Y140.256 E73.61211
G0 F9000 X153.758 Y140.751
G1 F720 X154.601 Y139.908 E73.62391
G0 F9000 X154.601 Y140.898
G1 F720 X154.155 Y141.344 E73.63016
G0 F9000 X154.17 Y141.343
G1 F720 X155.781 Y135.332 E73.69179
G0 F9000 X155.781 Y135.263
G1 F720 X154.938 Y136.106 E73.70359
G0 F9000 X154.601 Y135.949
G1 F720 X153.758 Y136.791 E73.71539
G0 F9000 X153.758 Y136.35
G1 F720 X155.78 Y135.808 E73.73612
G0 F9000 X155.781 Y135.758
G1 F720 X154.938 Y136.601 E73.74793
G0 F9000 X154.601 Y136.444
G1 F720 X153.758 Y137.286 E73.75973
G0 F9000 X153.758 Y137.781
G1 F720 X154.601 Y136.939 E73.77153
G0 F9000 X154.938 Y137.096
G1 F720 X155.781 Y136.253 E73.78333
G0 F9000 X155.781 Y135.982
G1 F720 X153.758 Y133.959 E73.81166
G0 F9000 X153.758 Y133.822
G1 F720 X153.923 Y133.656 E73.81398
G0 F9000 X154.418 Y133.656
G1 F720 X153.758 Y134.317 E73.82323
G0 F9000 X153.758 Y134.812
G1 F720 X154.601 Y133.969 E73.83504
G0 F9000 X154.938 Y134.126
G1 F720 X155.407 Y133.657 E73.84161
G0 F9000 X155.781 Y133.778
G1 F720 X154.938 Y134.621 E73.85341
G0 F9000 X154.601 Y134.464
G1 F720 X153.758 Y135.307 E73.86522
G0 F9000 X153.758 Y135.801
G1 F720 X154.601 Y134.959 E73.87702
G0 F9000 X154.938 Y135.116
G1 F720 X155.781 Y134.273 E73.88882
G0 F9000 X155.781 Y134.768
G1 F720 X154.938 Y135.611 E73.90063
G0 F9000 X154.601 Y135.454
G1 F720 X153.758 Y136.296 E73.91243
G0 F9000 X154.601 Y137.433
G1 F720 X153.758 Y138.276 E73.92424
G0 F9000 X153.758 Y138.771
G1 F720 X154.601 Y137.928 E73.93604
G0 F9000 X154.938 Y138.086
G1 F720 X155.781 Y137.243 E73.94785
G0 F9000 X155.781 Y136.748
G1 F720 X154.938 Y137.591 E73.95965
G0 F9000 X155.781 Y141.203
