; Generated with MatterSlice 1.0
; filamentDiameter = 3
; extrusionWidth = 0.35
; firstLayerExtrusionWidth = 0.7
; layerThickness = 0.2
; firstLayerThickness = 0.25
; automatic settings before start_gcode
G21 ; set units to millimeters
M107 ; fan off
M190 S65 ; wait for bed temperature to be reached
M104 T0 S230 ; start heating extruder 0
T0 ; set the active extruder to 0
; settings from start_gcode
G28 ; home all axes
G1 Z5 F5000 ; lift nozzle
; automatic settings after start_gcode
M109 T0 S185 ; wait for extruder 0 to reach temperature
T0 ; set the active extruder to 0
G90 ; use absolute coordinates
G92 E0 ; reset the expected extruder position
M82 ; use absolute distance for extrusion
; Layer count: 98
; LAYER:0
M107
G0 F9000 X163.548 Y118.038 Z0.25
G0 X163.548 Y118.038
; TYPE:SKIRT
G1 Z0.25
G1 F1800 E0
G1 F1080 X163.548 Y122.251 E0.1043
G1 X171.348 Y122.251 E0.29741
G1 X171.348 Y154.351 E1.09212
G1 X163.548 Y154.351 E1.28523
G1 X163.548 Y156.724 E1.34398
G1 X151.387 Y158.751 E1.64921
G1 X146.848 Y158.751 E1.76158
G1 X134.348 Y156.964 E2.0742
G1 X134.348 Y153.751 E2.15374
G1 X126.748 Y153.751 E2.3419
G1 X126.748 Y121.251 E3.14652
G1 X134.348 Y121.251 E3.33467
G1 X134.348 Y118.038 E3.41422
G1 X146.848 Y116.251 E3.72683
G1 X151.048 Y116.251 E3.83082
G1 X163.548 Y118.038 E4.14343
G0 F9000 X162.848 Y118.645
G1 F1080 X162.848 Y122.951 E4.25004
G1 X170.648 Y122.951 E4.44314
G1 X170.648 Y153.651 E5.2032
G1 X162.848 Y153.651 E5.3963
G1 X162.848 Y156.131 E5.4577
G1 X151.329 Y158.051 E5.74682
G1 X146.898 Y158.051 E5.85652
G1 X135.048 Y156.357 E6.15288
G1 X135.048 Y153.051 E6.23473
G1 X127.448 Y153.051 E6.42288
G1 X127.448 Y121.951 E7.19284
G1 X135.048 Y121.951 E7.38099
G1 X135.048 Y118.645 E7.46284
G1 X146.898 Y116.951 E7.7592
G1 X150.998 Y116.951 E7.86071
G1 X162.848 Y118.645 E8.15706
G0 F9000 X162.148 Y119.252
G1 F1080 X162.148 Y123.651 E8.26597
G1 X169.948 Y123.651 E8.45908
G1 X169.948 Y152.951 E9.18447
G1 X162.148 Y152.951 E9.37758
G1 X162.148 Y155.538 E9.44163
G1 X151.271 Y157.351 E9.71463
G1 X146.948 Y157.351 E9.82166
G1 X135.748 Y155.75 E10.10176
G1 X135.748 Y152.351 E10.18591
G1 X128.148 Y152.351 E10.37407
G1 X128.148 Y122.651 E11.10936
G1 X135.748 Y122.651 E11.29752
G1 X135.748 Y119.252 E11.38167
G1 X146.948 Y117.651 E11.66177
G1 X150.948 Y117.651 E11.7608
G1 X162.148 Y119.252 E12.0409
G0 F9000 X161.448 Y119.859
G1 F1080 X161.448 Y124.351 E12.15211
G1 X169.248 Y124.351 E12.34522
G1 X169.248 Y152.251 E13.03595
G1 X161.448 Y152.251 E13.22906
G1 X161.448 Y154.945 E13.29576
G1 X151.213 Y156.651 E13.55265
G1 X146.997 Y156.651 E13.65702
G1 X136.448 Y155.143 E13.92084
G1 X136.448 Y151.651 E14.0073
G1 X128.848 Y151.651 E14.19545
G1 X128.848 Y123.351 E14.89609
G1 X136.448 Y123.351 E15.08425
G1 X136.448 Y119.859 E15.1707
G1 X146.997 Y118.351 E15.43452
G1 X150.899 Y118.351 E15.53112
G1 X161.448 Y119.859 E15.79494
G0 F9000 X160.748 Y120.466
G1 F1080 X160.748 Y125.051 E15.90846
G1 X168.548 Y125.051 E16.10157
G1 X168.548 Y151.551 E16.75764
G1 X160.748 Y151.551 E16.95075
G1 X160.748 Y154.352 E17.02009
G1 X151.155 Y155.951 E17.26087
G1 X147.047 Y155.951 E17.36257
G1 X137.148 Y154.536 E17.61013
G1 X137.148 Y150.951 E17.69889
G1 X129.548 Y150.951 E17.88705
G1 X129.548 Y124.051 E18.55302
G1 X137.148 Y124.051 E18.74118
G1 X137.148 Y120.466 E18.82993
G1 X147.047 Y119.051 E19.0775
G1 X150.849 Y119.051 E19.17163
G1 X160.748 Y120.466 E19.41919
G0 F9000 X160.048 Y121.073
G1 F1080 X160.048 Y125.751 E19.53501
G1 X167.848 Y125.751 E19.72811
G1 X167.848 Y150.851 E20.34953
G1 X160.048 Y150.851 E20.54263
G1 X160.048 Y153.759 E20.61463
G1 X151.097 Y155.251 E20.83929
G1 X147.097 Y155.251 E20.93832
G1 X137.848 Y153.929 E21.16963
G1 X137.848 Y150.251 E21.26069
G1 X130.248 Y150.251 E21.44884
G1 X130.248 Y124.751 E22.08016
G1 X137.848 Y124.751 E22.26831
G1 X137.848 Y121.073 E22.35937
G1 X147.097 Y119.751 E22.59068
G1 X150.799 Y119.751 E22.68233
G1 X160.048 Y121.073 E22.91364
G0 F9000 X159.348 Y121.68
G1 F1080 X159.348 Y126.451 E23.03176
G1 X167.148 Y126.451 E23.22487
G1 X167.148 Y150.151 E23.81162
G1 X159.348 Y150.151 E24.00473
G1 X159.348 Y153.166 E24.07937
G1 X151.039 Y154.551 E24.28792
G1 X147.147 Y154.551 E24.38427
G1 X138.548 Y153.322 E24.59933
G1 X138.548 Y149.551 E24.69269
G1 X130.948 Y149.551 E24.88084
G1 X130.948 Y125.451 E25.4775
G1 X138.548 Y125.451 E25.66565
G1 X138.548 Y121.68 E25.75901
G1 X147.147 Y120.451 E25.97407
G1 X150.749 Y120.451 E26.06324
G1 X159.348 Y121.68 E26.27829
G0 F9000 X158.648 Y122.287
G1 F1080 X158.648 Y127.151 E26.39872
G1 X166.448 Y127.151 E26.59182
G1 X166.448 Y149.451 E27.14391
G1 X158.648 Y149.451 E27.33702
G1 X158.648 Y152.573 E27.41431
G1 X150.982 Y153.851 E27.60672
G1 X147.197 Y153.851 E27.70043
G1 X139.248 Y152.715 E27.89923
G1 X139.248 Y148.851 E27.99489
G1 X131.648 Y148.851 E28.18305
G1 X131.648 Y126.151 E28.74504
G1 X139.248 Y126.151 E28.9332
G1 X139.248 Y122.287 E29.02886
G1 X147.197 Y121.151 E29.22766
G1 X150.699 Y121.151 E29.31436
G1 X158.648 Y122.287 E29.51315
G0 F9000 X149.275 Y133.808
; TYPE:WALL-OUTER
G1 F1080 X149.275 Y141.193 E29.69599
G1 X148.719 Y141.193 E29.70975
G1 X148.719 Y133.808 E29.89259
G1 X149.275 Y133.808 E29.90635
G0 F9000 X140.957 Y132.472
; TYPE:SUPPORT
G1 F3600 X140.926 Y132.441 E29.90689
G0 F9000 X140.888 Y132.601
G0 X138.098 Y133.694
G0 X138.098 Y133.694
G0 X137.936 Y133.694
G1 F3600 X140.803 Y136.56 E29.95707
G0 F9000 X140.803 Y136.401
G0 X140.8 Y136.401
G0 X140.157 Y136.36
G0 X138.098 Y137.937
G0 X137.937 Y137.937
G1 F3600 X140.958 Y140.958 E30.00996
G0 F9000 X140.798 Y140.958
G0 X138.317 Y142.401
G0 X138.317 Y142.401
G0 X138.317 Y142.559
G1 F3600 X137.938 Y142.18 E30.0166
G0 F9000 X146.063 Y133.335
G1 F3600 X145.537 Y132.809 E30.0258
G0 F9000 X145.698 Y132.809
G0 X145.698 Y128.566
G0 X145.698 Y128.566
G0 X145.537 Y128.566
G1 F3600 X149.788 Y132.817 E30.10022
G0 F9000 X150.264 Y133.293
G1 F3600 X150.521 Y133.551 E30.10473
G0 F9000 X150.496 Y133.394
G0 X152.198 Y131.144
G0 X152.198 Y131.144
G0 X152.357 Y131.144
G1 F3600 X148.654 Y127.441 E30.16956
G0 F9000 X156.936 Y135.723
G1 F3600 X160.156 Y138.943 E30.22593
G0 F9000 X159.998 Y138.943
G0 X157.098 Y139.966
G0 X157.098 Y139.966
G0 X156.937 Y139.966
G1 F3600 X160.131 Y143.16 E30.28184
G0 F9000 X160.088 Y143.001
G0 X159.998 Y134.701
G0 X159.998 Y134.701
G0 X160.156 Y134.701
G1 F3600 X158.896 Y133.44 E30.30391
G0 F9000 X150.263 Y141.778
G1 F3600 X152.357 Y143.872 E30.34056
G0 F9000 X152.198 Y143.872
G0 X151.587 Y147.212
G0 X151.587 Y147.212
G0 X151.612 Y147.37
G1 F3600 X145.927 Y141.685 E30.44009
G0 F9000 X145.948 Y141.843
G0 X145.698 Y145.537
G0 X145.698 Y145.537
G0 X145.537 Y145.537
G1 F3600 X147.547 Y147.547 E30.47527
G0 F9000 X147.694 Y142.361
; TYPE:SUPPORT-INTERFACE
G1 F3600 X147.728 Y142.327 E30.47587
G0 F9000 X147.728 Y141.832
G1 F3600 X147.199 Y142.361 E30.48513
G0 F9000 X146.704 Y142.361
G1 F3600 X147.728 Y141.337 E30.50306
G0 F9000 X147.728 Y140.842
G1 F3600 X146.209 Y142.361 E30.52965
G0 F9000 X145.714 Y142.361
G1 F3600 X147.728 Y140.347 E30.56491
G0 F9000 X147.728 Y139.852
G1 F3600 X145.219 Y142.361 E30.60883
G0 F9000 X144.937 Y142.147
G1 F3600 X147.728 Y139.357 E30.65768
G0 F9000 X147.728 Y138.862
G1 F3600 X144.937 Y141.652 E30.70653
G0 F9000 X144.937 Y141.157
G1 F3600 X147.728 Y138.367 E30.75538
G0 F9000 X147.728 Y137.872
G1 F3600 X144.937 Y140.662 E30.80423
G0 F9000 X144.937 Y140.167
G1 F3600 X147.728 Y137.377 E30.85308
G0 F9000 X147.728 Y136.882
G1 F3600 X144.937 Y139.672 E30.90193
G0 F9000 X144.937 Y139.177
G1 F3600 X147.728 Y136.387 E30.95079
G0 F9000 X147.728 Y135.892
G1 F3600 X144.937 Y138.682 E30.99964
G0 F9000 X144.937 Y138.187
G1 F3600 X147.728 Y135.397 E31.04849
G0 F9000 X147.728 Y134.902
G1 F3600 X144.937 Y137.692 E31.09734
G0 F9000 X144.937 Y137.198
G1 F3600 X147.728 Y134.407 E31.1462
G0 F9000 X147.728 Y133.912
G1 F3600 X144.937 Y136.703 E31.19506
G0 F9000 X144.937 Y136.208
G1 F3600 X147.728 Y133.417 E31.24392
G0 F9000 X147.728 Y132.922
G1 F3600 X144.937 Y135.713 E31.29278
G0 F9000 X144.937 Y135.218
G1 F3600 X147.514 Y132.641 E31.33789
G0 F9000 X147.019 Y132.641
G1 F3600 X144.937 Y134.723 E31.37434
G0 F9000 X144.937 Y134.228
G1 F3600 X146.524 Y132.641 E31.40212
G0 F9000 X146.03 Y132.64
G1 F3600 X144.937 Y133.733 E31.42125
G0 F9000 X144.937 Y133.238
G1 F3600 X145.535 Y132.64 E31.43172
G0 F9000 X145.04 Y132.64
G1 F3600 X144.937 Y132.743 E31.43353
G0 F9000 X150.264 Y132.861
G1 F3600 X150.485 Y132.64 E31.43739
G0 F9000 X150.98 Y132.64
G1 F3600 X150.264 Y133.356 E31.44993
G0 F9000 X150.264 Y133.851
G1 F3600 X151.475 Y132.64 E31.47113
G0 F9000 X151.969 Y132.64
G1 F3600 X150.264 Y134.346 E31.50099
G0 F9000 X150.264 Y134.841
G1 F3600 X152.464 Y132.64 E31.53951
G0 F9000 X152.957 Y132.643
G1 F3600 X150.264 Y135.335 E31.58664
G0 F9000 X150.264 Y135.83
G1 F3600 X152.957 Y133.138 E31.63378
G0 F9000 X152.957 Y133.633
G1 F3600 X150.264 Y136.325 E31.68091
G0 F9000 X150.264 Y136.82
G1 F3600 X152.957 Y134.128 E31.72805
G0 F9000 X152.957 Y134.623
G1 F3600 X150.264 Y137.315 E31.77518
G0 F9000 X150.263 Y137.811
G1 F3600 X152.957 Y135.118 E31.82234
G0 F9000 X152.957 Y135.613
G1 F3600 X150.263 Y138.306 E31.86949
G0 F9000 X150.263 Y138.801
G1 F3600 X152.957 Y136.108 E31.91664
G0 F9000 X152.957 Y136.603
G1 F3600 X150.263 Y139.296 E31.9638
G0 F9000 X150.263 Y139.791
G1 F3600 X152.957 Y137.098 E32.01095
G0 F9000 X152.957 Y137.592
G1 F3600 X150.263 Y140.286 E32.05811
G0 F9000 X150.263 Y140.781
G1 F3600 X152.957 Y138.087 E32.10527
G0 F9000 X152.957 Y138.582
G1 F3600 X150.263 Y141.276 E32.15243
G0 F9000 X150.263 Y141.771
G1 F3600 X152.957 Y139.077 E32.1996
G0 F9000 X152.957 Y139.572
G1 F3600 X150.263 Y142.266 E32.24676
G0 F9000 X150.663 Y142.361
G1 F3600 X152.957 Y140.067 E32.28692
G0 F9000 X152.957 Y140.562
G1 F3600 X151.158 Y142.361 E32.31841
G0 F9000 X151.653 Y142.361
G1 F3600 X152.957 Y141.057 E32.34124
G0 F9000 X152.957 Y141.552
G1 F3600 X152.148 Y142.361 E32.3554
G0 F9000 X152.643 Y142.361
G1 F3600 X152.957 Y142.047 E32.3609
; LAYER:1
G0 F9000 X150.23 Y141.094 Z0.45
; TYPE:WALL-INNER
G1 F720 X147.765 Y141.094 E32.38531
G1 X147.765 Y133.907 E32.45648
G1 X150.23 Y133.907 E32.48089
G1 X150.23 Y141.094 E32.55206
G0 F9000 X149.88 Y140.744
G1 F720 X148.115 Y140.744 E32.56954
G1 X148.115 Y134.257 E32.63378
G1 X149.88 Y134.257 E32.65126
G1 X149.88 Y140.744 E32.7155
G0 F9000 X150.58 Y141.444
; TYPE:WALL-OUTER
G1 F600 X147.415 Y141.444 E32.74685
G1 X147.415 Y133.557 E32.82495
G1 X150.58 Y133.557 E32.85629
G1 X150.58 Y141.444 E32.9344
G0 F9000 X149.426 Y140.628
; TYPE:FILL
G1 F720 X149.764 Y140.29 E32.93913
G0 F9000 X149.764 Y139.795
G1 F720 X148.93 Y140.629 E32.95081
G0 F9000 X148.435 Y140.629
G1 F720 X149.764 Y139.3 E32.96942
G0 F9000 X149.764 Y138.805
G1 F720 X148.229 Y140.34 E32.99092
G0 F9000 X148.229 Y139.845
G1 F720 X149.764 Y138.31 E33.01242
G0 F9000 X149.764 Y137.815
G1 F720 X148.229 Y139.35 E33.03392
G0 F9000 X148.229 Y138.855
G1 F720 X149.764 Y137.32 E33.05541
G0 F9000 X149.764 Y136.825
G1 F720 X148.229 Y138.36 E33.07691
G0 F9000 X148.229 Y137.866
G1 F720 X149.764 Y136.33 E33.09842
G0 F9000 X149.764 Y135.835
G1 F720 X148.229 Y137.371 E33.11992
G0 F9000 X148.229 Y136.876
G1 F720 X149.764 Y135.34 E33.14143
G0 F9000 X149.764 Y134.845
G1 F720 X148.229 Y136.381 E33.16293
G0 F9000 X148.229 Y135.886
G1 F720 X149.743 Y134.372 E33.18413
G0 F9000 X149.248 Y134.372
G1 F720 X148.229 Y135.391 E33.1984
G0 F9000 X148.229 Y134.896
G1 F720 X148.754 Y134.371 E33.20576
G0 F9000 X148.259 Y134.371
G1 F720 X148.229 Y134.401 E33.20618
G0 F9000 X145.928 Y141.685
; TYPE:SUPPORT
G1 F720 X151.612 Y147.37 E33.28579
G0 F9000 X151.587 Y147.212
G0 X152.198 Y143.872
G0 X152.198 Y143.872
G0 X152.357 Y143.872
G1 F720 X150.743 Y142.258 E33.30839
G0 F9000 X150.743 Y142.419
G0 X145.698 Y145.538
G0 X145.698 Y145.538
G0 X145.538 Y145.538
G1 F720 X147.547 Y147.547 E33.33653
G0 F9000 X156.937 Y139.966
G1 F720 X160.131 Y143.16 E33.38126
G0 F9000 X160.088 Y143.001
G0 X159.998 Y138.943
G0 X159.998 Y138.943
G0 X160.156 Y138.943
G1 F720 X156.936 Y135.723 E33.42636
G0 F9000 X157.098 Y135.723
G0 X158.896 Y133.601
G0 X158.896 Y133.601
G0 X158.896 Y133.44
G1 F720 X160.156 Y134.701 E33.44401
G0 F9000 X152.356 Y131.143
G1 F720 X148.654 Y127.441 E33.49586
G0 F9000 X148.654 Y127.601
G0 X145.698 Y128.566
G0 X145.698 Y128.566
G0 X145.537 Y128.566
G1 F720 X149.712 Y132.742 E33.55433
G0 F9000 X149.712 Y132.582
G0 X149.422 Y132.64
G0 X146.399 Y132.541
G0 X146.41 Y133.193
G0 X146.038 Y133.34
G0 X146.064 Y133.336
G0 X146.064 Y133.336
G1 F720 X145.536 Y132.808 E33.56173
G0 F9000 X140.957 Y132.472
G1 F720 X140.926 Y132.441 E33.56216
G0 F9000 X140.888 Y132.601
G0 X138.098 Y133.694
G0 X138.098 Y133.694
G0 X137.936 Y133.694
G1 F720 X140.803 Y136.56 E33.60231
G0 F9000 X140.803 Y136.401
G0 X140.8 Y136.401
G0 X140.157 Y136.36
G0 X138.098 Y137.937
G0 X137.937 Y137.937
G1 F720 X140.958 Y140.958 E33.64462
G0 F9000 X140.798 Y140.958
G0 X138.317 Y142.401
G0 X138.317 Y142.401
G0 X138.317 Y142.559
G1 F720 X137.938 Y142.18 E33.64992
G0 F9000 X151.394 Y142.125
; TYPE:SUPPORT-INTERFACE
G1 F720 X152.957 Y140.562 E33.67181
G0 F9000 X152.957 Y140.067
G1 F720 X151.394 Y141.63 E33.6937
G0 F9000 X151.394 Y141.135
G1 F720 X152.957 Y139.572 E33.71559
G0 F9000 X152.957 Y139.077
G1 F720 X151.394 Y140.64 E33.73748
G0 F9000 X151.394 Y140.145
G1 F720 X152.957 Y138.582 E33.75937
G0 F9000 X152.957 Y138.087
G1 F720 X151.394 Y139.65 E33.78126
G0 F9000 X151.394 Y139.155
G1 F720 X152.957 Y137.592 E33.80315
G0 F9000 X152.957 Y137.098
G1 F720 X151.394 Y138.66 E33.82503
G0 F9000 X151.394 Y138.165
G1 F720 X152.957 Y136.603 E33.84692
G0 F9000 X152.957 Y136.108
G1 F720 X151.394 Y137.67 E33.8688
G0 F9000 X151.394 Y137.175
G1 F720 X152.957 Y135.613 E33.89068
G0 F9000 X152.957 Y135.118
G1 F720 X151.394 Y136.68 E33.91256
G0 F9000 X151.394 Y136.185
G1 F720 X152.957 Y134.623 E33.93445
G0 F9000 X152.957 Y134.128
G1 F720 X151.394 Y135.69 E33.95633
G0 F9000 X151.394 Y135.195
G1 F720 X152.957 Y133.633 E33.97821
G0 F9000 X152.957 Y133.138
G1 F720 X151.394 Y134.701 E34.0001
G0 F9000 X151.394 Y134.206
G1 F720 X152.957 Y132.643 E34.02199
G0 F9000 X152.464 Y132.64
G1 F720 X151.394 Y133.711 E34.03698
G0 F9000 X151.394 Y133.216
G1 F720 X151.969 Y132.64 E34.04504
G0 F9000 X151.475 Y132.64
G1 F720 X151.394 Y132.721 E34.04618
G0 F9000 X151.555 Y132.721
G0 X152.798 Y141.057
G0 X152.798 Y141.057
G0 X152.957 Y141.057
G1 F720 X151.654 Y142.36 E34.06443
G0 F9000 X152.149 Y142.36
G1 F720 X152.957 Y141.552 E34.07574
G0 F9000 X152.957 Y142.047
G1 F720 X152.643 Y142.361 E34.08014
G0 F9000 X146.599 Y141.97
G1 F720 X146.209 Y142.361 E34.08561
G0 F9000 X145.714 Y142.361
G1 F720 X146.599 Y141.475 E34.09801
G0 F9000 X146.599 Y140.98
G1 F720 X145.219 Y142.361 E34.11734
G0 F9000 X144.937 Y142.147
G1 F720 X146.599 Y140.485 E34.14062
G0 F9000 X146.599 Y139.99
G1 F720 X144.937 Y141.652 E34.1639
G0 F9000 X144.937 Y141.157
G1 F720 X146.599 Y139.495 E34.18717
G0 F9000 X146.599 Y139
G1 F720 X144.937 Y140.662 E34.21045
G0 F9000 X144.937 Y140.167
G1 F720 X146.599 Y138.505 E34.23373
G0 F9000 X146.599 Y138.01
G1 F720 X144.937 Y139.672 E34.257
G0 F9000 X144.937 Y139.177
G1 F720 X146.599 Y137.516 E34.28027
G0 F9000 X146.599 Y137.021
G1 F720 X144.937 Y138.682 E34.30354
G0 F9000 X144.937 Y138.187
G1 F720 X146.599 Y136.526 E34.32681
G0 F9000 X146.599 Y136.031
G1 F720 X144.937 Y137.692 E34.35008
G0 F9000 X144.937 Y137.198
G1 F720 X146.599 Y135.536 E34.37335
G0 F9000 X146.599 Y135.041
G1 F720 X144.937 Y136.703 E34.39663
G0 F9000 X144.937 Y136.208
G1 F720 X146.599 Y134.546 E34.41991
G0 F9000 X146.599 Y134.051
G1 F720 X144.937 Y135.713 E34.44318
G0 F9000 X144.937 Y135.218
G1 F720 X146.599 Y133.556 E34.46646
G0 F9000 X146.599 Y133.061
G1 F720 X144.937 Y134.723 E34.48974
G0 F9000 X144.937 Y134.228
G1 F720 X146.524 Y132.641 E34.51196
G0 F9000 X146.029 Y132.641
G1 F720 X144.937 Y133.733 E34.52725
G0 F9000 X144.937 Y133.238
G1 F720 X145.535 Y132.64 E34.53563
G0 F9000 X145.04 Y132.64
G1 F720 X144.937 Y132.743 E34.53707
; LAYER:2
M106 S255
G0 F9000 X146.686 Y133.674 Z0.65
G0 X146.761 Y133.839
G0 X146.761 Y133.839
; TYPE:WALL-INNER
G1 F720 X151.234 Y133.839 E34.58137
G1 X151.234 Y141.162 E34.65389
G1 X146.761 Y141.162 E34.69818
G1 X146.761 Y133.839 E34.7707
G0 F9000 X147.111 Y134.189
G1 F720 X150.884 Y134.189 E34.80807
G1 X150.884 Y140.812 E34.87365
G1 X147.111 Y140.812 E34.91102
G1 X147.111 Y134.189 E34.97661
G0 F9000 X146.411 Y133.489
; TYPE:WALL-OUTER
G1 F600 X151.584 Y133.489 E35.02783
G1 X151.584 Y141.512 E35.10729
G1 X146.411 Y141.512 E35.15851
G1 X146.411 Y133.489 E35.23797
G0 F9000 X147.225 Y134.355
; TYPE:FILL
G1 F720 X150.767 Y137.898 E35.28758
G0 F9000 X150.768 Y137.404
G1 F720 X147.667 Y134.303 E35.33101
G0 F9000 X148.162 Y134.303
G1 F720 X150.768 Y136.909 E35.3675
G0 F9000 X150.768 Y136.414
G1 F720 X148.657 Y134.303 E35.39707
G0 F9000 X149.153 Y134.304
G1 F720 X150.768 Y135.919 E35.41969
G0 F9000 X150.768 Y135.424
G1 F720 X149.648 Y134.304 E35.43537
G0 F9000 X150.143 Y134.304
G1 F720 X150.768 Y134.929 E35.44412
G0 F9000 X150.768 Y134.434
G1 F720 X150.638 Y134.304 E35.44595
G0 F9000 X147.225 Y134.85
G1 F720 X150.767 Y138.393 E35.49556
G0 F9000 X150.767 Y138.888
G1 F720 X147.225 Y135.345 E35.54517
G0 F9000 X147.225 Y135.84
G1 F720 X150.767 Y139.383 E35.59478
G0 F9000 X150.767 Y139.878
G1 F720 X147.225 Y136.335 E35.64439
G0 F9000 X147.225 Y136.83
G1 F720 X150.767 Y140.373 E35.69401
G0 F9000 X150.596 Y140.697
G1 F720 X147.225 Y137.325 E35.74122
G0 F9000 X147.225 Y137.82
G1 F720 X150.101 Y140.697 E35.78151
G0 F9000 X149.606 Y140.697
G1 F720 X147.225 Y138.315 E35.81486
G0 F9000 X147.225 Y138.81
G1 F720 X149.111 Y140.697 E35.84128
G0 F9000 X148.616 Y140.697
G1 F720 X147.225 Y139.305 E35.86077
G0 F9000 X147.225 Y139.8
G1 F720 X148.121 Y140.697 E35.87333
G0 F9000 X147.626 Y140.697
G1 F720 X147.225 Y140.295 E35.87895
G0 F9000 X149.645 Y132.674
; TYPE:SUPPORT
G1 F720 X145.537 Y128.566 E35.93648
G0 F9000 X145.698 Y128.566
G0 X148.654 Y127.601
G0 X148.654 Y127.601
G0 X148.654 Y127.441
G1 F720 X152.357 Y131.144 E35.98834
G0 F9000 X140.957 Y132.472
G1 F720 X140.926 Y132.441 E35.98878
G0 F9000 X140.888 Y132.601
G0 X138.098 Y133.694
G0 X138.098 Y133.694
G0 X137.936 Y133.694
G1 F720 X140.803 Y136.56 E36.02892
G0 F9000 X140.803 Y136.401
G0 X140.8 Y136.401
G0 X140.157 Y136.36
G0 X138.098 Y137.937
G0 X137.937 Y137.937
G1 F720 X140.958 Y140.958 E36.07123
G0 F9000 X140.798 Y140.958
G0 X138.317 Y142.401
G0 X138.317 Y142.401
G0 X138.317 Y142.559
G1 F720 X137.938 Y142.18 E36.07654
G0 F9000 X145.538 Y145.538
G1 F720 X147.547 Y147.547 E36.10467
G0 F9000 X147.57 Y147.39
G0 X151.587 Y147.212
G0 X151.587 Y147.212
G0 X151.612 Y147.37
G1 F720 X146.569 Y142.327 E36.1753
G0 F9000 X146.569 Y142.487
G0 X150.812 Y142.487
G0 X150.812 Y142.487
G0 X150.812 Y142.327
G1 F720 X152.356 Y143.871 E36.19692
G0 F9000 X156.937 Y139.966
G1 F720 X160.131 Y143.16 E36.24166
G0 F9000 X160.088 Y143.001
G0 X159.998 Y138.943
G0 X159.998 Y138.943
G0 X160.156 Y138.943
G1 F720 X156.936 Y135.723 E36.28675
G0 F9000 X157.098 Y135.723
G0 X158.896 Y133.601
G0 X158.896 Y133.601
G0 X158.896 Y133.44
G1 F720 X160.156 Y134.701 E36.3044
; LAYER:3
G0 F9000 X151.957 Y133.771 Z0.85
; TYPE:WALL-INNER
G1 F720 X151.957 Y141.23 E36.37827
G1 X146.038 Y141.23 E36.43689
G1 X146.038 Y133.771 E36.51075
G1 X151.957 Y133.771 E36.56937
G0 F9000 X151.607 Y134.121
G1 F720 X151.607 Y140.88 E36.6363
G1 X146.388 Y140.88 E36.68799
G1 X146.388 Y134.121 E36.75492
G1 X151.607 Y134.121 E36.8066
G0 F9000 X152.307 Y133.421
; TYPE:WALL-OUTER
G1 F600 X152.307 Y141.58 E36.8874
G1 X145.688 Y141.58 E36.95295
G1 X145.688 Y133.421 E37.03375
G1 X152.307 Y133.421 E37.0993
G0 F9000 X151.363 Y134.236
; TYPE:FILL
G1 F720 X149.214 Y136.386 E37.1294
G0 F9000 X148.778 Y136.327
G1 F720 X146.502 Y138.602 E37.16127
G0 F9000 X146.502 Y138.107
G1 F720 X148.778 Y135.832 E37.19314
G0 F9000 X149.214 Y135.891
G1 F720 X150.869 Y134.236 E37.21631
G0 F9000 X150.374 Y134.236
G1 F720 X149.214 Y135.396 E37.23256
G0 F9000 X148.778 Y135.337
G1 F720 X146.502 Y137.612 E37.26443
G0 F9000 X146.502 Y137.117
G1 F720 X148.778 Y134.842 E37.2963
G0 F9000 X148.658 Y134.869
G1 F720 X148.828 Y134.235 E37.3028
G0 F9000 X148.778 Y134.347
G1 F720 X146.502 Y136.622 E37.33467
G0 F9000 X146.502 Y136.127
G1 F720 X148.394 Y134.235 E37.36116
G0 F9000 X147.899 Y134.235
G1 F720 X146.502 Y135.632 E37.38073
G0 F9000 X146.502 Y135.138
G1 F720 X147.404 Y134.235 E37.39337
G0 F9000 X146.909 Y134.235
G1 F720 X146.502 Y134.643 E37.39907
G0 F9000 X149.084 Y134.235
G1 F720 X149.273 Y134.445 E37.40256
G1 X149.384 Y134.236 E37.4049
G0 F9000 X149.879 Y134.236
G1 F720 X149.214 Y134.901 E37.41422
G0 F9000 X148.778 Y136.822
G1 F720 X146.502 Y139.097 E37.44608
G0 F9000 X146.502 Y139.592
G1 F720 X148.778 Y137.317 E37.47795
G0 F9000 X148.658 Y137.717
G1 F720 X149.334 Y137.535 E37.48489
G0 F9000 X149.214 Y137.375
G1 F720 X151.491 Y135.099 E37.51677
G0 F9000 X151.491 Y134.604
G1 F720 X149.214 Y136.881 E37.54866
G0 F9000 X149.214 Y137.87
G1 F720 X151.491 Y135.594 E37.58054
G0 F9000 X151.491 Y136.089
G1 F720 X149.214 Y138.365 E37.61242
G0 F9000 X148.778 Y138.307
G1 F720 X146.502 Y140.582 E37.64429
G0 F9000 X146.815 Y140.765
G1 F720 X148.778 Y138.802 E37.67178
G0 F9000 X148.657 Y138.758
G1 F720 X149.333 Y139.434 E37.68125
G0 F9000 X149.214 Y139.355
G1 F720 X151.491 Y137.079 E37.71313
G0 F9000 X151.491 Y137.573
G1 F720 X149.214 Y139.85 E37.74502
G0 F9000 X148.778 Y139.792
G1 F720 X147.805 Y140.765 E37.75865
G0 F9000 X147.31 Y140.765
G1 F720 X148.778 Y139.297 E37.77921
G0 F9000 X149.214 Y138.86
G1 F720 X151.491 Y136.584 E37.81109
G0 F9000 X151.491 Y138.068
G1 F720 X149.214 Y140.345 E37.84298
G0 F9000 X149.29 Y140.764
G1 F720 X151.491 Y138.563 E37.8738
G0 F9000 X151.491 Y139.058
G1 F720 X149.785 Y140.764 E37.89769
G0 F9000 X150.28 Y140.764
G1 F720 X151.491 Y139.553 E37.91465
G0 F9000 X151.491 Y140.048
G1 F720 X150.775 Y140.764 E37.92468
G0 F9000 X151.27 Y140.764
G1 F720 X151.491 Y140.543 E37.92778
G0 F9000 X148.778 Y140.287
G1 F720 X148.3 Y140.765 E37.93447
G0 F9000 X146.502 Y140.087
G1 F720 X148.778 Y137.812 E37.96634
G0 F9000 X156.936 Y135.723
; TYPE:SUPPORT
G1 F720 X160.156 Y138.943 E38.01144
G0 F9000 X159.998 Y138.943
G0 X157.098 Y139.966
G0 X157.098 Y139.966
G0 X156.937 Y139.966
G1 F720 X160.131 Y143.16 E38.05617
G0 F9000 X160.088 Y143.001
G0 X159.998 Y134.701
G0 X159.998 Y134.701
G0 X160.156 Y134.701
G1 F720 X158.896 Y133.44 E38.07382
G0 F9000 X152.356 Y131.143
G1 F720 X148.654 Y127.441 E38.12567
G0 F9000 X148.654 Y127.601
G0 X145.698 Y128.566
G0 X145.698 Y128.566
G0 X145.537 Y128.566
G1 F720 X149.576 Y132.605 E38.18223
G0 F9000 X150.88 Y142.395
G1 F720 X152.356 Y143.871 E38.2029
G0 F9000 X152.198 Y143.871
G0 X151.587 Y147.212
G0 X151.587 Y147.212
G0 X151.612 Y147.37
G1 F720 X146.637 Y142.395 E38.27258
G0 F9000 X146.637 Y142.555
G0 X145.698 Y145.538
G0 X145.698 Y145.538
G0 X145.538 Y145.538
G1 F720 X147.547 Y147.547 E38.30071
G0 F9000 X140.958 Y140.958
G1 F720 X137.937 Y137.937 E38.34302
G0 F9000 X138.098 Y137.937
G0 X140.123 Y136.786
G0 X140.157 Y136.36
G0 X140.803 Y136.401
G0 X140.803 Y136.56
G1 F720 X137.936 Y133.694 E38.38317
G0 F9000 X138.098 Y133.694
G0 X140.888 Y132.601
G0 X140.888 Y132.601
G0 X140.926 Y132.441
G1 F720 X140.957 Y132.472 E38.3836
G0 F9000 X140.798 Y132.511
G0 X138.098 Y142.18
G0 X138.098 Y142.18
G0 X137.938 Y142.18
G1 F720 X138.317 Y142.559 E38.38891
; LAYER:4
G0 F9000 X145.739 Y141.299 Z1.05
; TYPE:WALL-INNER
G1 F720 X145.739 Y133.702 E38.46414
G1 X152.256 Y133.702 E38.52868
G1 X152.256 Y141.299 E38.60391
G1 X145.739 Y141.299 E38.66845
G0 F9000 X146.089 Y140.949
G1 F720 X146.089 Y134.052 E38.73675
G1 X151.906 Y134.052 E38.79436
G1 X151.906 Y140.949 E38.86266
G1 X146.089 Y140.949 E38.92026
G0 F9000 X145.389 Y141.649
; TYPE:WALL-OUTER
G1 F600 X145.389 Y133.352 E39.00243
G1 X152.606 Y133.352 E39.0739
G1 X152.606 Y141.649 E39.15606
G1 X145.389 Y141.649 E39.22753
G0 F9000 X146.278 Y140.833
; TYPE:FILL
G1 F720 X146.203 Y140.758 E39.22858
G0 F9000 X146.203 Y140.263
G1 F720 X146.773 Y140.833 E39.23657
G0 F9000 X147.268 Y140.833
G1 F720 X146.203 Y139.768 E39.25148
G0 F9000 X146.203 Y139.273
G1 F720 X147.763 Y140.833 E39.27333
G0 F9000 X148.258 Y140.833
G1 F720 X146.203 Y138.778 E39.30211
G0 F9000 X146.203 Y138.283
G1 F720 X148.174 Y140.254 E39.32971
G0 F9000 X148.174 Y139.759
G1 F720 X146.203 Y137.788 E39.35732
G0 F9000 X146.203 Y137.293
G1 F720 X148.174 Y139.264 E39.38492
G0 F9000 X148.174 Y138.769
G1 F720 X146.203 Y136.798 E39.41252
G0 F9000 X146.203 Y136.304
G1 F720 X148.174 Y138.274 E39.44012
G0 F9000 X147.704 Y138.429
G1 F720 X148.847 Y134.166 E39.48383
G0 F9000 X149.015 Y134.166
G1 F720 X149.166 Y134.317 E39.48594
G0 F9000 X149.016 Y134.167
G1 F720 X150.289 Y135.439 E39.50376
G0 F9000 X149.819 Y135.465
G1 F720 X151.79 Y137.436 E39.53137
G0 F9000 X151.79 Y136.941
G1 F720 X149.819 Y134.97 E39.55897
G0 F9000 X149.819 Y134.475
G1 F720 X151.79 Y136.446 E39.58658
G0 F9000 X151.79 Y135.951
G1 F720 X150.005 Y134.166 E39.61157
G0 F9000 X149.661 Y134.317
G1 F720 X149.51 Y134.166 E39.61369
G0 F9000 X148.671 Y134.317
G1 F720 X148.521 Y134.167 E39.61579
G0 F9000 X148.385 Y134.166
G1 F720 X147.704 Y134.348 E39.62277
G0 F9000 X147.531 Y134.167
G1 F720 X148.174 Y134.81 E39.63178
G0 F9000 X148.176 Y134.317
G1 F720 X148.026 Y134.167 E39.63388
G0 F9000 X147.036 Y134.167
G1 F720 X148.174 Y135.305 E39.64981
G0 F9000 X148.174 Y135.8
G1 F720 X146.541 Y134.167 E39.67268
G0 F9000 X146.203 Y134.324
G1 F720 X148.174 Y136.295 E39.70029
G0 F9000 X148.174 Y136.79
G1 F720 X146.203 Y134.819 E39.72789
G0 F9000 X146.203 Y135.314
G1 F720 X148.174 Y137.285 E39.7555
G0 F9000 X148.174 Y137.779
G1 F720 X146.203 Y135.809 E39.78309
G0 F9000 X147.703 Y137.804
G1 F720 X150.289 Y140.389 E39.8193
G0 F9000 X150.238 Y140.834
G1 F720 X149.706 Y140.549 E39.82516
G1 X149.496 Y140.834 E39.82726
G1 X148.925 Y140.758 E39.82936
G1 X148.604 Y140.684 E39.83263
G0 F9000 X149.819 Y139.92
G1 F720 X150.733 Y140.834 E39.84543
G0 F9000 X151.228 Y140.834
G1 F720 X149.819 Y139.425 E39.86516
G0 F9000 X149.819 Y138.93
G1 F720 X151.723 Y140.834 E39.89183
G0 F9000 X151.79 Y140.405
G1 F720 X149.819 Y138.435 E39.91942
G0 F9000 X149.819 Y137.94
G1 F720 X151.79 Y139.91 E39.94702
G0 F9000 X151.79 Y139.416
G1 F720 X149.819 Y137.445 E39.97462
G0 F9000 X149.819 Y136.95
G1 F720 X151.79 Y138.921 E40.00223
G0 F9000 X151.79 Y138.426
G1 F720 X149.819 Y136.455 E40.02983
G0 F9000 X149.819 Y135.96
G1 F720 X151.79 Y137.931 E40.05743
G0 F9000 X150.289 Y137.279
G1 F720 X147.704 Y137.972 E40.08394
G0 F9000 X150.5 Y134.166
G1 F720 X151.79 Y135.456 E40.102
G0 F9000 X151.79 Y134.961
G1 F720 X150.995 Y134.166 E40.11314
G0 F9000 X151.49 Y134.166
G1 F720 X151.79 Y134.466 E40.11734
G0 F9000 X140.957 Y132.472
; TYPE:SUPPORT
G1 F720 X140.926 Y132.441 E40.11777
G0 F9000 X140.888 Y132.601
G0 X138.098 Y133.694
G0 X138.098 Y133.694
G0 X137.936 Y133.694
G1 F720 X140.803 Y136.56 E40.15792
G0 F9000 X140.803 Y136.401
G0 X140.8 Y136.401
G0 X140.157 Y136.36
G0 X138.098 Y137.937
G0 X137.937 Y137.937
G1 F720 X140.958 Y140.958 E40.20023
G0 F9000 X140.798 Y140.958
G0 X138.317 Y142.401
G0 X138.317 Y142.401
G0 X138.317 Y142.559
G1 F720 X137.938 Y142.18 E40.20553
G0 F9000 X145.538 Y145.538
G1 F720 X147.547 Y147.547 E40.23367
G0 F9000 X147.57 Y147.39
G0 X151.587 Y147.212
G0 X151.587 Y147.212
G0 X151.612 Y147.37
G1 F720 X146.706 Y142.464 E40.30238
G0 F9000 X146.706 Y142.624
G0 X150.948 Y142.624
G0 X150.948 Y142.624
G0 X150.948 Y142.463
G1 F720 X152.357 Y143.872 E40.32211
G0 F9000 X149.507 Y132.537
G1 F720 X145.537 Y128.566 E40.37772
G0 F9000 X145.698 Y128.566
G0 X148.654 Y127.601
G0 X148.654 Y127.601
G0 X148.654 Y127.441
G1 F720 X152.357 Y131.144 E40.42958
G0 F9000 X156.936 Y135.723
G1 F720 X160.156 Y138.943 E40.47467
G0 F9000 X159.998 Y138.943
G0 X157.098 Y139.966
G0 X157.098 Y139.966
G0 X156.937 Y139.966
G1 F720 X160.131 Y143.16 E40.51941
G0 F9000 X160.088 Y143.001
G0 X159.998 Y134.701
G0 X159.998 Y134.701
G0 X160.156 Y134.701
G1 F720 X158.896 Y133.44 E40.53706
; LAYER:5
G0 F9000 X152.555 Y133.634 Z1.25
; TYPE:WALL-INNER
G1 F720 X152.555 Y141.367 E40.61364
G1 X145.44 Y141.367 E40.6841
G1 X145.44 Y133.634 E40.76068
G1 X152.555 Y133.634 E40.83114
G0 F9000 X152.205 Y133.984
G1 F720 X152.205 Y141.017 E40.90079
G1 X145.79 Y141.017 E40.96431
G1 X145.79 Y133.984 E41.03396
G1 X152.205 Y133.984 E41.09749
G0 F9000 X152.905 Y133.284
; TYPE:WALL-OUTER
G1 F600 X152.905 Y141.717 E41.181
G1 X145.09 Y141.717 E41.25839
G1 X145.09 Y133.284 E41.3419
G1 X152.905 Y133.284 E41.4193
G0 F9000 X151.996 Y134.099
; TYPE:FILL
G1 F720 X150.823 Y135.271 E41.43572
G0 F9000 X150.823 Y135.766
G1 F720 X152.089 Y134.5 E41.45345
G0 F9000 X152.089 Y134.995
G1 F720 X150.823 Y136.261 E41.47118
G0 F9000 X150.823 Y136.756
G1 F720 X152.089 Y135.49 E41.48891
G0 F9000 X152.089 Y135.985
G1 F720 X150.823 Y137.251 E41.50664
G0 F9000 X150.823 Y137.747
G1 F720 X152.089 Y136.48 E41.52437
G0 F9000 X152.089 Y136.975
G1 F720 X150.823 Y138.242 E41.54211
G0 F9000 X150.823 Y138.737
G1 F720 X152.089 Y137.47 E41.55985
G0 F9000 X152.089 Y137.965
G1 F720 X150.823 Y139.232 E41.57759
G0 F9000 X150.823 Y139.727
G1 F720 X152.089 Y138.46 E41.59532
G0 F9000 X152.089 Y138.955
G1 F720 X150.823 Y140.222 E41.61306
G0 F9000 X150.823 Y140.717
G1 F720 X152.089 Y139.45 E41.6308
G0 F9000 X152.089 Y139.945
G1 F720 X151.133 Y140.901 E41.64419
G0 F9000 X151.293 Y140.634
G1 F720 X150.296 Y140.901 E41.65441
G0 F9000 X150.292 Y140.752
G1 F720 X149.97 Y140.826 E41.65648
G1 X149.475 Y140.826 E41.65856
G1 X148.98 Y140.826 E41.66063
G1 X148.484 Y140.827 E41.66272
G1 X147.989 Y140.827 E41.66481
G1 X147.494 Y140.827 E41.66689
G1 X147.172 Y140.902 E41.67017
G0 F9000 X147.042 Y140.901
G1 F720 X148.865 Y134.098 E41.73991
G0 F9000 X148.948 Y134.099
G1 F720 X151.293 Y136.444 E41.77276
G0 F9000 X151.293 Y137.01
G1 F720 X146.7 Y138.241 E41.81985
G0 F9000 X147.17 Y138.43
G1 F720 X145.904 Y139.696 E41.83758
G0 F9000 X145.904 Y140.19
G1 F720 X147.17 Y138.925 E41.8553
G0 F9000 X147.17 Y139.42
G1 F720 X145.904 Y140.685 E41.87302
G0 F9000 X146.183 Y140.902
G1 F720 X147.17 Y139.915 E41.88685
G0 F9000 X147.17 Y140.41
G1 F720 X146.677 Y140.902 E41.89374
G0 F9000 X145.904 Y139.201
G1 F720 X147.17 Y137.935 E41.91147
G0 F9000 X147.17 Y137.44
G1 F720 X145.904 Y138.706 E41.9292
G0 F9000 X145.904 Y138.211
G1 F720 X147.17 Y136.945 E41.94693
G0 F9000 X146.699 Y136.8
G1 F720 X150.801 Y140.901 E42.00437
G0 F9000 X150.665 Y140.901
G1 F720 X151.293 Y138.558 E42.0284
G0 F9000 X152.089 Y140.44
G1 F720 X151.628 Y140.901 E42.03485
G0 F9000 X150.787 Y140.752
G1 F720 X150.638 Y140.901 E42.03694
G0 F9000 X147.17 Y136.45
G1 F720 X145.904 Y137.716 E42.05467
G0 F9000 X145.904 Y137.221
G1 F720 X147.17 Y135.955 E42.0724
G0 F9000 X147.17 Y135.46
G1 F720 X145.904 Y136.726 E42.09013
G0 F9000 X145.904 Y136.231
G1 F720 X147.17 Y134.965 E42.10786
G0 F9000 X147.17 Y134.47
G1 F720 X145.904 Y135.736 E42.12559
G0 F9000 X145.904 Y135.241
G1 F720 X147.047 Y134.098 E42.1416
G0 F9000 X147.392 Y134.248
G1 F720 X147.714 Y134.173 E42.14369
G1 X148.209 Y134.173 E42.14578
G1 X148.532 Y134.098 E42.14906
G0 F9000 X148.639 Y134.098
G1 F720 X146.7 Y134.618 E42.16894
G0 F9000 X146.552 Y134.098
G1 F720 X145.904 Y134.746 E42.17802
G0 F9000 X145.904 Y134.251
G1 F720 X146.057 Y134.098 E42.18016
G0 F9000 X148.877 Y134.248
G1 F720 X149.198 Y134.174 E42.18224
G1 X149.693 Y134.174 E42.18433
G1 X150.188 Y134.174 E42.18641
G1 X150.667 Y134.19 E42.1885
G1 X151.006 Y134.099 E42.19198
G0 F9000 X151.501 Y134.099
G1 F720 X150.823 Y134.776 E42.20147
G0 F9000 X156.936 Y135.723
; TYPE:SUPPORT
G1 F720 X160.156 Y138.943 E42.24656
G0 F9000 X159.998 Y138.943
G0 X157.098 Y139.966
G0 X157.098 Y139.966
G0 X156.937 Y139.966
G1 F720 X160.131 Y143.16 E42.29129
G0 F9000 X160.088 Y143.001
G0 X159.998 Y134.701
G0 X159.998 Y134.701
G0 X160.156 Y134.701
G1 F720 X158.896 Y133.44 E42.30895
G0 F9000 X152.357 Y131.144
G1 F720 X148.654 Y127.441 E42.36081
G0 F9000 X148.654 Y127.601
G0 X145.698 Y128.566
G0 X145.698 Y128.566
G0 X145.537 Y128.566
G1 F720 X149.439 Y132.469 E42.41546
G0 F9000 X151.016 Y142.531
G1 F720 X152.357 Y143.872 E42.43424
G0 F9000 X152.198 Y143.872
G0 X151.587 Y147.212
G0 X151.587 Y147.212
G0 X151.612 Y147.37
G1 F720 X146.774 Y142.532 E42.502
G0 F9000 X146.774 Y142.692
G0 X145.698 Y145.538
G0 X145.698 Y145.538
G0 X145.538 Y145.538
G1 F720 X147.547 Y147.547 E42.53013
G0 F9000 X140.958 Y140.958
G1 F720 X137.937 Y137.937 E42.57244
G0 F9000 X138.098 Y137.937
G0 X140.123 Y136.786
G0 X140.157 Y136.36
G0 X140.803 Y136.401
G0 X140.803 Y136.56
G1 F720 X137.936 Y133.694 E42.61259
G0 F9000 X138.098 Y133.694
G0 X140.888 Y132.601
G0 X140.888 Y132.601
G0 X140.926 Y132.441
G1 F720 X140.957 Y132.472 E42.61302
G0 F9000 X140.798 Y132.511
G0 X138.098 Y142.18
G0 X138.098 Y142.18
G0 X137.938 Y142.18
G1 F720 X138.317 Y142.559 E42.61833
; LAYER:6
G0 F9000 X145.14 Y141.435 Z1.45
; TYPE:WALL-INNER
G1 F720 X145.14 Y133.566 E42.69626
G1 X152.855 Y133.566 E42.77266
G1 X152.855 Y141.435 E42.85058
G1 X145.14 Y141.435 E42.92699
G0 F9000 X145.49 Y141.085
G1 F720 X145.49 Y133.916 E42.99798
G1 X152.505 Y133.916 E43.06745
G1 X152.505 Y141.085 E43.13844
G1 X145.49 Y141.085 E43.20791
G0 F9000 X144.79 Y141.785
; TYPE:WALL-OUTER
G1 F600 X144.79 Y133.216 E43.29277
G1 X153.205 Y133.216 E43.37611
G1 X153.205 Y141.785 E43.46096
G1 X144.79 Y141.785 E43.5443
G0 F9000 X145.919 Y140.97
; TYPE:FILL
G1 F720 X145.604 Y140.654 E43.54872
G1 X145.919 Y140.97 E43.55314
G0 F9000 X146.414 Y140.97
G1 F720 X145.604 Y140.159 E43.56449
G0 F9000 X145.604 Y139.664
G1 F720 X146.447 Y140.507 E43.57629
G0 F9000 X146.76 Y140.82
G1 F720 X146.909 Y140.97 E43.57839
G0 F9000 X147.023 Y140.97
G1 F720 X147.57 Y138.929 E43.59931
G0 F9000 X147.1 Y138.685
G1 F720 X149.384 Y140.969 E43.6313
G0 F9000 X149.879 Y140.969
G1 F720 X147.1 Y138.19 E43.67022
G0 F9000 X147.1 Y137.695
G1 F720 X150.374 Y140.969 E43.71607
G0 F9000 X150.421 Y140.867
G1 F720 X152.389 Y140.34 E43.73625
G0 F9000 X152.389 Y140.509
G1 F720 X151.546 Y139.667 E43.74805
G0 F9000 X151.546 Y140.161
G1 F720 X152.353 Y140.969 E43.75935
G0 F9000 X151.858 Y140.969
G1 F720 X151.454 Y140.812 E43.76372
G1 X151.214 Y140.82 E43.7661
G0 F9000 X150.869 Y140.969
G1 F720 X147.1 Y137.2 E43.81888
G0 F9000 X147.1 Y136.705
G1 F720 X150.892 Y140.497 E43.87199
G0 F9000 X150.422 Y140.522
G1 F720 X150.869 Y140.969 E43.87825
G0 F9000 X150.647 Y140.969
G1 F720 X152.389 Y134.467 E43.94491
G0 F9000 X152.389 Y134.57
G1 F720 X151.85 Y134.031 E43.95246
G0 F9000 X151.546 Y134.222
G1 F720 X152.389 Y135.065 E43.96426
G0 F9000 X152.389 Y135.56
G1 F720 X151.546 Y134.717 E43.97607
G0 F9000 X151.546 Y135.212
G1 F720 X152.389 Y136.055 E43.98788
G0 F9000 X152.389 Y136.55
G1 F720 X151.546 Y135.707 E43.99968
G0 F9000 X151.546 Y136.202
G1 F720 X152.389 Y137.045 E44.01149
G0 F9000 X152.389 Y136.717
G1 F720 X150.421 Y137.244 E44.03166
G0 F9000 X150.892 Y137.033
G1 F720 X147.889 Y134.03 E44.07372
G0 F9000 X147.569 Y134.385
G1 F720 X145.604 Y134.911 E44.09387
G0 F9000 X145.604 Y134.715
G1 F720 X146.447 Y135.558 E44.10567
G0 F9000 X146.447 Y135.063
G1 F720 X145.604 Y134.22 E44.11748
G0 F9000 X145.91 Y134.03
G1 F720 X146.447 Y134.568 E44.12501
G0 F9000 X146.554 Y134.18
G1 F720 X146.652 Y134.03 E44.12709
G1 X147.05 Y134.181 E44.13131
G0 F9000 X147.1 Y134.23
G1 F720 X150.892 Y138.023 E44.18442
G0 F9000 X150.892 Y138.517
G1 F720 X147.1 Y134.725 E44.23753
G0 F9000 X147.1 Y135.22
G1 F720 X150.892 Y139.012 E44.29064
G0 F9000 X150.892 Y139.507
G1 F720 X147.1 Y135.715 E44.34374
G0 F9000 X147.1 Y136.21
G1 F720 X150.892 Y140.002 E44.39685
G0 F9000 X151.546 Y139.172
G1 F720 X152.389 Y140.014 E44.40865
G0 F9000 X152.389 Y139.519
G1 F720 X151.546 Y138.677 E44.42045
G0 F9000 X151.546 Y138.182
G1 F720 X152.389 Y139.024 E44.43225
G0 F9000 X152.389 Y138.529
G1 F720 X151.546 Y137.687 E44.44405
G0 F9000 X151.546 Y137.192
G1 F720 X152.389 Y138.035 E44.45585
G0 F9000 X152.389 Y137.54
G1 F720 X151.546 Y136.697 E44.46766
G0 F9000 X150.892 Y136.538
G1 F720 X148.384 Y134.03 E44.50278
G0 F9000 X148.879 Y134.03
G1 F720 X150.892 Y136.043 E44.53098
G0 F9000 X150.892 Y135.548
G1 F720 X149.375 Y134.031 E44.55222
G0 F9000 X149.87 Y134.031
G1 F720 X150.892 Y135.053 E44.56653
G0 F9000 X150.892 Y134.558
G1 F720 X150.365 Y134.031 E44.57391
G0 F9000 X150.86 Y134.031
G1 F720 X151.182 Y134.105 E44.57599
G1 X151.505 Y134.181 E44.57928
G0 F9000 X152.345 Y134.031
G1 F720 X152.389 Y134.075 E44.57989
G0 F9000 X150.422 Y135.572
G1 F720 X152.389 Y137.54 E44.60745
G0 F9000 X150.892 Y137.528
G1 F720 X147.394 Y134.03 E44.65644
G0 F9000 X145.604 Y135.21
G1 F720 X146.447 Y136.053 E44.66824
G0 F9000 X146.447 Y136.547
G1 F720 X145.604 Y135.705 E44.68004
G0 F9000 X145.604 Y135.705
G1 F720 X147.57 Y137.67 E44.70757
G0 F9000 X147.569 Y138.008
G1 F720 X145.603 Y138.535 E44.72772
G0 F9000 X145.604 Y138.674
G1 F720 X146.447 Y139.517 E44.73953
G0 F9000 X146.447 Y139.022
G1 F720 X145.604 Y138.179 E44.75134
G0 F9000 X145.604 Y137.685
G1 F720 X146.447 Y138.527 E44.76314
G0 F9000 X146.447 Y138.032
G1 F720 X145.604 Y137.19 E44.77494
G0 F9000 X145.604 Y136.695
G1 F720 X146.447 Y137.537 E44.78673
G0 F9000 X146.447 Y137.042
G1 F720 X145.604 Y136.2 E44.79853
G0 F9000 X145.604 Y139.169
G1 F720 X146.447 Y140.012 E44.81034
G0 F9000 X147.1 Y140.17
G1 F720 X147.899 Y140.97 E44.82154
G0 F9000 X148.394 Y140.97
G1 F720 X147.1 Y139.675 E44.83967
G0 F9000 X147.1 Y139.18
G1 F720 X148.889 Y140.97 E44.86473
G0 F9000 X147.404 Y140.97
G1 F720 X147.1 Y140.665 E44.86899
G0 F9000 X140.958 Y140.958
; TYPE:SUPPORT
G1 F720 X137.937 Y137.937 E44.9113
G0 F9000 X138.098 Y137.937
G0 X140.123 Y136.786
G0 X140.157 Y136.36
G0 X140.803 Y136.401
G0 X140.803 Y136.56
G1 F720 X137.936 Y133.694 E44.95145
G0 F9000 X138.098 Y133.694
G0 X140.888 Y132.601
G0 X140.888 Y132.601
G0 X140.926 Y132.441
G1 F720 X140.957 Y132.472 E44.95188
G0 F9000 X140.798 Y132.511
G0 X138.098 Y142.18
G0 X138.098 Y142.18
G0 X137.938 Y142.18
G1 F720 X138.317 Y142.559 E44.95719
G0 F9000 X145.538 Y145.538
G1 F720 X147.547 Y147.547 E44.98532
G0 F9000 X147.57 Y147.39
G0 X151.587 Y147.212
G0 X151.587 Y147.212
G0 X151.612 Y147.37
G1 F720 X146.842 Y142.6 E45.05213
G0 F9000 X146.842 Y142.76
G0 X151.085 Y142.76
G0 X151.085 Y142.76
G0 X151.085 Y142.6
G1 F720 X152.356 Y143.871 E45.06993
G0 F9000 X149.372 Y132.401
G1 F720 X145.537 Y128.566 E45.12364
G0 F9000 X145.698 Y128.566
G0 X148.654 Y127.601
G0 X148.654 Y127.601
G0 X148.654 Y127.441
G1 F720 X152.357 Y131.144 E45.1755
G0 F9000 X156.936 Y135.723
G1 F720 X160.156 Y138.943 E45.22059
G0 F9000 X159.998 Y138.943
G0 X157.098 Y139.966
G0 X157.098 Y139.966
G0 X156.937 Y139.966
G1 F720 X160.131 Y143.16 E45.26532
G0 F9000 X160.088 Y143.001
G0 X159.998 Y134.701
G0 X159.998 Y134.701
G0 X160.156 Y134.701
G1 F720 X158.896 Y133.44 E45.28298
; LAYER:7
G0 F9000 X153.154 Y133.497 Z1.65
; TYPE:WALL-INNER
G1 F720 X153.154 Y141.504 E45.36227
G1 X144.841 Y141.504 E45.44459
G1 X144.841 Y133.497 E45.52389
G1 X153.154 Y133.497 E45.60621
G0 F9000 X152.804 Y133.847
G1 F720 X152.804 Y141.154 E45.67857
G1 X145.191 Y141.154 E45.75396
G1 X145.191 Y133.847 E45.82632
G1 X152.804 Y133.847 E45.90172
G0 F9000 X153.504 Y133.147
; TYPE:WALL-OUTER
G1 F600 X153.504 Y141.854 E45.98794
G1 X144.491 Y141.854 E46.0772
G1 X144.491 Y133.147 E46.16342
G1 X153.504 Y133.147 E46.25268
G0 F9000 X152.628 Y133.962
; TYPE:FILL
G1 F720 X145.551 Y141.038 E46.35178
G0 F9000 X145.305 Y140.789
G1 F720 X152.133 Y133.962 E46.4474
G0 F9000 X152.525 Y133.961
G1 F720 X151.428 Y138.054 E46.48936
G0 F9000 X151.428 Y136.974
G1 F720 X152.689 Y136.636 E46.50229
G0 F9000 X152.687 Y136.872
G1 F720 X148.521 Y141.038 E46.56064
G0 F9000 X149.015 Y141.039
G1 F720 X152.687 Y137.367 E46.61206
G0 F9000 X152.688 Y137.839
G1 F720 X151.428 Y136.579 E46.62971
G0 F9000 X152.687 Y136.377
G1 F720 X148.026 Y141.038 E46.69499
G0 F9000 X147.531 Y141.038
G1 F720 X152.687 Y135.882 E46.7672
G0 F9000 X152.687 Y135.387
G1 F720 X147.036 Y141.038 E46.84634
G0 F9000 X146.541 Y141.038
G1 F720 X152.687 Y134.892 E46.93241
G0 F9000 X152.687 Y134.397
G1 F720 X146.046 Y141.038 E47.02542
G0 F9000 X145.988 Y141.038
G1 F720 X145.305 Y140.355 E47.03498
G0 F9000 X145.305 Y140.294
G1 F720 X151.638 Y133.962 E47.12367
G0 F9000 X151.143 Y133.962
G1 F720 X145.305 Y139.799 E47.20542
G0 F9000 X145.305 Y139.304
G1 F720 X150.648 Y133.962 E47.28025
G0 F9000 X150.153 Y133.962
G1 F720 X145.305 Y138.81 E47.34814
G0 F9000 X145.305 Y138.615
G1 F720 X146.565 Y138.277 E47.36106
G0 F9000 X145.305 Y138.315
G1 F720 X149.658 Y133.962 E47.42202
G0 F9000 X149.163 Y133.962
G1 F720 X145.305 Y137.82 E47.47605
G0 F9000 X145.305 Y137.325
G1 F720 X148.668 Y133.962 E47.52315
G0 F9000 X148.173 Y133.962
G1 F720 X145.305 Y136.83 E47.56332
G0 F9000 X145.305 Y136.335
G1 F720 X147.678 Y133.962 E47.59655
G0 F9000 X147.183 Y133.962
G1 F720 X145.305 Y135.84 E47.62285
G0 F9000 X145.305 Y135.405
G1 F720 X146.564 Y136.664 E47.64049
G0 F9000 X145.305 Y135.345
G1 F720 X146.688 Y133.962 E47.65986
G0 F9000 X146.193 Y133.962
G1 F720 X145.305 Y134.85 E47.67229
G0 F9000 X145.304 Y134.992
G1 F720 X146.565 Y134.654 E47.68522
G0 F9000 X145.698 Y133.962
G1 F720 X145.305 Y134.355 E47.69072
G0 F9000 X149.51 Y141.039
G1 F720 X152.688 Y137.861 E47.73523
G0 F9000 X152.688 Y138.356
G1 F720 X150.005 Y141.039 E47.77281
G0 F9000 X150.5 Y141.039
G1 F720 X152.688 Y138.851 E47.80345
G0 F9000 X152.688 Y139.346
G1 F720 X150.995 Y141.039 E47.82716
G0 F9000 X151.49 Y141.039
G1 F720 X152.688 Y139.841 E47.84394
G0 F9000 X152.688 Y140.26
G1 F720 X151.428 Y140.598 E47.85686
G0 F9000 X151.985 Y141.039
G1 F720 X152.688 Y140.336 E47.8667
G0 F9000 X152.688 Y140.831
G1 F720 X152.48 Y141.039 E47.86962
G0 F9000 X156.937 Y139.966
; TYPE:SUPPORT
G1 F720 X160.131 Y143.16 E47.91435
G0 F9000 X160.088 Y143.001
G0 X159.998 Y138.943
G0 X159.998 Y138.943
G0 X160.156 Y138.943
G1 F720 X156.936 Y135.723 E47.95944
G0 F9000 X157.098 Y135.723
G0 X158.896 Y133.601
G0 X158.896 Y133.601
G0 X158.896 Y133.44
G1 F720 X160.156 Y134.701 E47.9771
G0 F9000 X152.357 Y131.144
G1 F720 X148.654 Y127.441 E48.02896
G0 F9000 X148.654 Y127.601
G0 X145.698 Y128.566
G0 X145.698 Y128.566
G0 X145.537 Y128.566
G1 F720 X149.302 Y132.332 E48.08169
G0 F9000 X151.153 Y142.668
G1 F720 X152.357 Y143.872 E48.09855
G0 F9000 X152.198 Y143.872
G0 X151.587 Y147.212
G0 X151.587 Y147.212
G0 X151.612 Y147.37
G1 F720 X146.912 Y142.669 E48.16438
G0 F9000 X146.912 Y142.829
G0 X145.698 Y145.538
G0 X145.698 Y145.538
G0 X145.538 Y145.538
G1 F720 X147.547 Y147.547 E48.19252
G0 F9000 X140.958 Y140.958
G1 F720 X137.937 Y137.937 E48.23483
G0 F9000 X138.098 Y137.937
G0 X140.123 Y136.786
G0 X140.157 Y136.36
G0 X140.803 Y136.401
G0 X140.803 Y136.56
G1 F720 X137.936 Y133.694 E48.27497
G0 F9000 X138.098 Y133.694
G0 X140.888 Y132.601
G0 X140.888 Y132.601
G0 X140.926 Y132.441
G1 F720 X140.957 Y132.472 E48.27541
G0 F9000 X140.798 Y132.511
G0 X138.098 Y142.18
G0 X138.098 Y142.18
G0 X137.938 Y142.18
G1 F720 X138.317 Y142.559 E48.28072
; LAYER:8
G0 F9000 X144.541 Y141.572 Z1.85
; TYPE:WALL-INNER
G1 F720 X144.541 Y133.429 E48.36136
G1 X153.454 Y133.429 E48.44962
G1 X153.454 Y141.572 E48.53026
G1 X144.541 Y141.572 E48.61853
G0 F9000 X144.891 Y141.222
G1 F720 X144.891 Y133.779 E48.69223
G1 X153.104 Y133.779 E48.77357
G1 X153.104 Y141.222 E48.84727
G1 X144.891 Y141.222 E48.92861
G0 F9000 X144.191 Y141.922
; TYPE:WALL-OUTER
G1 F600 X144.191 Y133.079 E49.01618
G1 X153.804 Y133.079 E49.11138
G1 X153.804 Y141.922 E49.19895
G1 X144.191 Y141.922 E49.29415
G0 F9000 X145.066 Y141.106
; TYPE:FILL
G1 F720 X145.005 Y141.045 E49.295
G0 F9000 X145.005 Y140.55
G1 F720 X145.561 Y141.106 E49.30279
G0 F9000 X145.756 Y140.806
G1 F720 X145.005 Y140.055 E49.31331
G0 F9000 X145.005 Y140.055
G1 F720 X146.056 Y141.106 E49.32802
G0 F9000 X146.551 Y141.106
G1 F720 X145.005 Y139.56 E49.34968
G0 F9000 X145.005 Y139.065
G1 F720 X147.046 Y141.106 E49.37826
G0 F9000 X147.541 Y141.106
G1 F720 X145.005 Y138.571 E49.41377
G0 F9000 X145.005 Y138.695
G1 F720 X145.756 Y138.494 E49.42147
G0 F9000 X145.005 Y138.076
G1 F720 X148.036 Y141.106 E49.46391
G0 F9000 X148.531 Y141.106
G1 F720 X145.005 Y137.581 E49.51328
G0 F9000 X145.005 Y137.086
G1 F720 X149.026 Y141.107 E49.5696
G0 F9000 X149.521 Y141.107
G1 F720 X145.005 Y136.591 E49.63284
G0 F9000 X145.005 Y136.096
G1 F720 X150.016 Y141.107 E49.70302
G0 F9000 X150.511 Y141.107
G1 F720 X145.005 Y135.601 E49.78013
G0 F9000 X145.005 Y135.106
G1 F720 X151.006 Y141.107 E49.86418
G0 F9000 X151.501 Y141.107
G1 F720 X145.005 Y134.611 E49.95515
G0 F9000 X145.005 Y134.979
G1 F720 X145.296 Y133.892 E49.9663
G0 F9000 X145.278 Y133.894
G1 F720 X152.491 Y141.107 E50.06732
G0 F9000 X151.996 Y141.107
G1 F720 X145.005 Y134.116 E50.16522
G0 F9000 X145.773 Y133.894
G1 F720 X152.986 Y141.107 E50.26624
G0 F9000 X152.988 Y140.613
G1 F720 X146.268 Y133.894 E50.36035
G0 F9000 X146.763 Y133.894
G1 F720 X152.988 Y140.118 E50.44752
G0 F9000 X152.988 Y140.18
G1 F720 X152.237 Y140.381 E50.45522
G0 F9000 X152.988 Y139.623
G1 F720 X147.258 Y133.894 E50.53546
G0 F9000 X147.753 Y133.894
G1 F720 X152.988 Y139.128 E50.60877
G0 F9000 X152.988 Y138.633
G1 F720 X148.248 Y133.894 E50.67515
G0 F9000 X148.743 Y133.894
G1 F720 X152.988 Y138.138 E50.73459
G0 F9000 X152.988 Y138.138
G1 F720 X152.237 Y137.388 E50.7451
G0 F9000 X152.237 Y136.757
G1 F720 X152.988 Y136.556 E50.7528
G0 F9000 X152.988 Y136.654
G1 F720 X150.227 Y133.893 E50.79147
G0 F9000 X149.732 Y133.893
G1 F720 X152.988 Y137.149 E50.83707
G0 F9000 X152.988 Y137.643
G1 F720 X149.237 Y133.893 E50.88959
G0 F9000 X150.722 Y133.893
G1 F720 X152.988 Y136.159 E50.92133
G0 F9000 X152.988 Y135.664
G1 F720 X151.217 Y133.893 E50.94613
G0 F9000 X151.712 Y133.893
G1 F720 X152.988 Y135.169 E50.964
G0 F9000 X152.988 Y134.674
G1 F720 X152.207 Y133.893 E50.97494
G0 F9000 X152.543 Y133.893
G1 F720 X152.237 Y135.037 E50.98667
G0 F9000 X152.988 Y134.179
G1 F720 X152.702 Y133.893 E50.99067
G0 F9000 X145.756 Y134.871
G1 F720 X145.005 Y135.072 E50.99837
G0 F9000 X145.005 Y135.106
G1 F720 X145.756 Y135.857 E51.00889
G0 F9000 X140.803 Y136.56
; TYPE:SUPPORT
G1 F720 X137.936 Y133.694 E51.04903
G0 F9000 X138.098 Y133.694
G0 X140.888 Y132.601
G0 X140.888 Y132.601
G0 X140.926 Y132.441
G1 F720 X140.957 Y132.472 E51.04947
G0 F9000 X140.798 Y132.511
G0 X138.098 Y137.937
G0 X138.098 Y137.937
G0 X137.937 Y137.937
G1 F720 X140.958 Y140.958 E51.09178
G0 F9000 X140.798 Y140.958
G0 X138.317 Y142.401
G0 X138.317 Y142.401
G0 X138.317 Y142.559
G1 F720 X137.938 Y142.18 E51.09708
G0 F9000 X145.538 Y145.538
G1 F720 X147.547 Y147.547 E51.12522
G0 F9000 X147.57 Y147.39
G0 X151.587 Y147.212
G0 X151.587 Y147.212
G0 X151.612 Y147.37
G1 F720 X146.979 Y142.737 E51.1901
G0 F9000 X146.979 Y142.897
G0 X151.221 Y142.897
G0 X151.221 Y142.897
G0 X151.221 Y142.736
G1 F720 X152.357 Y143.872 E51.20601
G0 F9000 X149.234 Y132.264
G1 F720 X145.537 Y128.566 E51.2578
G0 F9000 X145.698 Y128.566
G0 X148.654 Y127.601
G0 X148.654 Y127.601
G0 X148.654 Y127.441
G1 F720 X152.357 Y131.144 E51.30966
G0 F9000 X156.936 Y135.723
G1 F720 X160.156 Y138.943 E51.35475
G0 F9000 X159.998 Y138.943
G0 X157.098 Y139.966
G0 X157.098 Y139.966
G0 X156.937 Y139.966
G1 F720 X160.131 Y143.16 E51.39948
G0 F9000 X160.088 Y143.001
G0 X159.998 Y134.701
G0 X159.998 Y134.701
G0 X160.156 Y134.701
G1 F720 X158.896 Y133.44 E51.41714
; LAYER:9
G0 F9000 X147.511 Y133.361 Z2.05
; TYPE:WALL-INNER
G1 F720 X147.511 Y141.64 E51.49912
G1 X144.242 Y141.64 E51.5315
G1 X144.242 Y133.361 E51.61348
G1 X147.511 Y133.361 E51.64586
G0 F9000 X147.161 Y133.711
G1 F720 X147.161 Y141.29 E51.72091
G1 X144.592 Y141.29 E51.74635
G1 X144.592 Y133.711 E51.82141
G1 X147.161 Y133.711 E51.84685
G0 F9000 X147.861 Y133.011
; TYPE:WALL-OUTER
G1 F600 X147.861 Y141.99 E51.93577
G1 X143.892 Y141.99 E51.97507
G1 X143.892 Y133.011 E52.06399
G1 X147.861 Y133.011 E52.1033
G0 F9000 X146.824 Y133.826
; TYPE:FILL
G1 F720 X144.706 Y135.944 E52.13296
G0 F9000 X144.706 Y136.096
G1 F720 X145.314 Y133.825 E52.15624
G0 F9000 X145.34 Y133.825
G1 F720 X144.706 Y134.459 E52.16512
G0 F9000 X144.706 Y134.807
G1 F720 X145.457 Y135.558 E52.17564
G0 F9000 X145.457 Y134.951
G1 F720 X144.706 Y135.152 E52.18334
G0 F9000 X144.706 Y134.954
G1 F720 X145.835 Y133.825 E52.19915
G0 F9000 X146.329 Y133.826
G1 F720 X144.706 Y135.449 E52.22188
G0 F9000 X144.706 Y136.439
G1 F720 X147.044 Y134.1 E52.25463
G0 F9000 X147.044 Y134.595
G1 F720 X144.706 Y136.934 E52.28738
G0 F9000 X144.706 Y137.429
G1 F720 X147.044 Y135.09 E52.32013
G0 F9000 X147.044 Y135.585
G1 F720 X144.706 Y137.924 E52.35288
G0 F9000 X144.706 Y138.418
G1 F720 X147.044 Y136.08 E52.38562
G0 F9000 X147.044 Y136.575
G1 F720 X144.706 Y138.913 E52.41837
G0 F9000 X144.706 Y138.775
G1 F720 X145.457 Y138.574 E52.42606
G0 F9000 X144.706 Y139.408
G1 F720 X147.044 Y137.07 E52.45881
G0 F9000 X147.045 Y137.564
G1 F720 X144.706 Y139.903 E52.49157
G0 F9000 X144.706 Y139.756
G1 F720 X145.457 Y140.507 E52.50208
G0 F9000 X145.415 Y141.175
G1 F720 X147.045 Y139.544 E52.52492
G0 F9000 X147.045 Y139.049
G1 F720 X144.92 Y141.175 E52.55469
G0 F9000 X144.706 Y140.893
G1 F720 X147.045 Y138.554 E52.58744
G0 F9000 X147.045 Y138.059
G1 F720 X144.706 Y140.398 E52.6202
G0 F9000 X145.91 Y141.175
G1 F720 X147.045 Y140.039 E52.6361
G0 F9000 X147.045 Y140.534
G1 F720 X146.405 Y141.175 E52.64507
G0 F9000 X146.9 Y141.175
G1 F720 X147.045 Y141.029 E52.64711
G0 F9000 X144.706 Y133.964
G1 F720 X144.845 Y133.825 E52.64906
G1 F1800 E49.64906
G1 Z3.05
G0 F9000 X150.483 Y133.361
; TYPE:WALL-INNER
G1 Z2.05
G1 F1800 E52.64906
G1 F720 X153.753 Y133.361 E52.68144
G1 X153.753 Y141.64 E52.76343
G1 X150.483 Y141.64 E52.79581
G1 X150.483 Y133.361 E52.8778
G0 F9000 X150.833 Y133.711
G1 F720 X153.403 Y133.711 E52.90325
G1 X153.403 Y141.29 E52.9783
G1 X150.833 Y141.29 E53.00375
G1 X150.833 Y133.711 E53.07881
G0 F9000 X150.133 Y133.011
; TYPE:WALL-OUTER
G1 F600 X154.103 Y133.011 E53.11812
G1 X154.103 Y141.99 E53.20704
G1 X150.133 Y141.99 E53.24636
G1 X150.133 Y133.011 E53.33527
G0 F9000 X150.947 Y134.157
; TYPE:FILL
G1 F720 X151.279 Y133.825 E53.33992
G0 F9000 X151.774 Y133.825
G1 F720 X150.947 Y134.652 E53.35151
G0 F9000 X150.947 Y135.147
G1 F720 X152.269 Y133.826 E53.37001
G0 F9000 X152.536 Y133.918
G1 F720 X152.561 Y133.825 E53.37097
G0 F9000 X152.764 Y133.826
G1 F720 X150.947 Y135.642 E53.39641
G0 F9000 X150.947 Y136.137
G1 F720 X153.259 Y133.826 E53.42878
G0 F9000 X153.287 Y134.293
G1 F720 X150.947 Y136.632 E53.46154
G0 F9000 X150.947 Y137.127
G1 F720 X153.287 Y134.787 E53.49432
G0 F9000 X153.287 Y135.282
G1 F720 X150.947 Y137.622 E53.52709
G0 F9000 X150.947 Y138.117
G1 F720 X153.287 Y135.777 E53.55986
G0 F9000 X153.287 Y136.272
G1 F720 X150.947 Y138.612 E53.59263
G0 F9000 X150.947 Y139.107
G1 F720 X153.287 Y136.767 E53.6254
G0 F9000 X153.287 Y136.476
G1 F720 X152.536 Y136.677 E53.6331
G0 F9000 X153.287 Y137.262
G1 F720 X150.947 Y139.602 E53.66587
G0 F9000 X150.947 Y140.097
G1 F720 X153.287 Y137.757 E53.69864
G0 F9000 X153.287 Y138.252
G1 F720 X150.947 Y140.592 E53.73142
G0 F9000 X150.947 Y141.087
G1 F720 X153.287 Y138.747 E53.76419
G0 F9000 X153.287 Y138.438
G1 F720 X152.536 Y137.687 E53.7747
G0 F9000 X153.287 Y139.242
G1 F720 X151.354 Y141.175 E53.80178
G0 F9000 X151.849 Y141.175
G1 F720 X153.287 Y139.737 E53.82192
G0 F9000 X153.287 Y140.1
G1 F720 X152.536 Y140.301 E53.82961
G0 F9000 X153.287 Y140.232
G1 F720 X152.345 Y141.174 E53.84281
G0 F9000 X152.84 Y141.174
G1 F720 X153.287 Y140.727 E53.84907
G0 F9000 X156.937 Y139.966
; TYPE:SUPPORT
G1 F720 X160.131 Y143.16 E53.8938
G0 F9000 X160.088 Y143.001
G0 X159.998 Y138.943
G0 X159.998 Y138.943
G0 X160.156 Y138.943
G1 F720 X156.936 Y135.723 E53.93889
G0 F9000 X157.098 Y135.723
G0 X158.896 Y133.601
G0 X158.896 Y133.601
G0 X158.896 Y133.44
G1 F720 X160.156 Y134.701 E53.95655
G0 F9000 X152.357 Y131.144
G1 F720 X148.654 Y127.441 E54.00841
G0 F9000 X148.654 Y127.601
G0 X145.698 Y128.566
G0 X145.698 Y128.566
G0 X145.537 Y128.566
G1 F720 X149.167 Y132.196 E54.05925
G0 F9000 X147.047 Y142.805
G1 F720 X151.612 Y147.37 E54.12318
G0 F9000 X151.587 Y147.212
G0 X152.198 Y143.871
G0 X152.198 Y143.871
G0 X152.356 Y143.871
G1 F720 X151.29 Y142.805 E54.13811
G0 F9000 X151.29 Y142.965
G0 X147.57 Y147.39
G0 X147.57 Y147.39
G0 X147.547 Y147.547
G1 F720 X145.538 Y145.538 E54.16624
G0 F9000 X140.958 Y140.958
G1 F720 X137.937 Y137.937 E54.20855
G0 F9000 X138.098 Y137.937
G0 X140.123 Y136.786
G0 X140.157 Y136.36
G0 X140.803 Y136.401
G0 X140.803 Y136.56
G1 F720 X137.936 Y133.694 E54.2487
G0 F9000 X138.098 Y133.694
G0 X140.888 Y132.601
G0 X140.888 Y132.601
G0 X140.926 Y132.441
G1 F720 X140.957 Y132.472 E54.24913
G0 F9000 X140.798 Y132.511
G0 X138.098 Y142.18
G0 X138.098 Y142.18
G0 X137.938 Y142.18
G1 F720 X138.317 Y142.559 E54.25444
; LAYER:10
G0 F9000 X143.943 Y141.708 Z2.25
; TYPE:WALL-INNER
G1 F720 X143.943 Y133.293 E54.33777
G1 X146.505 Y133.292 E54.36314
G1 X146.505 Y141.709 E54.4465
G1 X143.943 Y141.708 E54.47187
G0 F9000 X144.293 Y141.358
G1 F720 X144.293 Y133.643 E54.54827
G1 X146.155 Y133.642 E54.56671
G1 X146.155 Y141.359 E54.64313
G1 X144.293 Y141.358 E54.66157
G0 F9000 X143.593 Y142.058
; TYPE:WALL-OUTER
G1 F600 X143.593 Y132.943 E54.75184
G1 X146.855 Y132.942 E54.78414
G1 X146.855 Y142.059 E54.87442
G1 X143.593 Y142.058 E54.90673
G0 F9000 X144.707 Y141.243
; TYPE:FILL
G1 F720 X144.406 Y140.941 E54.91095
G0 F9000 X144.406 Y140.446
G1 F720 X145.202 Y141.243 E54.92211
G0 F9000 X145.698 Y141.243
G1 F720 X144.406 Y139.951 E54.9402
G0 F9000 X144.406 Y139.457
G1 F720 X146.039 Y141.089 E54.96306
G0 F9000 X146.039 Y140.594
G1 F720 X144.406 Y138.962 E54.98593
G0 F9000 X144.408 Y138.855
G1 F720 X145.158 Y138.654 E54.99362
G0 F9000 X144.406 Y138.467
G1 F720 X146.039 Y140.099 E55.01648
G0 F9000 X146.039 Y139.604
G1 F720 X144.406 Y137.972 E55.03934
G0 F9000 X144.407 Y137.477
G1 F720 X146.039 Y139.109 E55.0622
G0 F9000 X146.039 Y138.614
G1 F720 X144.407 Y136.982 E55.08505
G0 F9000 X144.407 Y137.211
G1 F720 X145.159 Y134.406 E55.11381
G0 F9000 X145.3 Y133.877
G1 F720 X145.333 Y133.756 E55.11505
G0 F9000 X145.142 Y133.757
G1 F720 X146.039 Y134.655 E55.12762
G0 F9000 X146.039 Y135.15
G1 F720 X144.647 Y133.758 E55.14712
G0 F9000 X144.407 Y134.012
G1 F720 X146.039 Y135.645 E55.16998
G0 F9000 X146.039 Y136.139
G1 F720 X144.407 Y134.507 E55.19284
G0 F9000 X144.407 Y134.507
G1 F720 X145.157 Y135.258 E55.20335
G0 F9000 X145.158 Y135.031
G1 F720 X144.407 Y135.232 E55.21105
G0 F9000 X144.407 Y135.002
G1 F720 X146.039 Y136.634 E55.2339
G0 F9000 X146.039 Y137.129
G1 F720 X144.407 Y135.497 E55.25676
G0 F9000 X144.407 Y135.992
G1 F720 X146.039 Y137.624 E55.27962
G0 F9000 X146.039 Y138.119
G1 F720 X144.407 Y136.487 E55.30247
G0 F9000 X146.039 Y134.16
G1 F720 X145.636 Y133.757 E55.30812
G0 F9000 X144.406 Y139.457
G1 F720 X145.157 Y140.207 E55.31863
G1 F1800 E52.31863
G1 Z3.25
G0 F9000 X151.489 Y141.709
; TYPE:WALL-INNER
G1 Z2.25
G1 F1800 E55.31863
G1 F720 X151.489 Y133.292 E55.40198
G1 X154.052 Y133.293 E55.42736
G1 X154.052 Y141.708 E55.51069
G1 X151.489 Y141.709 E55.53608
G0 F9000 X151.839 Y141.359
G1 F720 X151.839 Y133.642 E55.6125
G1 X153.702 Y133.643 E55.63095
G1 X153.702 Y141.358 E55.70735
G1 X151.839 Y141.359 E55.7258
G0 F9000 X151.139 Y142.059
; TYPE:WALL-OUTER
G1 F600 X151.139 Y132.942 E55.81608
G1 X154.402 Y132.943 E55.8484
G1 X154.402 Y142.058 E55.93866
G1 X151.139 Y142.059 E55.97097
G0 F9000 X151.953 Y141.064
; TYPE:FILL
G1 F720 X152.133 Y141.243 E55.97349
G0 F9000 X152.628 Y141.243
G1 F720 X151.953 Y140.569 E55.98294
G0 F9000 X151.953 Y140.074
G1 F720 X153.122 Y141.243 E55.99931
G0 F9000 X153.586 Y141.212
G1 F720 X151.953 Y139.579 E56.02218
G0 F9000 X151.953 Y139.084
G1 F720 X153.586 Y140.717 E56.04505
G0 F9000 X153.586 Y140.222
G1 F720 X151.953 Y138.589 E56.06792
G0 F9000 X151.953 Y138.094
G1 F720 X153.586 Y139.727 E56.09079
G0 F9000 X153.586 Y140.02
G1 F720 X152.834 Y140.221 E56.0985
G0 F9000 X153.586 Y139.232
G1 F720 X151.953 Y137.599 E56.12137
G0 F9000 X151.953 Y137.104
G1 F720 X153.586 Y138.737 E56.14424
G0 F9000 X153.586 Y138.737
G1 F720 X152.835 Y137.986 E56.15475
G0 F9000 X153.586 Y137.747
G1 F720 X151.953 Y136.114 E56.17762
G0 F9000 X151.953 Y135.619
G1 F720 X153.586 Y137.252 E56.20049
G0 F9000 X153.586 Y136.757
G1 F720 X151.953 Y135.124 E56.22336
G0 F9000 X151.953 Y134.629
G1 F720 X153.586 Y136.262 E56.24623
G0 F9000 X153.586 Y136.396
G1 F720 X152.835 Y136.597 E56.25393
G0 F9000 X151.953 Y136.609
G1 F720 X153.586 Y138.242 E56.2768
G0 F9000 X153.586 Y135.767
G1 F720 X151.953 Y134.134 E56.29967
G0 F9000 X152.071 Y133.757
G1 F720 X153.586 Y135.272 E56.32089
G0 F9000 X153.586 Y134.777
G1 F720 X152.566 Y133.757 E56.33517
G0 F9000 X152.58 Y133.756
G1 F720 X152.548 Y133.877 E56.33641
G0 F9000 X153.061 Y133.757
G1 F720 X153.586 Y134.282 E56.34377
G0 F9000 X153.586 Y133.787
G1 F720 X153.556 Y133.757 E56.34419
G1 X153.586 Y133.787 E56.34461
G0 F9000 X140.957 Y132.472
; TYPE:SUPPORT
G1 F720 X140.926 Y132.441 E56.34504
G0 F9000 X140.888 Y132.601
G0 X138.098 Y133.694
G0 X138.098 Y133.694
G0 X137.936 Y133.694
G1 F720 X140.803 Y136.56 E56.38519
G0 F9000 X140.803 Y136.401
G0 X140.8 Y136.401
G0 X140.157 Y136.36
G0 X138.098 Y137.937
G0 X137.937 Y137.937
G1 F720 X140.958 Y140.958 E56.4275
G0 F9000 X140.798 Y140.958
G0 X138.317 Y142.401
G0 X138.317 Y142.401
G0 X138.317 Y142.559
G1 F720 X137.938 Y142.18 E56.4328
G0 F9000 X145.538 Y145.538
G1 F720 X147.547 Y147.547 E56.46094
G0 F9000 X147.57 Y147.39
G0 X151.587 Y147.212
G0 X151.587 Y147.212
G0 X151.612 Y147.37
G1 F720 X147.116 Y142.873 E56.52391
G0 F9000 X147.116 Y143.034
G0 X147.132 Y143.025
G0 X147.871 Y143.075
G0 X149.926 Y141.601
G0 X149.926 Y141.441
G1 F720 X150.323 Y141.838 E56.52947
G0 F9000 X151.359 Y142.873
G1 F720 X152.357 Y143.872 E56.54346
G0 F9000 X150.323 Y133.353
G1 F720 X145.537 Y128.566 E56.61049
G0 F9000 X145.698 Y128.566
G0 X148.654 Y127.601
G0 X148.654 Y127.601
G0 X148.654 Y127.441
G1 F720 X152.357 Y131.144 E56.66235
G0 F9000 X156.936 Y135.723
G1 F720 X160.156 Y138.943 E56.70745
G0 F9000 X159.998 Y138.943
G0 X157.098 Y139.966
G0 X157.098 Y139.966
G0 X156.937 Y139.966
G1 F720 X160.131 Y143.16 E56.75218
G0 F9000 X160.088 Y143.001
G0 X159.998 Y134.701
G0 X159.998 Y134.701
G0 X160.156 Y134.701
G1 F720 X158.896 Y133.44 E56.76983
; LAYER:11
G0 F9000 X145.697 Y133.224 Z2.45
; TYPE:WALL-INNER
G1 F720 X145.697 Y141.777 E56.85453
G1 X143.643 Y141.777 E56.87487
G1 X143.643 Y133.224 E56.95957
G1 X145.697 Y133.224 E56.97991
G0 F9000 X145.347 Y133.574
G1 F720 X145.347 Y141.427 E57.05768
G1 X143.993 Y141.427 E57.07109
G1 X143.993 Y133.574 E57.14886
G1 X145.347 Y133.574 E57.16227
G0 F9000 X146.047 Y132.874
; TYPE:WALL-OUTER
G1 F600 X146.047 Y142.127 E57.2539
G1 X143.293 Y142.127 E57.28117
G1 X143.293 Y132.874 E57.3728
G1 X146.047 Y132.874 E57.40008
G0 F9000 X145.231 Y133.934
; TYPE:FILL
G1 F720 X144.107 Y135.058 E57.41582
G0 F9000 X144.107 Y135.312
G1 F720 X145.232 Y135.011 E57.42735
G0 F9000 X145.231 Y134.924
G1 F720 X144.107 Y136.048 E57.44309
G0 F9000 X144.107 Y135.553
G1 F720 X145.231 Y134.429 E57.45883
G0 F9000 X145.231 Y134.136
G1 F720 X144.107 Y138.332 E57.50185
G0 F9000 X144.107 Y138.522
G1 F720 X145.231 Y137.399 E57.51759
G0 F9000 X145.231 Y136.904
G1 F720 X144.107 Y138.027 E57.53332
G0 F9000 X144.107 Y137.532
G1 F720 X145.231 Y136.409 E57.54906
G0 F9000 X145.231 Y135.914
G1 F720 X144.107 Y137.038 E57.5648
G0 F9000 X144.107 Y136.543
G1 F720 X145.231 Y135.419 E57.58054
G0 F9000 X145.231 Y135.331
G1 F720 X144.107 Y134.208 E57.59627
G0 F9000 X144.107 Y134.068
G1 F720 X144.486 Y133.689 E57.60158
G0 F9000 X144.982 Y133.688
G1 F720 X144.107 Y134.563 E57.61384
G0 F9000 X145.231 Y137.894
G1 F720 X144.107 Y139.017 E57.62957
G0 F9000 X144.107 Y138.936
G1 F720 X145.232 Y138.635 E57.6411
G0 F9000 X145.231 Y138.389
G1 F720 X144.107 Y139.512 E57.65684
G0 F9000 X144.107 Y139.157
G1 F720 X145.231 Y140.281 E57.67258
G0 F9000 X145.231 Y140.369
G1 F720 X144.288 Y141.311 E57.68578
G0 F9000 X144.107 Y140.997
G1 F720 X145.231 Y139.874 E57.70151
G0 F9000 X145.231 Y139.379
G1 F720 X144.107 Y140.502 E57.71725
G0 F9000 X144.107 Y140.007
G1 F720 X145.231 Y138.884 E57.73298
G0 F9000 X145.231 Y140.864
G1 F720 X144.782 Y141.312 E57.73926
G1 F1800 E54.73926
G1 Z3.45
G0 F9000 X152.298 Y141.777
; TYPE:WALL-INNER
G1 Z2.45
G1 F1800 E57.73926
G1 F720 X152.298 Y133.224 E57.82396
G1 X154.352 Y133.224 E57.8443
G1 X154.352 Y141.777 E57.929
G1 X152.298 Y141.777 E57.94934
G0 F9000 X152.648 Y141.427
G1 F720 X152.648 Y133.574 E58.02711
G1 X154.002 Y133.574 E58.04052
G1 X154.002 Y141.427 E58.11829
G1 X152.648 Y141.427 E58.1317
G0 F9000 X151.948 Y142.127
; TYPE:WALL-OUTER
G1 F600 X151.948 Y132.874 E58.22333
G1 X154.702 Y132.874 E58.2506
G1 X154.702 Y142.127 E58.34224
G1 X151.948 Y142.127 E58.36951
G0 F9000 X152.762 Y141.252
; TYPE:FILL
G1 F720 X153.886 Y140.128 E58.38525
G0 F9000 X153.886 Y139.939
G1 F720 X152.762 Y140.24 E58.39677
G0 F9000 X152.762 Y140.262
G1 F720 X153.886 Y139.138 E58.41251
G0 F9000 X153.886 Y139.036
G1 F720 X152.762 Y137.913 E58.42825
G0 F9000 X152.762 Y137.787
G1 F720 X153.886 Y136.663 E58.44399
G0 F9000 X153.886 Y136.316
G1 F720 X152.762 Y136.617 E58.45551
G0 F9000 X152.762 Y136.797
G1 F720 X153.886 Y135.673 E58.47125
G0 F9000 X153.886 Y135.179
G1 F720 X152.762 Y136.302 E58.48699
G0 F9000 X152.762 Y135.807
G1 F720 X153.886 Y134.684 E58.50272
G0 F9000 X153.886 Y134.189
G1 F720 X152.762 Y135.312 E58.51846
G0 F9000 X152.762 Y134.817
G1 F720 X153.886 Y133.694 E58.53419
G0 F9000 X153.886 Y134.087
G1 F720 X153.487 Y133.688 E58.53978
G0 F9000 X153.396 Y133.688
G1 F720 X152.762 Y134.322 E58.54866
G0 F9000 X152.762 Y133.827
G1 F720 X152.901 Y133.689 E58.5506
G0 F9000 X153.886 Y136.168
G1 F720 X152.762 Y137.292 E58.56634
G0 F9000 X152.762 Y138.282
G1 F720 X153.886 Y137.158 E58.58208
G0 F9000 X153.886 Y137.653
G1 F720 X152.762 Y138.777 E58.59782
G0 F9000 X152.762 Y139.272
G1 F720 X153.886 Y138.148 E58.61357
G0 F9000 X153.886 Y138.643
G1 F720 X152.762 Y139.767 E58.62931
G0 F9000 X152.762 Y140.757
G1 F720 X153.886 Y139.633 E58.64505
G0 F9000 X153.886 Y140.623
G1 F720 X153.198 Y141.311 E58.65468
G0 F9000 X153.692 Y141.312
G1 F720 X153.886 Y141.118 E58.6574
G0 F9000 X156.937 Y139.966
; TYPE:SUPPORT
G1 F720 X160.131 Y143.16 E58.70213
G0 F9000 X160.088 Y143.001
G0 X159.998 Y138.943
G0 X159.998 Y138.943
G0 X160.156 Y138.943
G1 F720 X156.936 Y135.723 E58.74723
G0 F9000 X157.098 Y135.723
G0 X158.896 Y133.601
G0 X158.896 Y133.601
G0 X158.896 Y133.44
G1 F720 X160.156 Y134.701 E58.76488
G0 F9000 X152.357 Y131.144
G1 F720 X148.654 Y127.441 E58.81674
G0 F9000 X148.654 Y127.601
G0 X145.698 Y128.566
G0 X145.698 Y128.566
G0 X145.537 Y128.566
G1 F720 X150.521 Y133.551 E58.88655
G0 F9000 X149.926 Y141.441
G1 F720 X151.132 Y142.646 E58.90343
G0 F9000 X151.427 Y142.942
G1 F720 X152.357 Y143.872 E58.91646
G0 F9000 X152.198 Y143.872
G0 X151.587 Y147.212
G0 X151.587 Y147.212
G0 X151.612 Y147.37
G1 F720 X146.861 Y142.618 E58.983
G0 F9000 X147.022 Y142.618
G0 X147.003 Y142.657
G0 X147.063 Y143.143
G0 X145.698 Y145.538
G0 X145.538 Y145.538
G1 F720 X147.547 Y147.547 E59.01114
G0 F9000 X140.958 Y140.958
G1 F720 X137.937 Y137.937 E59.05345
G0 F9000 X138.098 Y137.937
G0 X140.123 Y136.786
G0 X140.157 Y136.36
G0 X140.803 Y136.401
G0 X140.803 Y136.56
G1 F720 X137.936 Y133.694 E59.09359
G0 F9000 X138.098 Y133.694
G0 X140.888 Y132.601
G0 X140.888 Y132.601
G0 X140.926 Y132.441
G1 F720 X140.957 Y132.472 E59.09403
G0 F9000 X140.798 Y132.511
G0 X138.098 Y142.18
G0 X138.098 Y142.18
G0 X137.938 Y142.18
G1 F720 X138.317 Y142.559 E59.09933
; LAYER:12
G0 F9000 X143.344 Y141.845 Z2.65
; TYPE:WALL-INNER
G1 F720 X143.344 Y133.156 E59.18538
G1 X145.398 Y133.156 E59.20572
G1 X145.398 Y141.845 E59.29177
G1 X143.344 Y141.845 E59.31211
G0 F9000 X143.694 Y141.495
G1 F720 X143.694 Y133.506 E59.39122
G1 X145.048 Y133.506 E59.40463
G1 X145.048 Y141.495 E59.48375
G1 X143.694 Y141.495 E59.49716
G0 F9000 X142.994 Y142.195
; TYPE:WALL-OUTER
G1 F600 X142.994 Y132.806 E59.59013
G1 X145.748 Y132.806 E59.61741
G1 X145.748 Y142.195 E59.71039
G1 X142.994 Y142.195 E59.73766
G0 F9000 X143.855 Y141.38
; TYPE:FILL
G1 F720 X143.808 Y141.333 E59.73832
G0 F9000 X143.808 Y140.838
G1 F720 X144.35 Y141.38 E59.74591
G0 F9000 X144.844 Y141.379
G1 F720 X143.808 Y140.343 E59.76042
G0 F9000 X143.808 Y139.848
G1 F720 X144.932 Y140.972 E59.77616
G0 F9000 X144.932 Y140.477
G1 F720 X143.808 Y139.353 E59.7919
G0 F9000 X143.808 Y139.447
G1 F720 X144.932 Y135.25 E59.83493
G0 F9000 X144.931 Y135.092
G1 F720 X143.808 Y135.393 E59.84644
G0 F9000 X143.808 Y135.393
G1 F720 X144.932 Y136.517 E59.86218
G0 F9000 X144.932 Y136.022
G1 F720 X143.808 Y134.899 E59.87792
G0 F9000 X143.808 Y134.404
G1 F720 X144.932 Y135.527 E59.89365
G0 F9000 X144.932 Y135.032
G1 F720 X143.808 Y133.909 E59.90939
G0 F9000 X143.808 Y133.909
G1 F720 X144.932 Y135.032 E59.92512
G0 F9000 X144.932 Y134.537
G1 F720 X144.015 Y133.62 E59.93796
G0 F9000 X144.51 Y133.621
G1 F720 X144.932 Y134.042 E59.94387
G0 F9000 X143.808 Y135.888
G1 F720 X144.932 Y137.012 E59.95961
G0 F9000 X144.932 Y137.507
G1 F720 X143.808 Y136.383 E59.97535
G0 F9000 X143.808 Y136.878
G1 F720 X144.932 Y138.002 E59.99109
G0 F9000 X144.932 Y138.497
G1 F720 X143.808 Y137.373 E60.00683
G0 F9000 X143.808 Y137.868
G1 F720 X144.932 Y138.992 E60.02257
G0 F9000 X144.932 Y138.715
G1 F720 X143.808 Y139.016 E60.0341
G0 F9000 X143.808 Y138.858
G1 F720 X144.932 Y139.982 E60.04984
G0 F9000 X144.932 Y139.982
G1 F720 X143.808 Y138.858 E60.06558
G0 F9000 X143.808 Y138.363
G1 F720 X144.932 Y139.487 E60.08132
G1 F1800 E57.08132
G1 Z3.65
G0 F9000 X152.597 Y141.845
; TYPE:WALL-INNER
G1 Z2.65
G1 F1800 E60.08132
G1 F720 X152.597 Y133.156 E60.16737
G1 X154.651 Y133.156 E60.18771
G1 X154.651 Y141.845 E60.27376
G1 X152.597 Y141.845 E60.2941
G0 F9000 X152.947 Y141.495
G1 F720 X152.947 Y133.506 E60.37321
G1 X154.301 Y133.506 E60.38662
G1 X154.301 Y141.495 E60.46574
G1 X152.947 Y141.495 E60.47914
G0 F9000 X152.247 Y142.195
; TYPE:WALL-OUTER
G1 F600 X152.247 Y132.806 E60.57212
G1 X155.001 Y132.806 E60.5994
G1 X155.001 Y142.195 E60.69238
G1 X152.247 Y142.195 E60.71965
G0 F9000 X153.259 Y141.379
; TYPE:FILL
G1 F720 X153.061 Y141.181 E60.72242
G0 F9000 X153.061 Y140.686
G1 F720 X153.754 Y141.379 E60.73213
G0 F9000 X154.161 Y141.379
G1 F720 X154.186 Y141.286 E60.73308
G0 F9000 X154.185 Y141.315
G1 F720 X153.061 Y140.191 E60.74882
G0 F9000 X153.06 Y140.16
G1 F720 X154.185 Y139.859 E60.76035
G0 F9000 X154.185 Y139.831
G1 F720 X153.061 Y138.706 E60.7761
G0 F9000 X153.061 Y138.211
G1 F720 X154.185 Y139.336 E60.79185
G0 F9000 X154.185 Y139.336
G1 F720 X153.061 Y138.211 E60.8076
G0 F9000 X153.061 Y137.716
G1 F720 X154.185 Y138.841 E60.82335
G0 F9000 X154.185 Y138.346
G1 F720 X153.061 Y137.221 E60.8391
G0 F9000 X153.061 Y136.726
G1 F720 X154.185 Y137.851 E60.85485
G0 F9000 X154.185 Y137.356
G1 F720 X153.061 Y136.231 E60.87059
G0 F9000 X153.06 Y136.537
G1 F720 X154.185 Y136.236 E60.88213
G0 F9000 X154.185 Y136.366
G1 F720 X153.061 Y135.241 E60.89788
G0 F9000 X153.061 Y134.746
G1 F720 X154.185 Y135.871 E60.91362
G0 F9000 X154.185 Y135.376
G1 F720 X153.061 Y134.252 E60.92937
G0 F9000 X153.061 Y133.757
G1 F720 X154.185 Y134.881 E60.94511
G0 F9000 X154.185 Y134.386
G1 F720 X153.42 Y133.621 E60.95582
G0 F9000 X153.42 Y133.621
G1 F720 X154.185 Y134.386 E60.96653
G0 F9000 X154.185 Y133.891
G1 F720 X153.915 Y133.621 E60.97032
G0 F9000 X153.061 Y135.736
G1 F720 X154.185 Y136.861 E60.98606
G0 F9000 X153.061 Y139.201
G1 F720 X154.185 Y140.326 E61.00181
G0 F9000 X154.185 Y140.821
G1 F720 X153.061 Y139.696 E61.01756
G0 F9000 X140.958 Y140.958
; TYPE:SUPPORT
G1 F720 X137.937 Y137.937 E61.05987
G0 F9000 X138.098 Y137.937
G0 X140.123 Y136.786
G0 X140.157 Y136.36
G0 X140.803 Y136.401
G0 X140.803 Y136.56
G1 F720 X137.936 Y133.694 E61.10002
G0 F9000 X138.098 Y133.694
G0 X140.888 Y132.601
G0 X140.888 Y132.601
G0 X140.926 Y132.441
G1 F720 X140.957 Y132.472 E61.10045
G0 F9000 X140.798 Y132.511
G0 X138.098 Y142.18
G0 X138.098 Y142.18
G0 X137.938 Y142.18
G1 F720 X138.317 Y142.559 E61.10576
G0 F9000 X145.538 Y145.538
G1 F720 X147.547 Y147.547 E61.13389
G0 F9000 X147.57 Y147.39
G0 X151.587 Y147.212
G0 X151.587 Y147.212
G0 X151.612 Y147.37
G1 F720 X146.562 Y142.32 E61.20462
G0 F9000 X146.723 Y142.32
G0 X149.926 Y141.601
G0 X149.926 Y141.601
G0 X149.926 Y141.441
G1 F720 X151.431 Y142.945 E61.22569
G0 F9000 X151.494 Y143.009
G1 F720 X152.357 Y143.872 E61.23777
G0 F9000 X150.521 Y133.551
G1 F720 X145.537 Y128.566 E61.30758
G0 F9000 X145.698 Y128.566
G0 X148.654 Y127.601
G0 X148.654 Y127.601
G0 X148.654 Y127.441
G1 F720 X152.357 Y131.144 E61.35944
G0 F9000 X156.936 Y135.723
G1 F720 X160.156 Y138.943 E61.40454
G0 F9000 X159.998 Y138.943
G0 X157.098 Y139.966
G0 X157.098 Y139.966
G0 X156.937 Y139.966
G1 F720 X160.131 Y143.16 E61.44927
G0 F9000 X160.088 Y143.001
G0 X159.998 Y134.701
G0 X159.998 Y134.701
G0 X160.156 Y134.701
G1 F720 X158.896 Y133.44 E61.46692
; LAYER:13
G0 F9000 X145.099 Y133.088 Z2.85
; TYPE:WALL-INNER
G1 F720 X145.099 Y141.913 E61.55432
G1 X143.189 Y141.913 E61.57323
G1 X143.189 Y133.088 E61.66063
G1 X145.099 Y133.088 E61.67954
G0 F9000 X144.749 Y133.438
G1 F720 X144.749 Y141.563 E61.76
G1 X143.539 Y141.563 E61.77198
G1 X143.539 Y133.438 E61.85245
G1 X144.749 Y133.438 E61.86443
G0 F9000 X145.449 Y132.738
; TYPE:WALL-OUTER
G1 F600 X145.449 Y142.263 E61.95875
G1 X142.839 Y142.263 E61.9846
G1 X142.839 Y132.738 E62.07893
G1 X145.449 Y132.738 E62.10477
G0 F9000 X144.623 Y133.552
; TYPE:FILL
G1 F720 X143.652 Y134.522 E62.11837
G0 F9000 X143.652 Y135.017
G1 F720 X144.633 Y134.037 E62.1321
G0 F9000 X144.633 Y134.532
G1 F720 X143.652 Y135.512 E62.14583
G0 F9000 X143.653 Y135.434
G1 F720 X144.633 Y135.172 E62.15588
G0 F9000 X144.633 Y135.027
G1 F720 X143.652 Y136.007 E62.16961
G0 F9000 X143.652 Y136.502
G1 F720 X144.633 Y135.522 E62.18334
G0 F9000 X144.633 Y136.017
G1 F720 X143.652 Y136.997 E62.19707
G0 F9000 X143.652 Y137.492
G1 F720 X144.633 Y136.512 E62.2108
G0 F9000 X144.633 Y136.368
G1 F720 X143.653 Y140.024 E62.24829
G0 F9000 X143.652 Y139.967
G1 F720 X144.633 Y138.987 E62.26202
G0 F9000 X144.633 Y138.795
G1 F720 X143.653 Y139.057 E62.27206
G0 F9000 X143.652 Y138.977
G1 F720 X144.633 Y137.997 E62.2858
G0 F9000 X144.633 Y137.502
G1 F720 X143.652 Y138.482 E62.29953
G0 F9000 X143.652 Y138.703
G1 F720 X144.633 Y139.683 E62.31326
G0 F9000 X144.633 Y139.482
G1 F720 X143.652 Y140.462 E62.32699
G0 F9000 X143.652 Y140.957
G1 F720 X144.633 Y139.977 E62.34072
G0 F9000 X144.633 Y140.472
G1 F720 X143.657 Y141.448 E62.35439
G0 F9000 X144.152 Y141.448
G1 F720 X144.633 Y140.967 E62.36113
G0 F9000 X143.652 Y139.472
G1 F720 X144.633 Y138.492 E62.37486
G0 F9000 X143.652 Y137.987
G1 F720 X144.633 Y137.007 E62.38859
G0 F9000 X144.633 Y134.733
G1 F720 X143.652 Y133.753 E62.40232
G0 F9000 X143.652 Y134.027
G1 F720 X144.128 Y133.552 E62.40898
G1 F1800 E59.40898
G1 Z3.85
G0 F9000 X152.896 Y133.088
; TYPE:WALL-INNER
G1 Z2.85
G1 F1800 E62.40898
G1 F720 X154.806 Y133.088 E62.4279
G1 X154.806 Y141.913 E62.51529
G1 X152.896 Y141.913 E62.53421
G1 X152.896 Y133.088 E62.6216
G0 F9000 X153.246 Y133.438
G1 F720 X154.456 Y133.438 E62.63358
G1 X154.456 Y141.563 E62.71404
G1 X153.246 Y141.563 E62.72603
G1 X153.246 Y133.438 E62.80649
G0 F9000 X152.546 Y132.738
; TYPE:WALL-OUTER
G1 F600 X155.156 Y132.738 E62.83233
G1 X155.156 Y142.263 E62.92666
G1 X152.546 Y142.263 E62.95251
G1 X152.546 Y132.738 E63.04683
G0 F9000 X153.36 Y133.561
; TYPE:FILL
G1 F720 X154.34 Y134.541 E63.06056
G0 F9000 X154.34 Y134.725
G1 F720 X153.36 Y135.705 E63.07428
G0 F9000 X153.36 Y135.21
G1 F720 X154.34 Y134.23 E63.08801
G0 F9000 X154.34 Y133.735
G1 F720 X153.36 Y134.715 E63.10173
G0 F9000 X153.36 Y134.22
G1 F720 X154.027 Y133.552 E63.11108
G0 F9000 X153.532 Y133.552
G1 F720 X153.36 Y133.725 E63.1135
G0 F9000 X154.34 Y135.22
G1 F720 X153.36 Y136.2 E63.12722
G0 F9000 X153.36 Y136.457
G1 F720 X154.339 Y136.194 E63.13726
G0 F9000 X154.34 Y136.209
G1 F720 X153.36 Y137.19 E63.15099
G0 F9000 X153.36 Y136.695
G1 F720 X154.34 Y135.715 E63.16472
G0 F9000 X154.34 Y136.704
G1 F720 X153.36 Y137.685 E63.17845
G0 F9000 X153.36 Y138.179
G1 F720 X154.34 Y137.199 E63.19217
G0 F9000 X154.34 Y137.694
G1 F720 X153.36 Y138.674 E63.2059
G0 F9000 X153.36 Y138.51
G1 F720 X154.34 Y139.49 E63.21962
G0 F9000 X154.34 Y139.674
G1 F720 X153.36 Y140.654 E63.23335
G0 F9000 X153.36 Y140.159
G1 F720 X154.34 Y139.179 E63.24707
G0 F9000 X154.34 Y138.684
G1 F720 X153.36 Y139.664 E63.2608
G0 F9000 X153.36 Y140.08
G1 F720 X154.34 Y139.817 E63.27085
G0 F9000 X154.34 Y140.169
G1 F720 X153.36 Y141.149 E63.28457
G0 F9000 X153.556 Y141.448
G1 F720 X154.34 Y140.664 E63.29555
G0 F9000 X154.34 Y140.708
G1 F720 X154.143 Y141.446 E63.30311
G0 F9000 X154.051 Y141.448
G1 F720 X154.34 Y141.159 E63.30716
G0 F9000 X153.36 Y139.169
G1 F720 X154.34 Y138.189 E63.32089
G0 F9000 X156.937 Y139.966
; TYPE:SUPPORT
G1 F720 X160.131 Y143.16 E63.36562
G0 F9000 X160.088 Y143.001
G0 X159.998 Y138.943
G0 X159.998 Y138.943
G0 X160.156 Y138.943
G1 F720 X156.936 Y135.723 E63.41071
G0 F9000 X157.098 Y135.723
G0 X158.896 Y133.601
G0 X158.896 Y133.601
G0 X158.896 Y133.44
G1 F720 X160.156 Y134.701 E63.42837
G0 F9000 X152.357 Y131.144
G1 F720 X148.654 Y127.441 E63.48023
G0 F9000 X148.654 Y127.601
G0 X145.698 Y128.566
G0 X145.698 Y128.566
G0 X145.537 Y128.566
G1 F720 X150.521 Y133.551 E63.55004
G0 F9000 X149.925 Y141.44
G1 F720 X152.356 Y143.871 E63.58408
G0 F9000 X152.198 Y143.871
G0 X151.587 Y147.212
G0 X151.587 Y147.212
G0 X151.612 Y147.37
G1 F720 X146.262 Y142.02 E63.65901
G0 F9000 X146.424 Y142.02
G0 X146.363 Y142.309
G0 X146.465 Y143.279
G0 X145.698 Y145.538
G0 X145.538 Y145.538
G1 F720 X147.547 Y147.547 E63.68714
G0 F9000 X140.958 Y140.958
G1 F720 X137.937 Y137.937 E63.72945
G0 F9000 X138.098 Y137.937
G0 X140.123 Y136.786
G0 X140.157 Y136.36
G0 X140.803 Y136.401
G0 X140.803 Y136.56
G1 F720 X137.936 Y133.694 E63.7696
G0 F9000 X138.098 Y133.694
G0 X140.888 Y132.601
G0 X140.888 Y132.601
G0 X140.926 Y132.441
G1 F720 X140.957 Y132.472 E63.77003
G0 F9000 X140.798 Y132.511
G0 X138.098 Y142.18
G0 X138.098 Y142.18
G0 X137.938 Y142.18
G1 F720 X138.317 Y142.559 E63.77534
; LAYER:14
G0 F9000 X143.055 Y141.982 Z3.05
; TYPE:WALL-INNER
G1 F720 X143.055 Y133.019 E63.8641
G1 X144.8 Y133.019 E63.88138
G1 X144.8 Y141.982 E63.97014
G1 X143.055 Y141.982 E63.98742
G0 F9000 X143.405 Y141.632
G1 F720 X143.405 Y133.369 E64.06925
G1 X144.45 Y133.369 E64.0796
G1 X144.45 Y141.632 E64.16143
G1 X143.405 Y141.632 E64.17178
G0 F9000 X142.705 Y142.332
; TYPE:WALL-OUTER
G1 F600 X142.705 Y132.669 E64.26747
G1 X145.15 Y132.669 E64.29168
G1 X145.15 Y142.332 E64.38737
G1 X142.705 Y142.332 E64.41159
G0 F9000 X142.98 Y142.147
G0 X143.991 Y141.516
G0 X143.991 Y141.516
; TYPE:FILL
G1 F720 X143.519 Y141.044 E64.4182
G0 F9000 X143.519 Y140.549
G1 F720 X144.333 Y141.364 E64.4296
G0 F9000 X144.333 Y140.869
G1 F720 X143.519 Y140.054 E64.44101
G0 F9000 X143.519 Y140.526
G1 F720 X144.335 Y137.482 E64.47222
G0 F9000 X144.333 Y137.404
G1 F720 X143.519 Y136.589 E64.48363
G0 F9000 X143.519 Y136.094
G1 F720 X144.333 Y136.909 E64.49503
G0 F9000 X144.333 Y136.414
G1 F720 X143.519 Y135.599 E64.50644
G0 F9000 X143.519 Y135.47
G1 F720 X144.333 Y135.252 E64.51479
G0 F9000 X144.333 Y135.424
G1 F720 X143.519 Y134.609 E64.52619
G0 F9000 X143.519 Y134.114
G1 F720 X144.333 Y134.929 E64.5376
G0 F9000 X144.333 Y134.434
G1 F720 X143.519 Y133.619 E64.54901
G0 F9000 X143.519 Y133.619
G1 F720 X144.333 Y134.434 E64.56041
G0 F9000 X144.333 Y133.939
G1 F720 X143.878 Y133.484 E64.56679
G0 F9000 X143.519 Y135.104
G1 F720 X144.333 Y135.919 E64.57819
G0 F9000 X143.519 Y137.084
G1 F720 X144.333 Y137.899 E64.5896
G0 F9000 X144.333 Y138.394
G1 F720 X143.519 Y137.579 E64.60101
G0 F9000 X143.519 Y138.074
G1 F720 X144.333 Y138.889 E64.61241
G0 F9000 X144.334 Y138.875
G1 F720 X143.519 Y139.093 E64.62077
G0 F9000 X143.519 Y139.064
G1 F720 X144.333 Y139.879 E64.63218
G0 F9000 X144.333 Y139.384
G1 F720 X143.519 Y138.569 E64.64358
G0 F9000 X143.519 Y138.569
G1 F720 X144.333 Y139.384 E64.65499
G0 F9000 X143.519 Y139.559
G1 F720 X144.333 Y140.374 E64.6664
G1 F1800 E61.6664
G1 Z4.05
G0 F9000 X153.195 Y141.982
; TYPE:WALL-INNER
G1 Z3.05
G1 F1800 E64.6664
G1 F720 X153.195 Y133.019 E64.75516
G1 X154.94 Y133.019 E64.77244
G1 X154.94 Y141.982 E64.8612
G1 X153.195 Y141.982 E64.87848
G0 F9000 X153.545 Y141.632
G1 F720 X153.545 Y133.369 E64.96031
G1 X154.59 Y133.369 E64.97066
G1 X154.59 Y141.632 E65.05248
G1 X153.545 Y141.632 E65.06283
G0 F9000 X152.845 Y142.332
; TYPE:WALL-OUTER
G1 F600 X152.845 Y132.669 E65.15852
G1 X155.29 Y132.669 E65.18274
G1 X155.29 Y142.332 E65.27843
G1 X152.845 Y142.332 E65.30264
G0 F9000 X153.891 Y141.516
; TYPE:FILL
G1 F720 X153.659 Y141.284 E65.30589
G0 F9000 X153.659 Y140.789
G1 F720 X154.386 Y141.516 E65.31607
G0 F9000 X154.124 Y141.516
G1 F720 X154.474 Y140.21 E65.32946
G0 F9000 X154.473 Y140.119
G1 F720 X153.659 Y139.304 E65.34087
G0 F9000 X153.659 Y138.81
G1 F720 X154.473 Y139.624 E65.35227
G0 F9000 X154.473 Y139.624
G1 F720 X153.659 Y138.81 E65.36367
G0 F9000 X153.659 Y138.315
G1 F720 X154.473 Y139.129 E65.37507
G0 F9000 X154.473 Y138.634
G1 F720 X153.659 Y137.82 E65.38647
G0 F9000 X153.659 Y137.325
G1 F720 X154.473 Y138.139 E65.39787
G0 F9000 X154.473 Y137.644
G1 F720 X153.659 Y136.83 E65.40927
G0 F9000 X153.658 Y136.377
G1 F720 X154.474 Y136.158 E65.41764
G0 F9000 X154.473 Y136.159
G1 F720 X153.659 Y135.345 E65.42904
G0 F9000 X153.659 Y134.85
G1 F720 X154.473 Y135.664 E65.44044
G0 F9000 X154.473 Y135.169
G1 F720 X153.659 Y134.355 E65.45184
G0 F9000 X153.659 Y133.86
G1 F720 X154.473 Y134.674 E65.46324
G0 F9000 X154.473 Y134.674
G1 F720 X153.659 Y133.86 E65.47464
G0 F9000 X153.778 Y133.484
G1 F720 X154.473 Y134.179 E65.48437
G0 F9000 X154.473 Y133.684
G1 F720 X154.273 Y133.484 E65.48717
G0 F9000 X153.659 Y135.84
G1 F720 X154.473 Y136.654 E65.49857
G0 F9000 X154.473 Y137.149
G1 F720 X153.659 Y136.335 E65.50997
G0 F9000 X153.659 Y139.799
G1 F720 X154.473 Y140.614 E65.52138
G0 F9000 X154.473 Y141.109
G1 F720 X153.659 Y140.294 E65.53279
G0 F9000 X153.658 Y140
G1 F720 X154.474 Y139.781 E65.54115
G0 F9000 X140.958 Y140.958
; TYPE:SUPPORT
G1 F720 X137.937 Y137.937 E65.58346
G0 F9000 X138.098 Y137.937
G0 X140.123 Y136.786
G0 X140.157 Y136.36
G0 X140.803 Y136.401
G0 X140.803 Y136.56
G1 F720 X137.936 Y133.694 E65.62361
G0 F9000 X138.098 Y133.694
G0 X140.888 Y132.601
G0 X140.888 Y132.601
G0 X140.926 Y132.441
G1 F720 X140.957 Y132.472 E65.62404
G0 F9000 X140.798 Y132.511
G0 X138.098 Y142.18
G0 X138.098 Y142.18
G0 X137.938 Y142.18
G1 F720 X138.317 Y142.559 E65.62935
G0 F9000 X145.963 Y141.721
G1 F720 X151.612 Y147.37 E65.70846
G0 F9000 X151.587 Y147.212
G0 X152.198 Y143.872
G0 X152.198 Y143.872
G0 X152.357 Y143.872
G1 F720 X149.925 Y141.44 E65.74252
G0 F9000 X149.925 Y141.601
G0 X145.698 Y145.538
G0 X145.698 Y145.538
G0 X145.538 Y145.538
G1 F720 X147.547 Y147.547 E65.77066
G0 F9000 X146.064 Y133.336
G1 F720 X145.963 Y133.235 E65.77207
G0 F9000 X146.125 Y133.235
G0 X150.495 Y133.394
G0 X150.495 Y133.394
G0 X150.521 Y133.551
G1 F720 X145.537 Y128.566 E65.84188
G0 F9000 X145.698 Y128.566
G0 X148.654 Y127.601
G0 X148.654 Y127.601
G0 X148.654 Y127.441
G1 F720 X152.357 Y131.144 E65.89374
G0 F9000 X156.936 Y135.723
G1 F720 X160.156 Y138.943 E65.93884
G0 F9000 X159.998 Y138.943
G0 X157.098 Y139.966
G0 X157.098 Y139.966
G0 X156.937 Y139.966
G1 F720 X160.131 Y143.16 E65.98357
G0 F9000 X160.088 Y143.001
G0 X159.998 Y134.701
G0 X159.998 Y134.701
G0 X160.156 Y134.701
G1 F720 X158.896 Y133.44 E66.00122
; LAYER:15
G0 F9000 X144.501 Y132.951 Z3.25
; TYPE:WALL-INNER
G1 F720 X144.501 Y142.05 E66.09133
G1 X142.922 Y142.05 E66.10696
G1 X142.922 Y132.951 E66.19707
G1 X144.501 Y132.951 E66.21271
G0 F9000 X144.151 Y133.301
G1 F720 X144.151 Y141.7 E66.29588
G1 X143.272 Y141.7 E66.30459
G1 X143.272 Y133.301 E66.38776
G1 X144.151 Y133.301 E66.39647
G0 F9000 X144.851 Y132.601
; TYPE:WALL-OUTER
G1 F600 X144.851 Y142.4 E66.49351
G1 X142.572 Y142.4 E66.51608
G1 X142.572 Y132.601 E66.61312
G1 X144.851 Y132.601 E66.63568
G0 F9000 X144.035 Y133.645
; TYPE:FILL
G1 F720 X143.386 Y134.294 E66.64477
G0 F9000 X143.386 Y133.799
G1 F720 X143.769 Y133.416 E66.65014
G0 F9000 X143.386 Y133.486
G1 F720 X144.035 Y134.136 E66.65923
G0 F9000 X144.035 Y134.14
G1 F720 X143.386 Y134.789 E66.66832
G0 F9000 X143.386 Y135.284
G1 F720 X144.035 Y134.635 E66.67741
G0 F9000 X144.035 Y135.13
G1 F720 X143.386 Y135.779 E66.6865
G0 F9000 X143.386 Y135.506
G1 F720 X144.035 Y135.332 E66.69316
G0 F9000 X144.035 Y135.625
G1 F720 X143.386 Y136.274 E66.70224
G0 F9000 X143.386 Y136.769
G1 F720 X144.035 Y136.12 E66.71133
G0 F9000 X144.035 Y136.615
G1 F720 X143.386 Y137.264 E66.72042
G0 F9000 X143.386 Y137.759
G1 F720 X144.035 Y137.11 E66.72951
G0 F9000 X144.035 Y137.605
G1 F720 X143.386 Y138.254 E66.7386
G0 F9000 X143.386 Y138.436
G1 F720 X144.035 Y139.085 E66.74769
G0 F9000 X144.035 Y139.09
G1 F720 X143.386 Y139.739 E66.75678
G0 F9000 X143.386 Y139.244
G1 F720 X144.035 Y138.595 E66.76587
G0 F9000 X144.035 Y138.6
G1 F720 X143.387 Y141.02 E66.79068
G0 F9000 X143.386 Y141.224
G1 F720 X144.035 Y140.574 E66.79977
G0 F9000 X144.035 Y140.079
G1 F720 X143.386 Y140.729 E66.80887
G0 F9000 X143.386 Y140.234
G1 F720 X144.035 Y139.584 E66.81797
G0 F9000 X144.035 Y138.955
G1 F720 X143.386 Y139.129 E66.82462
G0 F9000 X143.386 Y138.749
G1 F720 X144.035 Y138.1 E66.83371
G0 F9000 X144.035 Y141.069
G1 F720 X143.52 Y141.584 E66.84092
G0 F9000 X144.015 Y141.584
G1 F720 X144.035 Y141.564 E66.8412
G1 F1800 E63.8412
G1 Z4.25
G0 F9000 X153.494 Y142.05
; TYPE:WALL-INNER
G1 Z3.25
G1 F1800 E66.8412
G1 F720 X153.494 Y132.951 E66.93131
G1 X155.073 Y132.951 E66.94695
G1 X155.073 Y142.05 E67.03705
G1 X153.494 Y142.05 E67.05269
G0 F9000 X153.844 Y141.7
G1 F720 X153.844 Y133.301 E67.13587
G1 X154.723 Y133.301 E67.14457
G1 X154.723 Y141.7 E67.22775
G1 X153.844 Y141.7 E67.23645
G0 F9000 X153.144 Y142.4
; TYPE:WALL-OUTER
G1 F600 X153.144 Y132.601 E67.33349
G1 X155.423 Y132.601 E67.35606
G1 X155.423 Y142.4 E67.4531
G1 X153.144 Y142.4 E67.47567
G0 F9000 X153.958 Y141.541
; TYPE:FILL
G1 F720 X154.607 Y140.892 E67.48476
G0 F9000 X154.607 Y140.397
G1 F720 X153.958 Y141.046 E67.49385
G0 F9000 X153.958 Y140.551
G1 F720 X154.607 Y139.902 E67.50293
G0 F9000 X154.607 Y139.758
G1 F720 X153.958 Y139.109 E67.51202
G0 F9000 X153.958 Y139.066
G1 F720 X154.607 Y138.417 E67.52111
G0 F9000 X154.607 Y137.922
G1 F720 X153.958 Y138.571 E67.5302
G0 F9000 X153.958 Y138.076
G1 F720 X154.607 Y137.427 E67.53929
G0 F9000 X154.607 Y136.932
G1 F720 X153.958 Y137.581 E67.54838
G0 F9000 X153.958 Y137.086
G1 F720 X154.607 Y136.437 E67.55747
G0 F9000 X154.607 Y136.122
G1 F720 X153.958 Y136.296 E67.56412
G0 F9000 X153.958 Y136.096
G1 F720 X154.607 Y135.447 E67.57321
G0 F9000 X154.607 Y134.952
G1 F720 X153.958 Y135.601 E67.5823
G0 F9000 X153.958 Y135.106
G1 F720 X154.607 Y134.457 E67.59139
G0 F9000 X154.607 Y134.808
G1 F720 X153.958 Y134.159 E67.60048
G0 F9000 X153.958 Y134.116
G1 F720 X154.607 Y133.467 E67.60957
G0 F9000 X154.164 Y133.415
G1 F720 X153.958 Y133.621 E67.61245
G0 F9000 X154.607 Y133.962
G1 F720 X153.958 Y134.611 E67.62154
G0 F9000 X154.607 Y135.942
G1 F720 X153.958 Y136.591 E67.63063
G0 F9000 X154.607 Y138.912
G1 F720 X153.958 Y139.561 E67.63972
G0 F9000 X153.959 Y139.92
G1 F720 X154.607 Y139.746 E67.64637
G0 F9000 X154.607 Y139.713
G1 F720 X154.106 Y141.584 E67.66555
G0 F9000 X154.409 Y141.585
G1 F720 X154.607 Y141.387 E67.66832
G0 F9000 X153.958 Y140.056
G1 F720 X154.607 Y139.407 E67.67741
G0 F9000 X156.937 Y139.966
; TYPE:SUPPORT
G1 F720 X160.131 Y143.16 E67.72214
G0 F9000 X160.088 Y143.001
G0 X159.998 Y138.943
G0 X159.998 Y138.943
G0 X160.156 Y138.943
G1 F720 X156.936 Y135.723 E67.76724
G0 F9000 X157.098 Y135.723
G0 X158.896 Y133.601
G0 X158.896 Y133.601
G0 X158.896 Y133.44
G1 F720 X160.156 Y134.701 E67.78489
G0 F9000 X152.357 Y131.144
G1 F720 X148.654 Y127.441 E67.83675
G0 F9000 X148.654 Y127.601
G0 X145.698 Y128.566
G0 X145.698 Y128.566
G0 X145.537 Y128.566
G1 F720 X150.521 Y133.551 E67.90656
G0 F9000 X150.495 Y133.394
G0 X146.084 Y133.177
G0 X146.084 Y133.177
G0 X146.062 Y133.334
G1 F720 X145.665 Y132.937 E67.91212
G0 F9000 X145.929 Y141.686
G1 F720 X151.612 Y147.37 E67.99172
G0 F9000 X151.587 Y147.212
G0 X152.198 Y143.872
G0 X152.198 Y143.872
G0 X152.357 Y143.872
G1 F720 X149.926 Y141.441 E68.02576
G0 F9000 X149.926 Y141.601
G0 X145.698 Y145.538
G0 X145.698 Y145.538
G0 X145.538 Y145.538
G1 F720 X147.547 Y147.547 E68.0539
G0 F9000 X140.958 Y140.958
G1 F720 X137.937 Y137.937 E68.09621
G0 F9000 X138.098 Y137.937
G0 X140.123 Y136.786
G0 X140.157 Y136.36
G0 X140.803 Y136.401
G0 X140.803 Y136.56
G1 F720 X137.936 Y133.694 E68.13635
G0 F9000 X138.098 Y133.694
G0 X140.888 Y132.601
G0 X140.888 Y132.601
G0 X140.926 Y132.441
G1 F720 X140.957 Y132.472 E68.13679
G0 F9000 X140.798 Y132.511
G0 X138.098 Y142.18
G0 X138.098 Y142.18
G0 X137.938 Y142.18
G1 F720 X138.317 Y142.559 E68.14209
; LAYER:16
G0 F9000 X142.788 Y142.118 Z3.45
; TYPE:WALL-INNER
G1 F720 X142.788 Y132.883 E68.23355
G1 X144.202 Y132.883 E68.24755
G1 X144.202 Y142.118 E68.339
G1 X142.788 Y142.118 E68.35301
G0 F9000 X143.138 Y141.768
G1 F720 X143.138 Y133.233 E68.43753
G1 X143.852 Y133.233 E68.4446
G1 X143.852 Y141.768 E68.52912
G1 X143.138 Y141.768 E68.53619
G0 F9000 X142.438 Y142.468
; TYPE:WALL-OUTER
G1 F600 X142.438 Y132.533 E68.63458
G1 X144.552 Y132.533 E68.65551
G1 X144.552 Y142.468 E68.7539
G1 X142.438 Y142.468 E68.77483
G0 F9000 X143.252 Y141.522
; TYPE:FILL
G1 F720 X143.736 Y139.716 E68.79335
G0 F9000 X143.736 Y139.776
G1 F720 X143.251 Y139.228 E68.80012
G1 X143.736 Y139.158 E68.80508
G1 X143.494 Y138.791 E68.81186
G1 X143.252 Y138.302 E68.81864
G1 X143.736 Y138.538 E68.8254
G1 X143.494 Y137.801 E68.83216
G1 X143.494 Y137.306 E68.83893
G1 X143.494 Y136.811 E68.84569
G1 X143.494 Y136.316 E68.85246
G1 X143.252 Y135.684 E68.85924
G1 X143.736 Y135.366 E68.86419
G1 X143.494 Y134.831 E68.87095
G1 X143.494 Y134.336 E68.87771
G1 X143.494 Y133.841 E68.88448
G1 X143.252 Y133.352 E68.89125
G1 X143.736 Y133.836 E68.89803
G0 F9000 X143.252 Y135.332
G1 F720 X143.736 Y135.816 E68.90481
G0 F9000 X143.252 Y139.787
G1 F720 X143.494 Y140.276 E68.91159
G1 X143.494 Y140.771 E68.91835
G1 X143.684 Y141.457 E68.92512
G1 X143.252 Y141.272 E68.92977
G1 F1800 E65.92977
G1 Z4.45
G0 F9000 X153.793 Y142.118
; TYPE:WALL-INNER
G1 Z3.45
G1 F1800 E68.92977
G1 F720 X153.793 Y132.883 E69.02123
G1 X155.207 Y132.883 E69.03523
G1 X155.207 Y142.118 E69.12668
G1 X153.793 Y142.118 E69.14069
G0 F9000 X154.143 Y141.768
G1 F720 X154.143 Y133.233 E69.22521
G1 X154.857 Y133.233 E69.23228
G1 X154.857 Y141.768 E69.3168
G1 X154.143 Y141.768 E69.32387
G0 F9000 X153.443 Y142.468
; TYPE:WALL-OUTER
G1 F600 X153.443 Y132.533 E69.42226
G1 X155.557 Y132.533 E69.44319
G1 X155.557 Y142.468 E69.54158
G1 X153.443 Y142.468 E69.56251
G0 F9000 X154.521 Y141.652
; TYPE:FILL
G1 F720 X154.257 Y141.388 E69.56621
G0 F9000 X154.257 Y141.018
G1 F720 X154.741 Y139.214 E69.58471
G0 F9000 X154.741 Y139.396
G1 F720 X154.499 Y138.907 E69.59147
G1 X154.499 Y138.412 E69.59822
G1 X154.499 Y137.917 E69.60497
G1 X154.499 Y137.422 E69.61172
G1 X154.499 Y136.927 E69.61849
G1 X154.257 Y136.327 E69.62526
G1 X154.741 Y136.009 E69.63021
G1 X154.499 Y135.442 E69.63698
G1 X154.499 Y134.947 E69.64374
G1 X154.257 Y134.458 E69.65052
G1 X154.741 Y134.694 E69.65728
G1 X154.499 Y133.957 E69.66404
G1 X154.444 Y133.408 E69.67082
G1 X154.741 Y133.457 E69.6738
G0 F9000 X154.257 Y135.943
G1 F720 X154.741 Y136.427 E69.68058
G0 F9000 X154.257 Y139.408
G1 F720 X154.741 Y139.891 E69.68735
G1 X154.257 Y139.624 E69.69412
G1 X154.499 Y139.806 E69.69909
G1 X154.499 Y140.392 E69.70584
G1 X154.499 Y140.887 E69.71259
G1 X154.741 Y141.376 E69.71799
G0 F9000 X140.958 Y140.958
; TYPE:SUPPORT
G1 F720 X137.937 Y137.937 E69.7603
G0 F9000 X138.098 Y137.937
G0 X140.123 Y136.786
G0 X140.157 Y136.36
G0 X140.803 Y136.401
G0 X140.803 Y136.56
G1 F720 X137.936 Y133.694 E69.80045
G0 F9000 X138.098 Y133.694
G0 X140.888 Y132.601
G0 X140.888 Y132.601
G0 X140.926 Y132.441
G1 F720 X140.957 Y132.472 E69.80088
G0 F9000 X140.798 Y132.511
G0 X138.098 Y142.18
G0 X138.098 Y142.18
G0 X137.938 Y142.18
G1 F720 X138.317 Y142.559 E69.80619
G0 F9000 X145.927 Y141.685
G1 F720 X151.612 Y147.37 E69.88581
G0 F9000 X151.587 Y147.212
G0 X152.198 Y143.872
G0 X152.198 Y143.872
G0 X152.357 Y143.872
G1 F720 X149.926 Y141.441 E69.91985
G0 F9000 X149.926 Y141.601
G0 X145.698 Y145.537
G0 X145.698 Y145.537
G0 X145.537 Y145.537
G1 F720 X147.547 Y147.547 E69.948
G0 F9000 X146.063 Y133.335
G1 F720 X145.537 Y132.809 E69.95537
G0 F9000 X145.698 Y132.809
G0 X145.698 Y128.566
G0 X145.698 Y128.566
G0 X145.537 Y128.566
G1 F720 X150.521 Y133.551 E70.02518
G0 F9000 X150.496 Y133.393
G0 X152.198 Y131.144
G0 X152.198 Y131.144
G0 X152.357 Y131.144
G1 F720 X148.654 Y127.441 E70.07704
G0 F9000 X156.936 Y135.723
G1 F720 X160.156 Y138.943 E70.12213
G0 F9000 X159.998 Y138.943
G0 X157.098 Y139.966
G0 X157.098 Y139.966
G0 X156.937 Y139.966
G1 F720 X160.131 Y143.16 E70.16686
G0 F9000 X160.088 Y143.001
G0 X159.998 Y134.701
G0 X159.998 Y134.701
G0 X160.156 Y134.701
G1 F720 X158.896 Y133.44 E70.18452
; LAYER:17
G0 F9000 X143.903 Y132.815 Z3.65
; TYPE:WALL-INNER
G1 F720 X143.903 Y142.186 E70.27732
G1 X142.654 Y142.186 E70.28969
G1 X142.654 Y132.815 E70.38249
G1 X143.903 Y132.815 E70.39486
G0 F9000 X143.553 Y133.165
G1 F720 X143.553 Y141.836 E70.48072
G1 X143.004 Y141.836 E70.48616
G1 X143.004 Y133.165 E70.57203
G1 X143.553 Y133.165 E70.57747
G0 F9000 X144.253 Y132.465
; TYPE:WALL-OUTER
G1 F600 X144.253 Y142.536 E70.6772
G1 X142.304 Y142.536 E70.6965
G1 X142.304 Y132.465 E70.79623
G1 X144.253 Y132.465 E70.81553
G0 F9000 X143.41 Y133.28
; TYPE:FILL
G1 F720 X143.148 Y133.425 E70.81962
G1 X143.437 Y133.642 E70.82322
G1 X143.277 Y134.155 E70.82767
G1 X143.277 Y134.65 E70.83213
G1 X143.277 Y135.145 E70.83658
G1 X143.117 Y135.565 E70.84104
G1 X143.437 Y135.61 E70.84432
G1 X143.277 Y136.135 E70.84879
G1 X143.277 Y136.63 E70.85324
G1 X143.277 Y137.125 E70.8577
G1 X143.277 Y137.62 E70.86215
G1 X143.118 Y138.097 E70.86662
G1 X143.437 Y138.592 E70.87108
G1 X143.118 Y139.109 E70.87555
G1 X143.437 Y139.154 E70.87882
G1 X143.277 Y139.6 E70.88328
G1 X143.277 Y140.095 E70.88773
G1 X143.277 Y140.59 E70.89219
G1 X143.118 Y140.997 E70.89651
G0 F9000 X143.437 Y140.832
G1 F720 X143.199 Y141.72 E70.90562
G0 F9000 X143.384 Y141.72
G1 F720 X143.277 Y141.58 E70.90635
G1 X143.437 Y141.173 E70.91068
G0 F9000 X143.118 Y138.522
G1 F720 X143.437 Y138.203 E70.91515
G1 F1800 E67.91515
G1 Z4.65
G0 F9000 X154.092 Y142.186
; TYPE:WALL-INNER
G1 Z3.65
G1 F1800 E70.91515
G1 F720 X154.092 Y132.815 E71.00795
G1 X155.341 Y132.815 E71.02032
G1 X155.341 Y142.186 E71.11312
G1 X154.092 Y142.186 E71.12549
G0 F9000 X154.442 Y141.836
G1 F720 X154.442 Y133.165 E71.21136
G1 X154.991 Y133.165 E71.21679
G1 X154.991 Y141.836 E71.30266
G1 X154.442 Y141.836 E71.3081
G0 F9000 X153.742 Y142.536
; TYPE:WALL-OUTER
G1 F600 X153.742 Y132.465 E71.40783
G1 X155.691 Y132.465 E71.42713
G1 X155.691 Y142.536 E71.52687
G1 X153.742 Y142.536 E71.54617
G0 F9000 X154.768 Y141.721
; TYPE:FILL
G1 F720 X154.715 Y141.526 E71.54764
G1 X154.715 Y141.031 E71.55208
G1 X154.715 Y140.536 E71.55652
G1 X154.874 Y140.077 E71.56098
G1 X154.556 Y139.733 E71.56542
G1 X154.874 Y139.654 E71.56869
G1 X154.556 Y139.953 E71.57301
G0 F9000 X154.556 Y139.903
G1 F720 X154.875 Y138.713 E71.58521
G0 F9000 X154.874 Y138.645
G1 F720 X154.715 Y139.051 E71.58965
G1 X154.556 Y139.458 E71.59398
G0 F9000 X154.556 Y138.468
G1 F720 X154.715 Y138.061 E71.59843
G1 X154.715 Y137.566 E71.60287
G1 X154.715 Y137.071 E71.60732
G1 X154.715 Y136.576 E71.61178
G1 X154.875 Y136.11 E71.61624
G1 X154.556 Y136.064 E71.6195
G1 X154.715 Y135.586 E71.62397
G1 X154.875 Y135.127 E71.62842
G1 X154.556 Y134.88 E71.63288
G1 X154.715 Y134.596 E71.63735
G1 X154.715 Y134.101 E71.64181
G1 X154.715 Y133.606 E71.64626
G1 X154.794 Y133.28 E71.64958
G0 F9000 X156.936 Y135.723
; TYPE:SUPPORT
G1 F720 X160.156 Y138.943 E71.69468
G0 F9000 X159.998 Y138.943
G0 X157.098 Y139.966
G0 X157.098 Y139.966
G0 X156.937 Y139.966
G1 F720 X160.131 Y143.16 E71.73941
G0 F9000 X160.088 Y143.001
G0 X159.998 Y134.701
G0 X159.998 Y134.701
G0 X160.156 Y134.701
G1 F720 X158.896 Y133.44 E71.75706
G0 F9000 X152.357 Y131.144
G1 F720 X148.654 Y127.441 E71.80892
G0 F9000 X148.654 Y127.601
G0 X145.698 Y128.566
G0 X145.698 Y128.566
G0 X145.537 Y128.566
G1 F720 X150.521 Y133.551 E71.87873
G0 F9000 X150.496 Y133.393
G0 X146.085 Y133.178
G0 X146.085 Y133.178
G0 X146.063 Y133.335
G1 F720 X145.537 Y132.809 E71.8861
G0 F9000 X145.927 Y141.685
G1 F720 X151.612 Y147.37 E71.96571
G0 F9000 X151.587 Y147.212
G0 X152.198 Y143.872
G0 X152.198 Y143.872
G0 X152.357 Y143.872
G1 F720 X149.926 Y141.441 E71.99976
G0 F9000 X149.926 Y141.601
G0 X145.698 Y145.537
G0 X145.698 Y145.537
G0 X145.537 Y145.537
G1 F720 X147.547 Y147.547 E72.02791
G0 F9000 X140.958 Y140.958
G1 F720 X137.937 Y137.937 E72.07022
G0 F9000 X138.098 Y137.937
G0 X140.123 Y136.786
G0 X140.157 Y136.36
G0 X140.803 Y136.401
G0 X140.803 Y136.56
G1 F720 X137.936 Y133.694 E72.11036
G0 F9000 X138.098 Y133.694
G0 X140.888 Y132.601
G0 X140.888 Y132.601
G0 X140.926 Y132.441
G1 F720 X140.957 Y132.472 E72.1108
G0 F9000 X140.798 Y132.511
G0 X138.098 Y142.18
G0 X138.098 Y142.18
G0 X137.938 Y142.18
G1 F720 X138.317 Y142.559 E72.11611
; LAYER:18
G0 F9000 X142.521 Y142.254 Z3.85
; TYPE:WALL-INNER
G1 F720 X142.521 Y132.747 E72.21025
G1 X143.604 Y132.747 E72.22098
G1 X143.604 Y142.254 E72.31513
G1 X142.521 Y142.254 E72.32585
G0 F9000 X142.871 Y141.904
G1 F720 X142.871 Y133.097 E72.41307
G1 X143.254 Y133.097 E72.41686
G1 X143.254 Y141.904 E72.50407
G1 X142.871 Y141.904 E72.50787
G0 F9000 X142.171 Y142.604
; TYPE:WALL-OUTER
G1 F600 X142.171 Y132.397 E72.60895
G1 X143.954 Y132.397 E72.6266
G1 X143.954 Y142.604 E72.72768
G1 X142.171 Y142.604 E72.74534
G0 F9000 X143.138 Y141.653
; TYPE:FILL
G1 F720 X143.061 Y141.329 E72.74748
G1 X143.061 Y140.834 E72.74961
G1 X143.061 Y140.339 E72.75174
G1 X143.061 Y139.844 E72.75387
G1 X142.985 Y139.378 E72.756
G1 X143.137 Y139.187 E72.75754
G1 X143.061 Y138.854 E72.75968
G1 X143.061 Y138.359 E72.76181
G1 X142.985 Y138.035 E72.76395
G1 X143.138 Y137.94 E72.76609
G1 X143.061 Y137.369 E72.76822
G1 X143.061 Y136.874 E72.77035
G1 X143.061 Y136.379 E72.77248
G1 X143.061 Y135.884 E72.77461
G1 X142.985 Y135.586 E72.77675
G1 X143.138 Y135.395 E72.77831
G1 X143.061 Y134.894 E72.78045
G1 X143.061 Y134.399 E72.78258
G1 X143.061 Y133.904 E72.78471
G1 X143.061 Y133.409 E72.78684
G1 X143.111 Y133.211 E72.78721
G1 X143.138 Y133.238 E72.78759
G1 F1800 E69.78759
G1 Z4.85
G0 F9000 X154.391 Y132.747
; TYPE:WALL-INNER
G1 Z3.85
G1 F1800 E72.78759
G1 F720 X155.474 Y132.747 E72.79832
G1 X155.474 Y142.254 E72.89246
G1 X154.391 Y142.254 E72.90319
G1 X154.391 Y132.747 E72.99734
G0 F9000 X154.741 Y133.097
G1 F720 X155.124 Y133.097 E73.00113
G1 X155.124 Y141.904 E73.08834
G1 X154.741 Y141.904 E73.09214
G1 X154.741 Y133.097 E73.17935
G0 F9000 X154.041 Y132.397
; TYPE:WALL-OUTER
G1 F600 X155.824 Y132.397 E73.19701
G1 X155.824 Y142.604 E73.29809
G1 X154.041 Y142.604 E73.31575
G1 X154.041 Y132.397 E73.41683
G0 F9000 X154.991 Y133.212
; TYPE:FILL
G1 F720 X154.931 Y133.4 E73.41706
G1 X154.931 Y133.895 E73.4192
G1 X154.931 Y134.39 E73.42135
G1 X154.931 Y134.884 E73.42348
G1 X155.008 Y135.209 E73.42564
G1 X154.854 Y135.302 E73.4278
G1 X155.008 Y135.859 E73.42994
G1 X154.854 Y136.05 E73.4315
G1 X154.931 Y136.369 E73.43365
G1 X154.931 Y136.864 E73.43579
G1 X154.931 Y137.359 E73.43793
G1 X154.93 Y137.854 E73.44006
G1 X155.007 Y138.198 E73.4422
G1 X154.931 Y138.729 E73.44801
G1 X154.854 Y138.767 E73.45017
G1 X154.93 Y139.339 E73.45231
G1 X155.007 Y139.651 E73.45444
G1 X154.854 Y139.842 E73.45601
G1 X155.007 Y140.158 E73.45814
G1 X154.854 Y140.252 E73.46029
G1 X154.93 Y140.824 E73.46243
G1 X154.93 Y141.319 E73.46456
G1 X155.007 Y141.643 E73.46785
G0 F9000 X140.958 Y140.958
; TYPE:SUPPORT
G1 F720 X137.937 Y137.937 E73.51016
G0 F9000 X138.098 Y137.937
G0 X140.123 Y136.786
G0 X140.157 Y136.36
G0 X140.803 Y136.401
G0 X140.803 Y136.56
G1 F720 X137.936 Y133.694 E73.55031
G0 F9000 X138.098 Y133.694
G0 X140.888 Y132.601
G0 X140.888 Y132.601
G0 X140.926 Y132.441
G1 F720 X140.957 Y132.472 E73.55074
G0 F9000 X140.798 Y132.511
G0 X138.098 Y142.18
G0 X138.098 Y142.18
G0 X137.938 Y142.18
G1 F720 X138.317 Y142.559 E73.55605
G0 F9000 X145.927 Y141.685
G1 F720 X151.612 Y147.37 E73.63567
G0 F9000 X151.587 Y147.212
G0 X152.198 Y143.872
G0 X152.198 Y143.872
G0 X152.357 Y143.872
G1 F720 X149.926 Y141.441 E73.66971
G0 F9000 X149.926 Y141.601
G0 X145.698 Y145.537
G0 X145.698 Y145.537
G0 X145.537 Y145.537
G1 F720 X147.547 Y147.547 E73.69786
G0 F9000 X146.063 Y133.335
G1 F720 X145.537 Y132.809 E73.70523
G0 F9000 X145.698 Y132.809
G0 X145.698 Y128.566
G0 X145.698 Y128.566
G0 X145.537 Y128.566
G1 F720 X150.521 Y133.551 E73.77504
G0 F9000 X150.496 Y133.393
G0 X152.198 Y131.144
G0 X152.198 Y131.144
G0 X152.357 Y131.144
G1 F720 X148.654 Y127.441 E73.8269
G0 F9000 X156.936 Y135.723
G1 F720 X160.156 Y138.943 E73.87199
G0 F9000 X159.998 Y138.943
G0 X157.098 Y139.966
G0 X157.098 Y139.966
G0 X156.937 Y139.966
G1 F720 X160.131 Y143.16 E73.91673
G0 F9000 X160.088 Y143.001
G0 X159.998 Y134.701
G0 X159.998 Y134.701
G0 X160.156 Y134.701
G1 F720 X158.896 Y133.44 E73.93438
; LAYER:19
G0 F9000 X143.412 Y132.679 Z4.05
; TYPE:WALL-INNER
G1 F720 X143.412 Y142.322 E74.02987
G1 X142.387 Y142.323 E74.04002
G1 X142.387 Y132.678 E74.13554
G1 X143.412 Y132.679 E74.14569
G0 F9000 X143.062 Y133.029
G1 F720 X143.062 Y141.972 E74.23425
G1 X142.737 Y141.973 E74.23747
G1 X142.737 Y133.028 E74.32605
G1 X143.062 Y133.029 E74.32927
G0 F9000 X143.762 Y132.329
; TYPE:WALL-OUTER
G1 F600 X143.762 Y142.672 E74.4317
G1 X142.037 Y142.673 E74.44878
G1 X142.037 Y132.328 E74.55123
G1 X143.762 Y132.329 E74.56831
G0 F9000 X142.887 Y133.203
G1 F1800 E71.56831
G1 Z5.05
G0 F9000 X154.583 Y132.679
; TYPE:WALL-INNER
G1 Z4.05
G1 F1800 E74.56831
G1 F720 X155.608 Y132.678 E74.57846
G1 X155.608 Y142.323 E74.67397
G1 X154.583 Y142.322 E74.68412
G1 X154.583 Y132.679 E74.77962
G0 F9000 X154.933 Y133.029
G1 F720 X155.258 Y133.028 E74.78284
G1 X155.258 Y141.973 E74.87142
G1 X154.933 Y141.972 E74.87464
G1 X154.933 Y133.029 E74.9632
G0 F9000 X154.233 Y132.329
; TYPE:WALL-OUTER
G1 F600 X155.958 Y132.328 E74.98028
G1 X155.958 Y142.673 E75.08273
G1 X154.233 Y142.672 E75.09981
G1 X154.233 Y132.329 E75.20224
G0 F9000 X155.107 Y133.204
G0 X157.098 Y133.511
G0 X157.098 Y135.723
G0 X157.098 Y135.723
G0 X156.936 Y135.723
; TYPE:SUPPORT
G1 F720 X160.156 Y138.943 E75.24733
G0 F9000 X159.998 Y138.943
G0 X157.098 Y139.966
G0 X157.098 Y139.966
G0 X156.937 Y139.966
G1 F720 X160.131 Y143.16 E75.29206
G0 F9000 X160.088 Y143.001
G0 X159.998 Y134.701
G0 X159.998 Y134.701
G0 X160.156 Y134.701
G1 F720 X158.896 Y133.44 E75.30972
G0 F9000 X152.357 Y131.144
G1 F720 X148.654 Y127.441 E75.36158
G0 F9000 X148.654 Y127.601
G0 X145.698 Y128.566
G0 X145.698 Y128.566
G0 X145.537 Y128.566
G1 F720 X150.521 Y133.551 E75.43139
G0 F9000 X150.496 Y133.393
G0 X146.085 Y133.178
G0 X146.085 Y133.178
G0 X146.063 Y133.335
G1 F720 X145.537 Y132.809 E75.43875
G0 F9000 X145.927 Y141.685
G1 F720 X151.612 Y147.37 E75.51837
G0 F9000 X151.587 Y147.212
G0 X152.198 Y143.872
G0 X152.198 Y143.872
G0 X152.357 Y143.872
G1 F720 X149.926 Y141.441 E75.55242
G0 F9000 X149.926 Y141.601
G0 X145.698 Y145.537
G0 X145.698 Y145.537
G0 X145.537 Y145.537
G1 F720 X147.547 Y147.547 E75.58057
G0 F9000 X140.958 Y140.958
G1 F720 X137.937 Y137.937 E75.62287
G0 F9000 X138.098 Y137.937
G0 X140.123 Y136.786
G0 X140.157 Y136.36
G0 X140.803 Y136.401
G0 X140.803 Y136.56
G1 F720 X137.936 Y133.694 E75.66302
G0 F9000 X138.098 Y133.694
G0 X140.888 Y132.601
G0 X140.888 Y132.601
G0 X140.926 Y132.441
G1 F720 X140.957 Y132.472 E75.66345
G0 F9000 X140.798 Y132.511
G0 X138.098 Y142.18
G0 X138.098 Y142.18
G0 X137.938 Y142.18
G1 F720 X138.317 Y142.559 E75.66876
; LAYER:20
G0 F9000 X142.253 Y142.391 Z4.25
; TYPE:WALL-INNER
G1 F720 X142.253 Y132.61 E75.76562
G1 X143.278 Y132.61 E75.77577
G1 X143.278 Y142.391 E75.87263
G1 X142.253 Y142.391 E75.88278
G0 F9000 X142.603 Y142.041
G1 F720 X142.603 Y132.96 E75.97271
G1 X142.928 Y132.96 E75.97593
G1 X142.928 Y142.041 E76.06586
G1 X142.603 Y142.041 E76.06908
G0 F9000 X141.903 Y142.741
; TYPE:WALL-OUTER
G1 F600 X141.903 Y132.26 E76.17287
G1 X143.628 Y132.26 E76.18996
G1 X143.628 Y142.741 E76.29375
G1 X141.903 Y142.741 E76.31083
G0 F9000 X142.778 Y141.866
G1 F1800 E73.31083
G1 Z5.25
G0 F9000 X154.717 Y142.391
; TYPE:WALL-INNER
G1 Z4.25
G1 F1800 E76.31083
G1 F720 X154.717 Y132.61 E76.40769
G1 X155.742 Y132.61 E76.41784
G1 X155.742 Y142.391 E76.5147
G1 X154.717 Y142.391 E76.52485
G0 F9000 X155.067 Y142.041
G1 F720 X155.067 Y132.96 E76.61478
G1 X155.392 Y132.96 E76.618
G1 X155.392 Y142.041 E76.70793
