; Generated with MatterSlice 1.0
; filamentDiameter = 3
; extrusionWidth = 0.35
; firstLayerExtrusionWidth = 0.7
; layerThickness = 0.2
; firstLayerThickness = 0.25
; automatic settings before start_gcode
G21 ; set units to millimeters
M107 ; fan off
M190 S65 ; wait for bed temperature to be reached
M104 T0 S230 ; start heating extruder 0
T0 ; set the active extruder to 0
; settings from start_gcode
G28 ; home all axes
G1 Z5 F5000 ; lift nozzle
; automatic settings after start_gcode
M109 T0 S185 ; wait for extruder 0 to reach temperature
T0 ; set the active extruder to 0
G90 ; use absolute coordinates
G92 E0 ; reset the expected extruder position
M82 ; use absolute distance for extrusion
; Layer count: 123
; LAYER:0
M107
G0 F9000 X163.597 Y118.47 Z0.25
G0 X163.597 Y118.47
; TYPE:SKIRT
G1 Z0.25
G1 F1800 E0
G1 F1080 X163.597 Y121.951 E0.08618
G1 X172.997 Y121.951 E0.3189
G1 X172.997 Y154.051 E1.11361
G1 X163.597 Y154.051 E1.34633
G1 X163.597 Y156.532 E1.40776
G1 X151.448 Y158.051 E1.71088
G1 X146.625 Y158.051 E1.83028
G1 X134.197 Y156.672 E2.13986
G1 X134.197 Y153.051 E2.2295
G1 X125.397 Y153.051 E2.44737
G1 X125.397 Y148.554 E2.5587
G1 X124.997 Y148.354 E2.56977
G1 X124.997 Y123.351 E3.18878
G1 X134.197 Y123.351 E3.41655
G1 X134.197 Y118.222 E3.54353
G1 X146.885 Y116.951 E3.85923
G1 X151.448 Y116.951 E3.9722
G1 X163.597 Y118.47 E4.27532
G0 F9000 X162.897 Y119.088
G1 F1080 X162.897 Y122.651 E4.36353
G1 X172.297 Y122.651 E4.59625
G1 X172.297 Y153.351 E5.3563
G1 X162.897 Y153.351 E5.58902
G1 X162.897 Y155.914 E5.65247
G1 X151.404 Y157.351 E5.93923
G1 X146.663 Y157.351 E6.0566
G1 X134.897 Y156.046 E6.34968
G1 X134.897 Y152.351 E6.44116
G1 X126.097 Y152.351 E6.65903
G1 X126.097 Y148.122 E6.76373
G1 X125.697 Y147.922 E6.7748
G1 X125.697 Y124.051 E7.36578
G1 X134.897 Y124.051 E7.59355
G1 X134.897 Y118.856 E7.72217
G1 X146.92 Y117.651 E8.02132
G1 X151.404 Y117.651 E8.13233
G1 X162.897 Y119.088 E8.41908
G0 F9000 X162.197 Y119.706
G1 F1080 X162.197 Y123.351 E8.50932
G1 X171.597 Y123.351 E8.74204
G1 X171.597 Y152.651 E9.46744
G1 X162.197 Y152.651 E9.70016
G1 X162.197 Y155.296 E9.76564
G1 X151.361 Y156.651 E10.036
G1 X146.702 Y156.651 E10.15134
G1 X135.597 Y155.419 E10.42796
G1 X135.597 Y151.651 E10.52125
G1 X126.797 Y151.651 E10.73911
G1 X126.797 Y147.689 E10.8372
G1 X126.397 Y147.489 E10.84827
G1 X126.397 Y124.751 E11.41121
G1 X135.597 Y124.751 E11.63898
G1 X135.597 Y119.489 E11.76925
G1 X146.955 Y118.351 E12.05185
G1 X151.361 Y118.351 E12.16094
G1 X162.197 Y119.706 E12.4313
G0 F9000 X161.497 Y120.323
G1 F1080 X161.497 Y124.051 E12.52359
G1 X170.897 Y124.051 E12.75631
G1 X170.897 Y151.951 E13.44704
G1 X161.497 Y151.951 E13.67976
G1 X161.497 Y154.679 E13.7473
G1 X151.317 Y155.951 E14.00129
G1 X146.741 Y155.951 E14.11458
G1 X136.297 Y154.792 E14.37474
G1 X136.297 Y150.951 E14.46983
G1 X127.497 Y150.951 E14.6877
G1 X127.497 Y147.256 E14.77917
G1 X127.097 Y147.056 E14.79025
G1 X127.097 Y125.451 E15.32513
G1 X136.297 Y125.451 E15.5529
G1 X136.297 Y120.122 E15.68483
G1 X146.99 Y119.051 E15.95089
G1 X151.317 Y119.051 E16.05801
G1 X161.497 Y120.323 E16.312
G0 F9000 X160.797 Y120.941
G1 F1080 X160.797 Y124.751 E16.40633
G1 X170.197 Y124.751 E16.63905
G1 X170.197 Y151.251 E17.29512
G1 X160.797 Y151.251 E17.52784
G1 X160.797 Y154.061 E17.59741
G1 X151.273 Y155.251 E17.83503
G1 X146.779 Y155.251 E17.94629
G1 X136.997 Y154.166 E18.18995
G1 X136.997 Y150.251 E18.28688
G1 X128.197 Y150.251 E18.50475
G1 X128.197 Y146.824 E18.58959
G1 X127.797 Y146.624 E18.60066
G1 X127.797 Y126.151 E19.10752
G1 X136.997 Y126.151 E19.33529
G1 X136.997 Y120.756 E19.46885
G1 X147.025 Y119.751 E19.71837
G1 X151.273 Y119.751 E19.82354
G1 X160.797 Y120.941 E20.06116
G0 F9000 X160.097 Y121.559
G1 F1080 X160.097 Y125.451 E20.15751
G1 X169.497 Y125.451 E20.39023
G1 X169.497 Y150.551 E21.01165
G1 X160.097 Y150.551 E21.24437
G1 X160.097 Y153.443 E21.31596
G1 X151.23 Y154.551 E21.5372
G1 X146.818 Y154.551 E21.64643
G1 X137.697 Y153.539 E21.87362
G1 X137.697 Y149.551 E21.97236
G1 X128.897 Y149.551 E22.19022
G1 X128.897 Y146.391 E22.26846
G1 X128.497 Y146.191 E22.27953
G1 X128.497 Y126.851 E22.75834
G1 X137.697 Y126.851 E22.9861
G1 X137.697 Y121.389 E23.12133
G1 X147.06 Y120.451 E23.35429
G1 X151.23 Y120.451 E23.45753
G1 X160.097 Y121.559 E23.67876
G0 F9000 X159.397 Y122.177
G1 F1080 X159.397 Y126.151 E23.77715
G1 X168.797 Y126.151 E24.00987
G1 X168.797 Y149.851 E24.59662
G1 X159.397 Y149.851 E24.82934
G1 X159.397 Y152.825 E24.90297
G1 X151.186 Y153.851 E25.10783
G1 X146.857 Y153.851 E25.21501
G1 X138.397 Y152.913 E25.42574
G1 X138.397 Y148.851 E25.5263
G1 X129.597 Y148.851 E25.74417
G1 X129.597 Y145.959 E25.81577
G1 X129.197 Y145.759 E25.82684
G1 X129.197 Y127.551 E26.27762
G1 X138.397 Y127.551 E26.50539
G1 X138.397 Y122.022 E26.64228
G1 X147.095 Y121.151 E26.85869
G1 X151.186 Y121.151 E26.95998
G1 X159.397 Y122.177 E27.16484
G0 F9000 X149.278 Y133.818
; TYPE:WALL-OUTER
G1 F1080 X149.278 Y141.183 E27.34718
G1 X148.722 Y141.183 E27.36094
G1 X148.722 Y133.818 E27.54328
G1 X149.278 Y133.818 E27.55705
G0 F9000 X138.305 Y134.063
; TYPE:SUPPORT
G1 F3600 X138.083 Y133.841 E27.56093
G0 F9000 X138.083 Y134.001
G0 X135.647 Y135.486
G0 X135.647 Y135.486
G0 X135.486 Y135.486
G1 F3600 X138.306 Y138.306 E27.6103
G0 F9000 X138.147 Y138.306
G0 X135.647 Y139.729
G0 X135.647 Y139.729
G0 X135.487 Y139.729
G1 F3600 X138.306 Y142.549 E27.65966
G0 F9000 X146.173 Y133.445
G1 F3600 X144.686 Y131.958 E27.68569
G0 F9000 X144.847 Y131.958
G0 X144.847 Y127.777
G0 X144.847 Y127.777
G0 X144.686 Y127.715
G1 F3600 X149.799 Y132.828 E27.7752
G0 F9000 X150.267 Y133.296
G1 F3600 X150.531 Y133.561 E27.77983
G0 F9000 X150.531 Y133.401
G0 X152.947 Y131.893
G0 X152.947 Y131.893
G0 X153.106 Y131.893
G1 F3600 X148.653 Y127.44 E27.85779
G0 F9000 X150.267 Y141.781
G1 F3600 X153.106 Y144.621 E27.90749
G0 F9000 X152.947 Y144.621
G0 X151.673 Y147.29
G0 X151.673 Y147.29
G0 X151.692 Y147.449
G1 F3600 X145.84 Y141.598 E28.00993
G0 F9000 X145.854 Y141.757
G0 X144.847 Y144.686
G0 X144.847 Y144.686
G0 X144.686 Y144.686
G1 F3600 X147.56 Y147.56 E28.06024
G0 F9000 X159.486 Y142.515
G1 F3600 X160.531 Y143.561 E28.07855
G0 F9000 X160.531 Y143.401
G0 X162.347 Y141.293
G0 X162.347 Y141.293
G0 X162.506 Y141.293
G1 F3600 X159.486 Y138.273 E28.13142
G0 F9000 X159.647 Y138.273
G0 X162.347 Y137.05
G0 X162.347 Y137.05
G0 X162.505 Y137.05
G1 F3600 X159.486 Y134.03 E28.18428
G0 F9000 X159.647 Y134.03
G0 X162.139 Y132.601
G0 X162.139 Y132.601
G0 X162.139 Y132.441
G1 F3600 X162.505 Y132.807 E28.19068
G0 F9000 X147.725 Y132.925
; TYPE:SUPPORT-INTERFACE
G1 F3600 X143.886 Y136.764 E28.25789
G0 F9000 X143.886 Y136.269
G1 F3600 X147.353 Y132.801 E28.31859
G0 F9000 X146.982 Y132.677
G1 F3600 X143.886 Y135.774 E28.3728
G0 F9000 X143.886 Y135.279
G1 F3600 X146.525 Y132.64 E28.419
G0 F9000 X146.03 Y132.64
G1 F3600 X143.886 Y134.784 E28.45653
G0 F9000 X143.886 Y134.289
G1 F3600 X145.535 Y132.64 E28.4854
G0 F9000 X145.04 Y132.64
G1 F3600 X143.886 Y133.794 E28.5056
G0 F9000 X143.886 Y133.299
G1 F3600 X144.545 Y132.64 E28.51714
G0 F9000 X144.05 Y132.64
G1 F3600 X143.886 Y132.804 E28.52001
G0 F9000 X144.047 Y132.804
G0 X147.572 Y133.414
G0 X147.572 Y133.414
G0 X147.73 Y133.414
G1 F3600 X143.886 Y137.259 E28.58731
G0 F9000 X143.886 Y137.754
G1 F3600 X147.73 Y133.909 E28.65461
G0 F9000 X147.73 Y134.404
G1 F3600 X143.886 Y138.249 E28.72192
G0 F9000 X143.886 Y138.744
G1 F3600 X147.73 Y134.899 E28.78922
G0 F9000 X147.73 Y135.394
G1 F3600 X143.886 Y139.239 E28.85652
G0 F9000 X143.886 Y139.734
G1 F3600 X147.73 Y135.889 E28.92382
G0 F9000 X147.73 Y136.384
G1 F3600 X143.886 Y140.229 E28.99113
G0 F9000 X143.886 Y140.724
G1 F3600 X147.73 Y136.879 E29.05843
G0 F9000 X147.73 Y137.374
G1 F3600 X143.886 Y141.219 E29.12573
G0 F9000 X143.886 Y141.714
G1 F3600 X147.731 Y137.868 E29.19305
G0 F9000 X147.731 Y138.363
G1 F3600 X143.886 Y142.209 E29.26037
G0 F9000 X144.229 Y142.36
G1 F3600 X147.731 Y138.858 E29.32168
G0 F9000 X147.731 Y139.353
G1 F3600 X144.724 Y142.36 E29.37432
G0 F9000 X145.219 Y142.36
G1 F3600 X147.731 Y139.848 E29.41829
G0 F9000 X147.731 Y140.343
G1 F3600 X145.714 Y142.361 E29.45361
G0 F9000 X146.209 Y142.361
G1 F3600 X147.731 Y140.838 E29.48026
G0 F9000 X147.731 Y141.333
G1 F3600 X146.704 Y142.361 E29.49825
G0 F9000 X147.273 Y142.286
G1 F3600 X147.731 Y141.828 E29.50627
G0 F9000 X150.267 Y141.767
G1 F3600 X153.906 Y138.128 E29.56997
G0 F9000 X153.906 Y137.633
G1 F3600 X150.267 Y141.272 E29.63368
G0 F9000 X150.267 Y140.777
G1 F3600 X153.906 Y137.138 E29.69738
G0 F9000 X153.906 Y136.643
G1 F3600 X150.267 Y140.282 E29.76109
G0 F9000 X150.267 Y139.787
G1 F3600 X153.906 Y136.148 E29.82479
G0 F9000 X153.906 Y135.653
G1 F3600 X150.267 Y139.292 E29.8885
G0 F9000 X150.267 Y138.797
G1 F3600 X153.906 Y135.158 E29.9522
G0 F9000 X153.906 Y134.663
G1 F3600 X150.267 Y138.303 E30.01592
G0 F9000 X150.267 Y137.808
G1 F3600 X153.906 Y134.168 E30.07963
G0 F9000 X153.906 Y133.673
G1 F3600 X150.267 Y137.313 E30.14335
G0 F9000 X150.267 Y136.818
G1 F3600 X153.906 Y133.178 E30.20706
G0 F9000 X153.906 Y132.683
G1 F3600 X150.267 Y136.323 E30.27077
G0 F9000 X150.267 Y135.828
G1 F3600 X153.454 Y132.641 E30.32656
G0 F9000 X152.959 Y132.641
G1 F3600 X150.267 Y135.333 E30.37369
G0 F9000 X150.267 Y134.838
G1 F3600 X152.464 Y132.641 E30.41215
G0 F9000 X151.969 Y132.641
G1 F3600 X150.267 Y134.343 E30.44195
G0 F9000 X150.267 Y133.848
G1 F3600 X151.474 Y132.641 E30.46308
G0 F9000 X150.89 Y132.729
G1 F3600 X150.267 Y133.353 E30.47399
G0 F9000 X150.428 Y133.353
G0 X153.747 Y138.623
G0 X153.747 Y138.623
G0 X153.906 Y138.623
G1 F3600 X150.468 Y142.061 E30.53418
G0 F9000 X150.798 Y142.226
G1 F3600 X153.906 Y139.118 E30.58859
G0 F9000 X153.906 Y139.613
G1 F3600 X151.158 Y142.361 E30.63669
G0 F9000 X151.653 Y142.361
G1 F3600 X153.906 Y140.108 E30.67614
G0 F9000 X153.906 Y140.603
G1 F3600 X152.148 Y142.361 E30.70691
G0 F9000 X152.643 Y142.361
G1 F3600 X153.906 Y141.098 E30.72902
G0 F9000 X153.906 Y141.593
G1 F3600 X153.138 Y142.361 E30.74247
G0 F9000 X153.633 Y142.361
G1 F3600 X153.906 Y142.088 E30.74725
; LAYER:1
G0 F9000 X150.235 Y141.067 Z0.45
; TYPE:WALL-INNER
G1 F720 X147.766 Y141.067 E30.7717
G1 X147.766 Y133.934 E30.84233
G1 X150.235 Y133.934 E30.86678
G1 X150.235 Y141.067 E30.93742
G0 F9000 X149.885 Y140.717
G1 F720 X148.116 Y140.717 E30.95494
G1 X148.116 Y134.284 E31.01865
G1 X149.885 Y134.284 E31.03617
G1 X149.885 Y140.717 E31.09987
G0 F9000 X150.585 Y141.417
; TYPE:WALL-OUTER
G1 F600 X147.416 Y141.417 E31.13125
G1 X147.416 Y133.584 E31.20882
G1 X150.585 Y133.584 E31.24021
G1 X150.585 Y141.417 E31.31778
G0 F9000 X149.769 Y140.285
; TYPE:FILL
G1 F720 X149.452 Y140.602 E31.32222
G0 F9000 X148.958 Y140.601
G1 F720 X149.769 Y139.79 E31.33357
G0 F9000 X149.769 Y139.295
G1 F720 X148.463 Y140.601 E31.35186
G0 F9000 X148.23 Y140.34
G1 F720 X149.769 Y138.8 E31.37342
G0 F9000 X149.769 Y138.305
G1 F720 X148.23 Y139.845 E31.39499
G0 F9000 X148.23 Y139.35
G1 F720 X149.769 Y137.81 E31.41655
G0 F9000 X149.768 Y137.316
G1 F720 X148.23 Y138.855 E31.43809
G0 F9000 X148.23 Y138.36
G1 F720 X149.768 Y136.821 E31.45964
G0 F9000 X149.768 Y136.326
G1 F720 X148.23 Y137.865 E31.48119
G0 F9000 X148.23 Y137.37
G1 F720 X149.768 Y135.831 E31.50273
G0 F9000 X149.768 Y135.336
G1 F720 X148.23 Y136.875 E31.52428
G0 F9000 X148.23 Y136.38
G1 F720 X149.768 Y134.841 E31.54583
G0 F9000 X149.716 Y134.399
G1 F720 X148.23 Y135.885 E31.56664
G0 F9000 X148.23 Y135.39
G1 F720 X149.221 Y134.399 E31.58052
G0 F9000 X148.726 Y134.399
G1 F720 X148.23 Y134.895 E31.58746
G0 F9000 X148.23 Y134.4
G1 F720 X148.231 Y134.399 E31.58748
G0 F9000 X145.84 Y141.598
; TYPE:SUPPORT
G1 F720 X151.692 Y147.449 E31.66943
G0 F9000 X151.673 Y147.29
G0 X152.947 Y144.621
G0 X152.947 Y144.621
G0 X153.106 Y144.621
G1 F720 X150.717 Y142.232 E31.70288
G0 F9000 X150.717 Y142.392
G0 X147.56 Y147.401
G0 X147.56 Y147.401
G0 X147.56 Y147.56
G1 F720 X144.686 Y144.686 E31.74313
G0 F9000 X159.486 Y142.515
G1 F720 X160.531 Y143.561 E31.75778
G0 F9000 X160.531 Y143.401
G0 X162.347 Y141.293
G0 X162.347 Y141.293
G0 X162.506 Y141.293
G1 F720 X159.486 Y138.273 E31.80007
G0 F9000 X159.647 Y138.273
G0 X162.347 Y137.05
G0 X162.347 Y137.05
G0 X162.505 Y137.05
G1 F720 X159.486 Y134.03 E31.84236
G0 F9000 X159.647 Y134.03
G0 X162.139 Y132.601
G0 X162.139 Y132.601
G0 X162.139 Y132.441
G1 F720 X162.505 Y132.807 E31.84748
G0 F9000 X153.106 Y131.893
G1 F720 X148.653 Y127.44 E31.90985
G0 F9000 X148.653 Y127.601
G0 X144.847 Y127.777
G0 X144.847 Y127.777
G0 X144.686 Y127.715
G1 F720 X149.739 Y132.768 E31.98062
G0 F9000 X149.739 Y132.609
G0 X149.413 Y132.67
G0 X146.4 Y132.568
G0 X146.193 Y133.288
G0 X146.174 Y133.446
G1 F720 X144.686 Y131.958 E32.00145
G0 F9000 X138.305 Y134.063
G1 F720 X138.083 Y133.841 E32.00456
G0 F9000 X138.083 Y134.001
G0 X135.647 Y135.486
G0 X135.647 Y135.486
G0 X135.486 Y135.486
G1 F720 X138.306 Y138.306 E32.04406
G0 F9000 X138.147 Y138.306
G0 X135.647 Y139.729
G0 X135.647 Y139.729
G0 X135.487 Y139.729
G1 F720 X138.306 Y142.549 E32.08354
G0 F9000 X151.399 Y142.12
; TYPE:SUPPORT-INTERFACE
G1 F720 X153.906 Y139.613 E32.11865
G0 F9000 X153.906 Y139.118
G1 F720 X151.399 Y141.625 E32.15376
G0 F9000 X151.399 Y141.13
G1 F720 X153.906 Y138.623 E32.18888
G0 F9000 X153.906 Y138.128
G1 F720 X151.399 Y140.635 E32.22399
G0 F9000 X151.399 Y140.14
G1 F720 X153.906 Y137.633 E32.2591
G0 F9000 X153.906 Y137.138
G1 F720 X151.399 Y139.645 E32.29421
G0 F9000 X151.399 Y139.15
G1 F720 X153.906 Y136.643 E32.32932
G0 F9000 X153.906 Y136.148
G1 F720 X151.399 Y138.655 E32.36443
G0 F9000 X151.399 Y138.16
G1 F720 X153.906 Y135.653 E32.39954
G0 F9000 X153.906 Y135.158
G1 F720 X151.399 Y137.665 E32.43465
G0 F9000 X151.399 Y137.17
G1 F720 X153.906 Y134.663 E32.46976
G0 F9000 X153.906 Y134.168
G1 F720 X151.399 Y136.675 E32.50487
G0 F9000 X151.399 Y136.18
G1 F720 X153.906 Y133.673 E32.53998
G0 F9000 X153.906 Y133.178
G1 F720 X151.399 Y135.686 E32.5751
G0 F9000 X151.399 Y135.191
G1 F720 X153.906 Y132.683 E32.61021
G0 F9000 X153.454 Y132.641
G1 F720 X151.399 Y134.696 E32.63899
G0 F9000 X151.399 Y134.201
G1 F720 X152.959 Y132.641 E32.66084
G0 F9000 X152.464 Y132.641
G1 F720 X151.399 Y133.706 E32.67576
G0 F9000 X151.399 Y133.211
G1 F720 X151.969 Y132.641 E32.68374
G0 F9000 X151.474 Y132.641
G1 F720 X151.399 Y132.716 E32.68479
G0 F9000 X151.56 Y132.716
G0 X153.747 Y140.108
G0 X153.747 Y140.108
G0 X153.906 Y140.108
G1 F720 X151.653 Y142.361 E32.71634
G0 F9000 X152.148 Y142.361
G1 F720 X153.906 Y140.603 E32.74096
G0 F9000 X153.906 Y141.098
G1 F720 X152.643 Y142.361 E32.75865
G0 F9000 X153.138 Y142.361
G1 F720 X153.906 Y141.593 E32.76941
G0 F9000 X153.906 Y142.088
G1 F720 X153.633 Y142.361 E32.77323
G0 F9000 X146.6 Y141.97
G1 F720 X146.209 Y142.36 E32.7787
G0 F9000 X145.714 Y142.36
G1 F720 X146.6 Y141.475 E32.7911
G0 F9000 X146.6 Y140.98
G1 F720 X145.219 Y142.36 E32.81043
G0 F9000 X144.724 Y142.36
G1 F720 X146.6 Y140.485 E32.8367
G0 F9000 X146.6 Y139.99
G1 F720 X144.229 Y142.36 E32.8699
G0 F9000 X143.886 Y142.209
G1 F720 X146.6 Y139.495 E32.90791
G0 F9000 X146.6 Y139
G1 F720 X143.886 Y141.714 E32.94592
G0 F9000 X143.886 Y141.219
G1 F720 X146.6 Y138.505 E32.98393
G0 F9000 X146.6 Y138.01
G1 F720 X143.886 Y140.724 E33.02194
G0 F9000 X143.886 Y140.229
G1 F720 X146.6 Y137.515 E33.05995
G0 F9000 X146.6 Y137.02
G1 F720 X143.886 Y139.734 E33.09796
G0 F9000 X143.886 Y139.239
G1 F720 X146.6 Y136.525 E33.13597
G0 F9000 X146.6 Y136.03
G1 F720 X143.886 Y138.744 E33.17397
G0 F9000 X143.886 Y138.249
G1 F720 X146.6 Y135.535 E33.21198
G0 F9000 X146.6 Y135.04
G1 F720 X143.886 Y137.754 E33.24999
G0 F9000 X143.886 Y137.259
G1 F720 X146.6 Y134.545 E33.288
G0 F9000 X146.6 Y134.05
G1 F720 X143.886 Y136.764 E33.32601
G0 F9000 X143.886 Y136.269
G1 F720 X146.6 Y133.555 E33.36402
G0 F9000 X146.6 Y133.06
G1 F720 X143.886 Y135.774 E33.40203
G0 F9000 X143.886 Y135.279
G1 F720 X146.525 Y132.64 E33.43899
G0 F9000 X146.03 Y132.64
G1 F720 X143.886 Y134.784 E33.46902
G0 F9000 X143.886 Y134.289
G1 F720 X145.535 Y132.64 E33.49211
G0 F9000 X145.04 Y132.64
G1 F720 X143.886 Y133.794 E33.50827
G0 F9000 X143.886 Y133.299
G1 F720 X144.545 Y132.64 E33.5175
G0 F9000 X144.05 Y132.64
G1 F720 X143.886 Y132.804 E33.5198
; LAYER:2
M106 S255
G0 F9000 X146.76 Y133.881 Z0.65
; TYPE:WALL-INNER
G1 F720 X151.24 Y133.881 E33.56416
G1 X151.24 Y141.12 E33.63585
G1 X146.76 Y141.12 E33.68022
G1 X146.76 Y133.881 E33.7519
G0 F9000 X147.11 Y134.231
G1 F720 X150.89 Y134.231 E33.78934
G1 X150.89 Y140.77 E33.85409
G1 X147.11 Y140.77 E33.89153
G1 X147.11 Y134.231 E33.95628
G0 F9000 X146.41 Y133.531
; TYPE:WALL-OUTER
G1 F600 X151.59 Y133.531 E34.00758
G1 X151.59 Y141.47 E34.0862
G1 X146.41 Y141.47 E34.1375
G1 X146.41 Y133.531 E34.21612
G0 F9000 X147.223 Y134.354
; TYPE:FILL
G1 F720 X150.774 Y137.904 E34.26584
G0 F9000 X150.774 Y137.409
G1 F720 X147.71 Y134.346 E34.30874
G0 F9000 X148.205 Y134.346
G1 F720 X150.774 Y136.914 E34.34472
G0 F9000 X150.774 Y136.419
G1 F720 X148.7 Y134.346 E34.37375
G0 F9000 X149.194 Y134.345
G1 F720 X150.774 Y135.925 E34.39588
G0 F9000 X150.774 Y135.43
G1 F720 X149.689 Y134.345 E34.41108
G0 F9000 X150.184 Y134.345
G1 F720 X150.774 Y134.935 E34.41934
G0 F9000 X150.774 Y134.44
G1 F720 X150.679 Y134.345 E34.42067
G0 F9000 X147.223 Y134.849
G1 F720 X150.774 Y138.399 E34.4704
G0 F9000 X150.774 Y138.894
G1 F720 X147.223 Y135.344 E34.52012
G0 F9000 X147.223 Y135.839
G1 F720 X150.774 Y139.389 E34.56984
G0 F9000 X150.774 Y139.884
G1 F720 X147.223 Y136.334 E34.61957
G0 F9000 X147.223 Y136.829
G1 F720 X150.774 Y140.379 E34.66929
G0 F9000 X150.555 Y140.655
G1 F720 X147.223 Y137.324 E34.71595
G0 F9000 X147.223 Y137.819
G1 F720 X150.06 Y140.655 E34.75568
G0 F9000 X149.565 Y140.655
G1 F720 X147.223 Y138.314 E34.78847
G0 F9000 X147.223 Y138.809
G1 F720 X149.07 Y140.655 E34.81433
G0 F9000 X148.574 Y140.654
G1 F720 X147.223 Y139.304 E34.83324
G0 F9000 X147.223 Y139.799
G1 F720 X148.079 Y140.654 E34.84522
G0 F9000 X147.584 Y140.654
G1 F720 X147.223 Y140.294 E34.85027
G0 F9000 X145.593 Y132.866
; TYPE:SUPPORT
G1 F720 X144.686 Y131.958 E34.86298
G0 F9000 X144.847 Y131.958
G0 X144.847 Y127.777
G0 X144.847 Y127.777
G0 X144.686 Y127.715
G1 F720 X149.686 Y132.716 E34.93301
G0 F9000 X149.686 Y132.556
G0 X152.947 Y131.893
G0 X152.947 Y131.893
G0 X153.106 Y131.893
G1 F720 X148.653 Y127.44 E34.99538
G0 F9000 X138.305 Y134.063
G1 F720 X138.083 Y133.841 E34.99849
G0 F9000 X138.083 Y134.001
G0 X135.647 Y135.486
G0 X135.647 Y135.486
G0 X135.486 Y135.486
G1 F720 X138.306 Y138.306 E35.03798
G0 F9000 X138.147 Y138.306
G0 X135.647 Y139.729
G0 X135.647 Y139.729
G0 X135.487 Y139.729
G1 F720 X138.306 Y142.549 E35.07747
G0 F9000 X144.686 Y144.686
G1 F720 X147.56 Y147.56 E35.11772
G0 F9000 X147.56 Y147.401
G0 X151.673 Y147.29
G0 X151.673 Y147.29
G0 X151.692 Y147.449
G1 F720 X146.527 Y142.284 E35.19005
G0 F9000 X146.527 Y142.445
G0 X150.77 Y142.445
G0 X150.77 Y142.445
G0 X150.77 Y142.284
G1 F720 X153.106 Y144.621 E35.22278
G0 F9000 X159.486 Y142.515
G1 F720 X160.531 Y143.561 E35.23742
G0 F9000 X160.531 Y143.401
G0 X162.347 Y141.293
G0 X162.347 Y141.293
G0 X162.506 Y141.293
G1 F720 X159.486 Y138.273 E35.27971
G0 F9000 X159.647 Y138.273
G0 X162.347 Y137.05
G0 X162.347 Y137.05
G0 X162.505 Y137.05
G1 F720 X159.486 Y134.03 E35.322
G0 F9000 X159.647 Y134.03
G0 X162.139 Y132.601
G0 X162.139 Y132.601
G0 X162.139 Y132.441
G1 F720 X162.505 Y132.807 E35.32713
G0 F9000 X145.593 Y133.076
; TYPE:SUPPORT-INTERFACE
G1 F720 X143.886 Y134.784 E35.35104
G0 F9000 X143.886 Y134.289
G1 F720 X145.534 Y132.641 E35.37412
G0 F9000 X145.039 Y132.641
G1 F720 X143.886 Y133.794 E35.39027
G0 F9000 X143.886 Y133.299
G1 F720 X144.545 Y132.64 E35.3995
G0 F9000 X144.05 Y132.64
G1 F720 X143.886 Y132.804 E35.40179
G0 F9000 X144.047 Y132.804
G0 X145.435 Y133.571
G0 X145.435 Y133.571
G0 X145.593 Y133.571
G1 F720 X143.886 Y135.279 E35.42571
G0 F9000 X143.886 Y135.774
G1 F720 X145.593 Y134.066 E35.44962
G0 F9000 X145.593 Y134.561
G1 F720 X143.886 Y136.269 E35.47353
G0 F9000 X143.886 Y136.764
G1 F720 X145.593 Y135.056 E35.49745
G0 F9000 X145.593 Y135.551
G1 F720 X143.886 Y137.259 E35.52136
G0 F9000 X143.886 Y137.754
G1 F720 X145.593 Y136.046 E35.54527
G0 F9000 X145.593 Y136.541
G1 F720 X143.886 Y138.249 E35.56919
G0 F9000 X143.886 Y138.744
G1 F720 X145.593 Y137.036 E35.5931
G0 F9000 X145.593 Y137.531
G1 F720 X143.886 Y139.239 E35.61701
G0 F9000 X143.886 Y139.734
G1 F720 X145.593 Y138.026 E35.64093
G0 F9000 X145.593 Y138.521
G1 F720 X143.886 Y140.229 E35.66484
G0 F9000 X143.886 Y140.724
G1 F720 X145.593 Y139.016 E35.68875
G0 F9000 X145.593 Y139.511
G1 F720 X143.886 Y141.219 E35.71267
G0 F9000 X143.886 Y141.714
G1 F720 X145.593 Y140.006 E35.73658
G0 F9000 X145.593 Y140.501
G1 F720 X143.886 Y142.209 E35.76049
G0 F9000 X144.229 Y142.36
G1 F720 X145.593 Y140.996 E35.7796
G0 F9000 X145.593 Y141.491
G1 F720 X144.724 Y142.36 E35.79177
G0 F9000 X145.219 Y142.361
G1 F720 X145.593 Y141.986 E35.79701
G0 F9000 X152.404 Y142.105
G1 F720 X153.906 Y140.603 E35.81805
G0 F9000 X153.906 Y140.108
G1 F720 X152.404 Y141.61 E35.83908
G0 F9000 X152.404 Y141.115
G1 F720 X153.906 Y139.613 E35.86012
G0 F9000 X153.906 Y139.118
G1 F720 X152.404 Y140.62 E35.88115
G0 F9000 X152.404 Y140.125
G1 F720 X153.906 Y138.623 E35.90219
G0 F9000 X153.906 Y138.128
G1 F720 X152.404 Y139.63 E35.92322
G0 F9000 X152.404 Y139.135
G1 F720 X153.906 Y137.633 E35.94426
G0 F9000 X153.906 Y137.138
G1 F720 X152.404 Y138.64 E35.9653
G0 F9000 X152.404 Y138.145
G1 F720 X153.906 Y136.643 E35.98633
G0 F9000 X153.906 Y136.148
G1 F720 X152.404 Y137.65 E36.00737
G0 F9000 X152.404 Y137.156
G1 F720 X153.906 Y135.653 E36.02841
G0 F9000 X153.906 Y135.158
G1 F720 X152.404 Y136.661 E36.04945
G0 F9000 X152.404 Y136.166
G1 F720 X153.906 Y134.663 E36.07049
G0 F9000 X153.906 Y134.168
G1 F720 X152.404 Y135.671 E36.09154
G0 F9000 X152.404 Y135.176
G1 F720 X153.906 Y133.673 E36.11258
G0 F9000 X153.906 Y133.178
G1 F720 X152.404 Y134.681 E36.13362
G0 F9000 X152.404 Y134.186
G1 F720 X153.906 Y132.683 E36.15466
G0 F9000 X153.454 Y132.641
G1 F720 X152.404 Y133.691 E36.16937
G0 F9000 X152.404 Y133.196
G1 F720 X152.959 Y132.64 E36.17715
G0 F9000 X152.464 Y132.64
G1 F720 X152.404 Y132.701 E36.17799
G0 F9000 X152.433 Y132.889
G0 X152.496 Y133.284
G0 X153.747 Y141.098
G0 X153.906 Y141.098
G1 F720 X152.643 Y142.361 E36.19568
G0 F9000 X153.138 Y142.361
G1 F720 X153.906 Y141.593 E36.20644
G0 F9000 X153.906 Y142.088
G1 F720 X153.633 Y142.361 E36.21026
; LAYER:3
G0 F9000 X152.321 Y141.338 Z0.85
G0 X152.246 Y141.173
G0 X152.246 Y141.173
; TYPE:WALL-INNER
G1 F720 X145.755 Y141.173 E36.27454
G1 X145.755 Y133.828 E36.34728
G1 X152.246 Y133.828 E36.41156
G1 X152.246 Y141.173 E36.4843
G0 F9000 X151.896 Y140.823
G1 F720 X146.105 Y140.823 E36.54165
G1 X146.105 Y134.178 E36.60745
G1 X151.896 Y134.178 E36.6648
G1 X151.896 Y140.823 E36.7306
G0 F9000 X152.596 Y141.523
; TYPE:WALL-OUTER
G1 F600 X145.405 Y141.523 E36.80182
G1 X145.405 Y133.478 E36.88149
G1 X152.596 Y133.478 E36.9527
G1 X152.596 Y141.523 E37.03237
G0 F9000 X152.321 Y141.338
G0 X151.779 Y140.255
G0 X151.779 Y140.255
; TYPE:FILL
G1 F720 X151.327 Y140.707 E37.0387
G0 F9000 X150.832 Y140.707
G1 F720 X151.779 Y139.76 E37.05196
G0 F9000 X151.779 Y139.265
G1 F720 X150.337 Y140.707 E37.07216
G0 F9000 X149.842 Y140.707
G1 F720 X151.779 Y138.77 E37.09928
G0 F9000 X151.779 Y138.275
G1 F720 X149.347 Y140.707 E37.13334
G0 F9000 X149.217 Y140.343
G1 F720 X151.779 Y137.78 E37.16923
G0 F9000 X151.779 Y137.285
G1 F720 X149.217 Y139.848 E37.20512
G0 F9000 X149.337 Y139.437
G1 F720 X148.661 Y138.761 E37.21459
G0 F9000 X148.781 Y138.798
G1 F720 X146.872 Y140.707 E37.24132
G0 F9000 X146.377 Y140.707
G1 F720 X148.781 Y138.303 E37.27499
G0 F9000 X149.217 Y138.363
G1 F720 X151.779 Y135.8 E37.31088
G0 F9000 X151.779 Y135.305
G1 F720 X149.217 Y137.868 E37.34676
G0 F9000 X149.337 Y137.535
G1 F720 X148.661 Y137.716 E37.35369
G0 F9000 X148.781 Y137.808
G1 F720 X146.219 Y140.371 E37.38958
G0 F9000 X146.219 Y139.876
G1 F720 X148.781 Y137.313 E37.42547
G0 F9000 X149.217 Y137.373
G1 F720 X151.779 Y134.81 E37.46136
G0 F9000 X151.779 Y134.315
G1 F720 X149.217 Y136.878 E37.49724
G0 F9000 X148.781 Y136.818
G1 F720 X146.219 Y139.381 E37.53313
G0 F9000 X146.219 Y138.886
G1 F720 X148.781 Y136.323 E37.56902
G0 F9000 X149.217 Y136.383
G1 F720 X151.307 Y134.293 E37.59829
G0 F9000 X150.812 Y134.293
G1 F720 X149.217 Y135.888 E37.62063
G0 F9000 X148.781 Y135.828
G1 F720 X146.219 Y138.391 E37.65652
G0 F9000 X146.219 Y137.896
G1 F720 X148.781 Y135.333 E37.6924
G0 F9000 X149.217 Y135.393
G1 F720 X150.317 Y134.293 E37.70781
G0 F9000 X149.822 Y134.293
G1 F720 X149.217 Y134.898 E37.71628
G0 F9000 X149.337 Y134.488
G1 F720 X149.179 Y134.348 E37.71901
G1 X149.07 Y134.292 E37.72054
G1 X148.662 Y134.856 E37.72744
G0 F9000 X148.781 Y134.838
G1 F720 X146.219 Y137.401 E37.76333
G0 F9000 X146.219 Y136.906
G1 F720 X148.781 Y134.343 E37.79921
G0 F9000 X148.337 Y134.293
G1 F720 X146.219 Y136.411 E37.82888
G0 F9000 X146.219 Y135.916
G1 F720 X147.842 Y134.293 E37.85161
G0 F9000 X147.347 Y134.293
G1 F720 X146.219 Y135.421 E37.8674
G0 F9000 X146.219 Y134.926
G1 F720 X146.852 Y134.293 E37.87627
G0 F9000 X146.357 Y134.293
G1 F720 X146.219 Y134.431 E37.8782
G0 F9000 X149.217 Y138.858
G1 F720 X151.779 Y136.295 E37.91409
G0 F9000 X151.779 Y136.79
G1 F720 X149.217 Y139.353 E37.94998
G0 F9000 X148.781 Y139.293
G1 F720 X147.367 Y140.707 E37.96978
G0 F9000 X147.862 Y140.707
G1 F720 X148.781 Y139.788 E37.98265
G0 F9000 X148.781 Y140.283
G1 F720 X148.357 Y140.707 E37.98859
G0 F9000 X148.357 Y142.498
G0 X146.581 Y142.498
G0 X146.581 Y142.498
G0 X146.581 Y142.338
; TYPE:SUPPORT
G1 F720 X151.692 Y147.449 E38.06017
G0 F9000 X151.673 Y147.29
G0 X152.947 Y144.621
G0 X152.947 Y144.621
G0 X153.106 Y144.621
G1 F720 X150.823 Y142.338 E38.09214
G0 F9000 X150.823 Y142.498
G0 X147.56 Y147.401
G0 X147.56 Y147.401
G0 X147.56 Y147.56
G1 F720 X144.686 Y144.686 E38.13239
G0 F9000 X159.486 Y142.515
G1 F720 X160.531 Y143.561 E38.14703
G0 F9000 X160.531 Y143.401
G0 X162.347 Y141.293
G0 X162.347 Y141.293
G0 X162.506 Y141.293
G1 F720 X159.486 Y138.273 E38.18933
G0 F9000 X159.647 Y138.273
G0 X162.347 Y137.05
G0 X162.347 Y137.05
G0 X162.505 Y137.05
G1 F720 X159.486 Y134.03 E38.23162
G0 F9000 X159.647 Y134.03
G0 X162.139 Y132.601
G0 X162.139 Y132.601
G0 X162.139 Y132.441
G1 F720 X162.505 Y132.807 E38.23674
G0 F9000 X153.106 Y131.893
G1 F720 X148.653 Y127.44 E38.29911
G0 F9000 X148.653 Y127.601
G0 X144.847 Y127.777
G0 X144.847 Y127.777
G0 X144.686 Y127.715
G1 F720 X149.632 Y132.662 E38.36838
G0 F9000 X149.632 Y132.503
G0 X145.391 Y132.503
G0 X145.391 Y132.503
G0 X145.391 Y132.663
G1 F720 X144.686 Y131.958 E38.37825
G0 F9000 X138.305 Y134.063
G1 F720 X138.083 Y133.841 E38.38136
G0 F9000 X138.083 Y134.001
G0 X135.647 Y135.486
G0 X135.647 Y135.486
G0 X135.486 Y135.486
G1 F720 X138.306 Y138.306 E38.42086
G0 F9000 X138.147 Y138.306
G0 X135.647 Y139.729
G0 X135.647 Y139.729
G0 X135.487 Y139.729
G1 F720 X138.306 Y142.549 E38.46034
; LAYER:4
G0 F9000 X145.057 Y141.226 Z1.05
; TYPE:WALL-INNER
G1 F720 X145.057 Y133.775 E38.53413
G1 X152.944 Y133.775 E38.61224
G1 X152.944 Y141.226 E38.68602
G1 X145.057 Y141.226 E38.76413
G0 F9000 X145.407 Y140.876
G1 F720 X145.407 Y134.125 E38.83098
G1 X152.594 Y134.125 E38.90216
G1 X152.594 Y140.876 E38.96901
G1 X145.407 Y140.876 E39.04018
G0 F9000 X144.707 Y141.576
; TYPE:WALL-OUTER
G1 F600 X144.707 Y133.425 E39.1209
G1 X153.294 Y133.425 E39.20594
G1 X153.294 Y141.576 E39.28666
G1 X144.707 Y141.576 E39.37169
G0 F9000 X145.71 Y140.76
; TYPE:FILL
G1 F720 X145.521 Y140.571 E39.37434
G0 F9000 X145.521 Y140.076
G1 F720 X146.205 Y140.76 E39.38392
G0 F9000 X146.7 Y140.76
G1 F720 X145.521 Y139.581 E39.40043
G0 F9000 X145.521 Y139.086
G1 F720 X147.195 Y140.76 E39.42388
G0 F9000 X147.69 Y140.76
G1 F720 X145.521 Y138.591 E39.45425
G0 F9000 X145.521 Y138.096
G1 F720 X148.175 Y140.751 E39.49143
G0 F9000 X148.175 Y140.256
G1 F720 X145.521 Y137.601 E39.52861
G0 F9000 X145.521 Y137.106
G1 F720 X148.175 Y139.761 E39.56578
G0 F9000 X148.175 Y139.266
G1 F720 X145.521 Y136.611 E39.60296
G0 F9000 X145.521 Y136.116
G1 F720 X148.175 Y138.771 E39.64013
G0 F9000 X148.175 Y138.276
G1 F720 X145.521 Y135.621 E39.67731
G0 F9000 X145.521 Y135.126
G1 F720 X148.175 Y137.781 E39.71449
G0 F9000 X147.704 Y137.805
G1 F720 X150.294 Y140.394 E39.75075
G0 F9000 X150.165 Y140.76
G1 F720 X149.824 Y140.42 E39.75552
G0 F9000 X149.824 Y139.925
G1 F720 X150.66 Y140.76 E39.76722
G0 F9000 X151.155 Y140.76
G1 F720 X149.824 Y139.43 E39.78586
G0 F9000 X149.824 Y138.935
G1 F720 X151.65 Y140.76 E39.81142
G0 F9000 X152.145 Y140.76
G1 F720 X149.824 Y138.44 E39.84392
G0 F9000 X149.824 Y137.945
G1 F720 X152.477 Y140.598 E39.88107
G0 F9000 X152.477 Y140.103
G1 F720 X149.824 Y137.45 E39.91823
G0 F9000 X149.824 Y136.955
G1 F720 X152.477 Y139.608 E39.95538
G0 F9000 X152.477 Y139.113
G1 F720 X149.824 Y136.46 E39.99254
G0 F9000 X149.824 Y135.965
G1 F720 X152.477 Y138.618 E40.02969
G0 F9000 X152.477 Y138.123
G1 F720 X149.824 Y135.47 E40.06685
G0 F9000 X150.294 Y135.444
G1 F720 X149.089 Y134.239 E40.08373
G0 F9000 X148.827 Y134.239
G1 F720 X147.705 Y138.426 E40.12665
G0 F9000 X147.705 Y137.972
G1 F720 X150.294 Y137.278 E40.1532
G0 F9000 X148.175 Y137.286
G1 F720 X145.521 Y134.631 E40.19037
G0 F9000 X145.624 Y134.239
G1 F720 X148.175 Y136.791 E40.22611
G0 F9000 X148.175 Y136.296
G1 F720 X146.119 Y134.239 E40.25491
G0 F9000 X146.614 Y134.239
G1 F720 X148.175 Y135.801 E40.27678
G0 F9000 X148.175 Y135.306
G1 F720 X147.109 Y134.239 E40.29171
G0 F9000 X147.604 Y134.239
G1 F720 X148.175 Y134.811 E40.29972
G0 F9000 X148.175 Y134.316
G1 F720 X148.105 Y134.239 E40.30078
G1 X147.705 Y134.348 E40.30489
G0 F9000 X149.824 Y134.48
G1 F720 X152.477 Y137.133 E40.34205
G0 F9000 X152.477 Y136.638
G1 F720 X150.079 Y134.239 E40.37564
G0 F9000 X150.574 Y134.239
G1 F720 X152.477 Y136.143 E40.40229
G0 F9000 X152.477 Y135.648
G1 F720 X151.069 Y134.239 E40.42202
G0 F9000 X151.564 Y134.239
G1 F720 X152.477 Y135.153 E40.43481
G0 F9000 X152.477 Y134.658
G1 F720 X152.059 Y134.239 E40.44068
G0 F9000 X149.824 Y134.975
G1 F720 X152.477 Y137.628 E40.47783
G0 F9000 X138.306 Y138.306
; TYPE:SUPPORT
G1 F720 X135.486 Y135.486 E40.51732
G0 F9000 X135.647 Y135.486
G0 X138.083 Y134.001
G0 X138.083 Y134.001
G0 X138.083 Y133.841
G1 F720 X138.305 Y134.063 E40.52043
G0 F9000 X138.147 Y134.063
G0 X135.647 Y139.729
G0 X135.647 Y139.729
G0 X135.487 Y139.729
G1 F720 X138.306 Y142.549 E40.55992
G0 F9000 X144.686 Y144.686
G1 F720 X147.56 Y147.56 E40.60017
G0 F9000 X147.56 Y147.401
G0 X151.673 Y147.29
G0 X151.673 Y147.29
G0 X151.692 Y147.449
G1 F720 X146.633 Y142.39 E40.67102
G0 F9000 X146.633 Y142.551
G0 X150.876 Y142.551
G0 X150.876 Y142.551
G0 X150.876 Y142.39
G1 F720 X153.106 Y144.621 E40.70226
G0 F9000 X149.58 Y132.61
G1 F720 X144.686 Y127.715 E40.77081
G0 F9000 X144.847 Y127.777
G0 X148.653 Y127.601
G0 X148.653 Y127.601
G0 X148.653 Y127.44
G1 F720 X153.106 Y131.893 E40.83317
G0 F9000 X152.947 Y131.893
G0 X145.338 Y132.45
G0 X145.338 Y132.45
G0 X145.338 Y132.61
G1 F720 X144.686 Y131.958 E40.8423
G0 F9000 X159.486 Y134.03
G1 F720 X162.505 Y137.05 E40.88459
G0 F9000 X162.347 Y137.05
G0 X159.647 Y138.273
G0 X159.647 Y138.273
G0 X159.486 Y138.273
G1 F720 X162.506 Y141.293 E40.92688
G0 F9000 X162.347 Y141.293
G0 X160.531 Y143.401
G0 X160.531 Y143.401
G0 X160.531 Y143.561
G1 F720 X159.486 Y142.515 E40.94153
G0 F9000 X159.647 Y142.515
G0 X162.347 Y132.807
G0 X162.347 Y132.807
G0 X162.505 Y132.807
G1 F720 X162.139 Y132.441 E40.94665
; LAYER:5
G0 F9000 X153.243 Y133.722 Z1.25
; TYPE:WALL-INNER
G1 F720 X153.243 Y141.279 E41.02149
G1 X144.758 Y141.279 E41.10552
G1 X144.758 Y133.722 E41.18035
G1 X153.243 Y133.722 E41.26438
G0 F9000 X152.893 Y134.072
G1 F720 X152.893 Y140.929 E41.33228
G1 X145.108 Y140.929 E41.40938
G1 X145.108 Y134.072 E41.47728
G1 X152.893 Y134.072 E41.55438
G0 F9000 X153.593 Y133.372
; TYPE:WALL-OUTER
G1 F600 X153.593 Y141.629 E41.63615
G1 X144.408 Y141.629 E41.72711
G1 X144.408 Y133.372 E41.80887
G1 X153.593 Y133.372 E41.89983
G0 F9000 X152.776 Y134.308
; TYPE:FILL
G1 F720 X150.829 Y136.255 E41.9271
G0 F9000 X150.829 Y135.76
G1 F720 X152.403 Y134.186 E41.94914
G0 F9000 X151.908 Y134.186
G1 F720 X150.829 Y135.265 E41.96426
G0 F9000 X150.829 Y134.771
G1 F720 X151.413 Y134.186 E41.97244
G0 F9000 X150.918 Y134.186
G1 F720 X150.829 Y134.276 E41.9737
G0 F9000 X149.036 Y134.186
G1 F720 X151.298 Y136.449 E42.00538
G0 F9000 X150.829 Y136.75
G1 F720 X152.776 Y134.803 E42.03265
G0 F9000 X152.776 Y135.298
G1 F720 X150.829 Y137.245 E42.05992
G0 F9000 X150.829 Y137.74
G1 F720 X152.776 Y135.793 E42.08718
G0 F9000 X152.776 Y136.288
G1 F720 X150.829 Y138.235 E42.11445
G0 F9000 X150.829 Y138.73
G1 F720 X152.776 Y136.783 E42.14172
G0 F9000 X152.776 Y137.278
G1 F720 X150.829 Y139.225 E42.16899
G0 F9000 X150.829 Y139.72
G1 F720 X152.776 Y137.773 E42.19625
G0 F9000 X152.776 Y138.268
G1 F720 X150.829 Y140.215 E42.22352
G0 F9000 X150.829 Y140.71
G1 F720 X152.776 Y138.763 E42.25079
G0 F9000 X152.776 Y139.258
G1 F720 X151.221 Y140.813 E42.27257
G0 F9000 X151.299 Y140.632
G1 F720 X150.623 Y140.813 E42.2795
G0 F9000 X150.689 Y140.813
G1 F720 X151.299 Y138.537 E42.30283
G0 F9000 X151.3 Y137.009
G1 F720 X146.699 Y138.241 E42.35
G0 F9000 X147.169 Y138.431
G1 F720 X145.222 Y140.378 E42.37727
G0 F9000 X145.281 Y140.813
G1 F720 X147.169 Y138.925 E42.40371
G0 F9000 X147.169 Y139.42
G1 F720 X145.776 Y140.813 E42.42322
G0 F9000 X146.271 Y140.813
G1 F720 X147.169 Y139.915 E42.43579
G0 F9000 X147.169 Y140.41
G1 F720 X146.766 Y140.813 E42.44144
G0 F9000 X147.065 Y140.813
G1 F720 X148.841 Y134.186 E42.50938
G0 F9000 X148.31 Y134.186
G1 F720 X146.699 Y134.618 E42.5259
G0 F9000 X146.463 Y134.186
G1 F720 X145.222 Y135.428 E42.54329
G0 F9000 X145.222 Y135.923
G1 F720 X146.958 Y134.186 E42.56761
G0 F9000 X147.169 Y134.471
G1 F720 X145.222 Y136.418 E42.59487
G0 F9000 X145.222 Y136.913
G1 F720 X147.169 Y134.966 E42.62214
G0 F9000 X147.169 Y135.461
G1 F720 X145.222 Y137.408 E42.64941
G0 F9000 X145.222 Y137.903
G1 F720 X147.169 Y135.956 E42.67668
G0 F9000 X147.169 Y136.451
G1 F720 X145.222 Y138.398 E42.70394
G0 F9000 X145.222 Y138.893
G1 F720 X147.169 Y136.946 E42.73121
G0 F9000 X146.699 Y136.8
G1 F720 X150.713 Y140.813 E42.78742
G0 F9000 X151.716 Y140.813
G1 F720 X152.776 Y139.753 E42.80227
G0 F9000 X152.776 Y140.248
G1 F720 X152.211 Y140.813 E42.81018
G0 F9000 X152.706 Y140.813
G1 F720 X152.776 Y140.743 E42.81116
G0 F9000 X147.169 Y137.936
G1 F720 X145.222 Y139.883 E42.83843
G0 F9000 X145.222 Y139.388
G1 F720 X147.169 Y137.441 E42.86569
G0 F9000 X145.222 Y134.933
G1 F720 X145.968 Y134.186 E42.87615
G0 F9000 X145.473 Y134.186
G1 F720 X145.222 Y134.438 E42.87967
G0 F9000 X159.486 Y134.03
; TYPE:SUPPORT
G1 F720 X162.505 Y137.05 E42.92196
G0 F9000 X162.347 Y137.05
G0 X159.647 Y138.273
G0 X159.647 Y138.273
G0 X159.486 Y138.273
G1 F720 X162.506 Y141.293 E42.96425
G0 F9000 X162.347 Y141.293
G0 X160.531 Y143.401
G0 X160.531 Y143.401
G0 X160.531 Y143.561
G1 F720 X159.486 Y142.515 E42.9789
G0 F9000 X159.647 Y142.515
G0 X162.347 Y132.807
G0 X162.347 Y132.807
G0 X162.505 Y132.807
G1 F720 X162.139 Y132.441 E42.98402
G0 F9000 X153.106 Y131.893
G1 F720 X148.653 Y127.44 E43.04638
G0 F9000 X148.653 Y127.601
G0 X144.847 Y127.777
G0 X144.847 Y127.777
G0 X144.686 Y127.715
G1 F720 X149.526 Y132.556 E43.11418
G0 F9000 X149.526 Y132.397
G0 X145.284 Y132.397
G0 X145.284 Y132.397
G0 X145.284 Y132.557
G1 F720 X144.686 Y131.958 E43.12256
G0 F9000 X146.686 Y142.443
G1 F720 X151.692 Y147.449 E43.19267
G0 F9000 X151.673 Y147.29
G0 X152.947 Y144.621
G0 X152.947 Y144.621
G0 X153.106 Y144.621
G1 F720 X150.929 Y142.444 E43.22315
G0 F9000 X150.929 Y142.604
G0 X147.56 Y147.401
G0 X147.56 Y147.401
G0 X147.56 Y147.56
G1 F720 X144.686 Y144.686 E43.26341
G0 F9000 X138.306 Y142.549
G1 F720 X135.487 Y139.729 E43.30289
G0 F9000 X135.647 Y139.729
G0 X138.147 Y138.306
G0 X138.147 Y138.306
G0 X138.306 Y138.306
G1 F720 X135.486 Y135.486 E43.34239
G0 F9000 X135.647 Y135.486
G0 X138.083 Y134.001
G0 X138.083 Y134.001
G0 X138.083 Y133.841
G1 F720 X138.305 Y134.063 E43.34549
; LAYER:6
G0 F9000 X144.458 Y133.669 Z1.45
; TYPE:WALL-INNER
G1 F720 X153.543 Y133.669 E43.43546
G1 X153.543 Y141.332 E43.51135
G1 X144.458 Y141.332 E43.60132
G1 X144.458 Y133.669 E43.6772
G0 F9000 X144.808 Y134.019
G1 F720 X153.193 Y134.019 E43.76024
G1 X153.193 Y140.982 E43.8292
G1 X144.808 Y140.982 E43.91223
G1 X144.808 Y134.019 E43.98119
G0 F9000 X144.108 Y133.319
; TYPE:WALL-OUTER
G1 F600 X153.893 Y133.319 E44.07809
G1 X153.893 Y141.682 E44.16091
G1 X144.108 Y141.682 E44.25781
G1 X144.108 Y133.319 E44.34063
G0 F9000 X145.024 Y134.134
; TYPE:FILL
G1 F720 X146.164 Y135.275 E44.3566
G0 F9000 X146.164 Y135.77
G1 F720 X144.922 Y134.527 E44.374
G0 F9000 X144.922 Y135.022
G1 F720 X146.164 Y136.265 E44.3914
G0 F9000 X146.164 Y136.76
G1 F720 X144.922 Y135.517 E44.4088
G0 F9000 X144.922 Y136.012
G1 F720 X146.164 Y137.255 E44.4262
G0 F9000 X146.164 Y137.75
G1 F720 X144.922 Y136.507 E44.4436
G0 F9000 X144.922 Y137.002
G1 F720 X146.164 Y138.245 E44.461
G0 F9000 X146.164 Y138.74
G1 F720 X144.922 Y137.497 E44.47841
G0 F9000 X144.922 Y137.993
G1 F720 X146.164 Y139.234 E44.49579
G0 F9000 X146.164 Y139.729
G1 F720 X144.922 Y138.488 E44.51318
G0 F9000 X144.922 Y138.983
G1 F720 X146.164 Y140.224 E44.53057
G0 F9000 X146.164 Y140.719
G1 F720 X144.922 Y139.478 E44.54795
G0 F9000 X144.922 Y139.973
G1 F720 X145.816 Y140.866 E44.56047
G0 F9000 X145.816 Y140.866
G1 F720 X145.507 Y140.804 E44.56218
G1 X144.922 Y140.468 E44.56886
G0 F9000 X145.694 Y138.511
G1 F720 X152.305 Y136.739 E44.63664
G0 F9000 X151.835 Y136.986
G1 F720 X153.077 Y138.228 E44.65403
G0 F9000 X153.077 Y137.733
G1 F720 X151.835 Y136.491 E44.67143
G0 F9000 X151.835 Y135.996
G1 F720 X153.077 Y137.238 E44.68882
G0 F9000 X153.077 Y136.743
G1 F720 X151.835 Y135.501 E44.70622
G0 F9000 X151.835 Y135.006
G1 F720 X153.077 Y136.248 E44.72361
G0 F9000 X153.077 Y135.753
G1 F720 X151.835 Y134.511 E44.741
G0 F9000 X151.953 Y134.133
G1 F720 X153.077 Y135.258 E44.75675
G0 F9000 X153.077 Y134.763
G1 F720 X152.447 Y134.133 E44.76558
G0 F9000 X152.942 Y134.133
G1 F720 X153.077 Y134.268 E44.76747
G0 F9000 X152.305 Y134.782
G1 F720 X150.675 Y140.866 E44.82984
G0 F9000 X150.766 Y140.866
G1 F720 X145.693 Y135.794 E44.90088
G0 F9000 X145.694 Y134.887
G1 F720 X148.507 Y134.133 E44.92972
G0 F9000 X148.855 Y134.133
G1 F720 X147.051 Y140.866 E44.99875
G0 F9000 X150.427 Y140.866
G1 F720 X152.305 Y140.363 E45.018
G0 F9000 X151.835 Y140.451
G1 F720 X152.251 Y140.866 E45.02382
G0 F9000 X152.746 Y140.866
G1 F720 X151.835 Y139.956 E45.03657
G0 F9000 X151.835 Y139.461
G1 F720 X153.077 Y140.702 E45.05396
G0 F9000 X153.077 Y140.207
G1 F720 X151.835 Y138.966 E45.07135
G0 F9000 X151.835 Y138.471
G1 F720 X153.077 Y139.712 E45.08874
G0 F9000 X153.077 Y139.218
G1 F720 X151.835 Y137.976 E45.10613
G0 F9000 X151.835 Y137.481
G1 F720 X153.077 Y138.723 E45.12352
G0 F9000 X152.305 Y137.455
G1 F720 X148.983 Y134.133 E45.17005
G0 F9000 X146.164 Y134.285
G1 F720 X146.013 Y134.133 E45.17217
G0 F9000 X145.519 Y134.134
G1 F720 X146.164 Y134.78 E45.18121
G0 F9000 X138.305 Y134.063
; TYPE:SUPPORT
G1 F720 X138.083 Y133.841 E45.18432
G0 F9000 X138.083 Y134.001
G0 X135.647 Y135.486
G0 X135.647 Y135.486
G0 X135.486 Y135.486
G1 F720 X138.306 Y138.306 E45.22381
G0 F9000 X138.147 Y138.306
G0 X135.647 Y139.729
G0 X135.647 Y139.729
G0 X135.487 Y139.729
G1 F720 X138.306 Y142.549 E45.2633
G0 F9000 X145.231 Y132.504
G1 F720 X144.686 Y131.958 E45.27094
G0 F9000 X144.847 Y131.958
G0 X144.847 Y127.777
G0 X144.847 Y127.777
G0 X144.686 Y127.715
G1 F720 X149.474 Y132.504 E45.338
G0 F9000 X149.474 Y132.344
G0 X152.947 Y131.893
G0 X152.947 Y131.893
G0 X153.106 Y131.893
G1 F720 X148.653 Y127.44 E45.40037
G0 F9000 X146.739 Y142.496
G1 F720 X151.692 Y147.449 E45.46973
G0 F9000 X151.673 Y147.29
G0 X152.947 Y144.621
G0 X152.947 Y144.621
G0 X153.106 Y144.621
G1 F720 X150.982 Y142.496 E45.49949
G0 F9000 X150.982 Y142.657
G0 X147.56 Y147.401
G0 X147.56 Y147.401
G0 X147.56 Y147.56
G1 F720 X144.686 Y144.686 E45.53974
G0 F9000 X159.486 Y142.515
G1 F720 X160.531 Y143.561 E45.55438
G0 F9000 X160.531 Y143.401
G0 X162.347 Y141.293
G0 X162.347 Y141.293
G0 X162.506 Y141.293
G1 F720 X159.486 Y138.273 E45.59667
G0 F9000 X159.647 Y138.273
G0 X162.347 Y137.05
G0 X162.347 Y137.05
G0 X162.505 Y137.05
G1 F720 X159.486 Y134.03 E45.63896
G0 F9000 X159.647 Y134.03
G0 X162.139 Y132.601
G0 X162.139 Y132.601
G0 X162.139 Y132.441
G1 F720 X162.505 Y132.807 E45.64409
; LAYER:7
G0 F9000 X153.842 Y133.616 Z1.65
; TYPE:WALL-INNER
G1 F720 X153.842 Y141.385 E45.72102
G1 X144.159 Y141.385 E45.81691
G1 X144.159 Y133.616 E45.89385
G1 X153.842 Y133.616 E45.98974
G0 F9000 X153.492 Y133.966
G1 F720 X153.492 Y141.035 E46.05974
G1 X144.509 Y141.035 E46.1487
G1 X144.509 Y133.966 E46.21871
G1 X153.492 Y133.966 E46.30767
G0 F9000 X154.192 Y133.266
; TYPE:WALL-OUTER
G1 F600 X154.192 Y141.735 E46.39153
G1 X143.809 Y141.735 E46.49436
G1 X143.809 Y133.266 E46.57822
G1 X154.192 Y133.266 E46.68105
G0 F9000 X153.376 Y134.203
; TYPE:FILL
G1 F720 X152.533 Y135.046 E46.69285
G0 F9000 X152.533 Y134.551
G1 F720 X153.004 Y134.08 E46.69945
G0 F9000 X152.493 Y134.08
G1 F720 X150.66 Y140.919 E46.76957
G0 F9000 X150.819 Y140.92
G1 F720 X144.623 Y134.724 E46.85634
G0 F9000 X144.623 Y134.541
G1 F720 X145.084 Y134.08 E46.8628
G0 F9000 X145.246 Y134.08
G1 F720 X144.623 Y136.406 E46.88664
G0 F9000 X144.623 Y136.521
G1 F720 X145.466 Y135.678 E46.89845
G0 F9000 X145.466 Y135.183
G1 F720 X144.623 Y136.026 E46.91026
G0 F9000 X144.623 Y135.531
G1 F720 X145.466 Y134.688 E46.92206
G0 F9000 X145.466 Y134.194
G1 F720 X144.623 Y135.036 E46.93386
G0 F9000 X144.623 Y135.174
G1 F720 X148.706 Y134.08 E46.97572
G0 F9000 X148.87 Y134.08
G1 F720 X147.037 Y140.918 E47.04583
G0 F9000 X145.869 Y140.92
G1 F720 X144.623 Y139.674 E47.06328
G0 F9000 X144.623 Y139.491
G1 F720 X145.466 Y138.648 E47.07508
G0 F9000 X145.466 Y138.153
G1 F720 X144.623 Y138.996 E47.08689
G0 F9000 X144.623 Y138.798
G1 F720 X153.376 Y136.452 E47.17663
G0 F9000 X153.376 Y136.678
G1 F720 X152.533 Y137.521 E47.18844
G0 F9000 X152.533 Y137.026
G1 F720 X153.376 Y136.183 E47.20024
G0 F9000 X153.376 Y135.688
G1 F720 X152.533 Y136.531 E47.21205
G0 F9000 X152.533 Y136.036
G1 F720 X153.376 Y135.193 E47.22386
G0 F9000 X153.376 Y134.698
G1 F720 X152.533 Y135.541 E47.23566
G0 F9000 X153.376 Y137.173
G1 F720 X152.533 Y138.016 E47.24747
G0 F9000 X152.533 Y138.511
G1 F720 X153.376 Y137.668 E47.25927
G0 F9000 X153.376 Y138.163
G1 F720 X152.533 Y139.006 E47.27108
G0 F9000 X152.533 Y139.501
G1 F720 X153.376 Y138.658 E47.28289
G0 F9000 X153.376 Y138.527
G1 F720 X148.93 Y134.08 E47.34516
G0 F9000 X145.466 Y136.173
G1 F720 X144.623 Y137.016 E47.35696
G0 F9000 X144.623 Y137.511
G1 F720 X145.466 Y136.668 E47.36877
G0 F9000 X145.466 Y137.163
G1 F720 X144.623 Y138.006 E47.38058
G0 F9000 X144.623 Y138.501
G1 F720 X145.466 Y137.658 E47.39238
G0 F9000 X145.466 Y139.143
G1 F720 X144.623 Y139.986 E47.40419
G0 F9000 X144.623 Y140.481
G1 F720 X145.466 Y139.638 E47.416
G0 F9000 X145.466 Y140.133
G1 F720 X144.68 Y140.92 E47.42701
G0 F9000 X145.175 Y140.92
G1 F720 X145.466 Y140.628 E47.43109
G0 F9000 X150.228 Y140.919
G1 F720 X153.376 Y140.076 E47.46337
G0 F9000 X153.376 Y140.143
G1 F720 X152.6 Y140.92 E47.47424
G0 F9000 X152.533 Y140.491
G1 F720 X153.376 Y139.648 E47.48605
G0 F9000 X153.376 Y139.153
G1 F720 X152.533 Y139.996 E47.49785
G0 F9000 X153.376 Y140.638
G1 F720 X153.094 Y140.92 E47.5018
G0 F9000 X159.486 Y142.515
; TYPE:SUPPORT
G1 F720 X160.531 Y143.561 E47.51644
G0 F9000 X160.531 Y143.401
G0 X162.347 Y141.293
G0 X162.347 Y141.293
G0 X162.506 Y141.293
G1 F720 X159.486 Y138.273 E47.55874
G0 F9000 X159.647 Y138.273
G0 X162.347 Y137.05
G0 X162.347 Y137.05
G0 X162.505 Y137.05
G1 F720 X159.486 Y134.03 E47.60103
G0 F9000 X159.647 Y134.03
G0 X162.139 Y132.601
G0 X162.139 Y132.601
G0 X162.139 Y132.441
G1 F720 X162.505 Y132.807 E47.60615
G0 F9000 X153.105 Y131.892
G1 F720 X148.653 Y127.44 E47.6685
G0 F9000 X148.653 Y127.601
G0 X144.847 Y127.777
G0 X144.847 Y127.777
G0 X144.686 Y127.715
G1 F720 X149.421 Y132.45 E47.73482
G0 F9000 X149.421 Y132.291
G0 X145.178 Y132.291
G0 X145.178 Y132.291
G0 X145.178 Y132.45
G1 F720 X144.686 Y131.958 E47.74171
G0 F9000 X146.792 Y142.549
G1 F720 X151.692 Y147.449 E47.81033
G0 F9000 X151.673 Y147.29
G0 X152.947 Y144.621
G0 X152.947 Y144.621
G0 X153.106 Y144.621
G1 F720 X151.035 Y142.55 E47.83934
G0 F9000 X151.035 Y142.71
G0 X147.56 Y147.401
G0 X147.56 Y147.401
G0 X147.56 Y147.56
G1 F720 X144.686 Y144.686 E47.87959
G0 F9000 X138.306 Y142.549
G1 F720 X135.487 Y139.729 E47.91907
G0 F9000 X135.647 Y139.729
G0 X138.147 Y138.306
G0 X138.147 Y138.306
G0 X138.306 Y138.306
G1 F720 X135.486 Y135.486 E47.95857
G0 F9000 X135.647 Y135.486
G0 X138.083 Y134.001
G0 X138.083 Y134.001
G0 X138.083 Y133.841
G1 F720 X138.305 Y134.063 E47.96168
; LAYER:8
G0 F9000 X143.86 Y133.563 Z1.85
; TYPE:WALL-INNER
G1 F720 X154.141 Y133.563 E48.06349
G1 X154.141 Y141.438 E48.14147
G1 X143.86 Y141.438 E48.24329
G1 X143.86 Y133.563 E48.32127
G0 F9000 X144.21 Y133.913
G1 F720 X153.791 Y133.913 E48.41615
G1 X153.791 Y141.088 E48.48721
G1 X144.21 Y141.088 E48.58209
G1 X144.21 Y133.913 E48.65314
G0 F9000 X143.51 Y133.213
; TYPE:WALL-OUTER
G1 F600 X154.491 Y133.213 E48.76188
G1 X154.491 Y141.788 E48.8468
G1 X143.51 Y141.788 E48.95555
G1 X143.51 Y133.213 E49.04047
G0 F9000 X144.422 Y134.027
; TYPE:FILL
G1 F720 X145.167 Y134.773 E49.05091
G0 F9000 X145.167 Y135.268
G1 F720 X144.324 Y134.425 E49.06271
G0 F9000 X144.324 Y134.425
G1 F720 X148.121 Y138.222 E49.11589
G0 F9000 X148.122 Y137.86
G1 F720 X144.324 Y138.878 E49.15483
G0 F9000 X144.324 Y138.88
G1 F720 X145.167 Y139.722 E49.16663
G0 F9000 X145.167 Y139.227
G1 F720 X144.324 Y138.385 E49.17843
G0 F9000 X144.324 Y137.89
G1 F720 X145.167 Y138.732 E49.19023
G0 F9000 X145.167 Y138.237
G1 F720 X144.324 Y137.395 E49.20202
G0 F9000 X144.324 Y137.521
G1 F720 X145.26 Y134.028 E49.23784
G0 F9000 X145.167 Y134.278
G1 F720 X144.917 Y134.027 E49.24134
G0 F9000 X144.324 Y134.92
G1 F720 X145.167 Y135.763 E49.25315
G0 F9000 X145.167 Y136.258
G1 F720 X144.324 Y135.415 E49.26496
G0 F9000 X144.324 Y135.254
G1 F720 X148.122 Y134.237 E49.30389
G0 F9000 X147.887 Y134.027
G1 F720 X150.346 Y136.487 E49.33834
G0 F9000 X150.346 Y136.982
G1 F720 X147.652 Y134.288 E49.37607
G0 F9000 X147.652 Y134.783
G1 F720 X150.346 Y137.477 E49.4138
G0 F9000 X149.876 Y137.39
G1 F720 X153.675 Y136.372 E49.45275
G0 F9000 X153.675 Y136.351
G1 F720 X152.832 Y135.508 E49.46455
G0 F9000 X152.832 Y135.013
G1 F720 X153.675 Y135.856 E49.47636
G0 F9000 X153.675 Y135.361
G1 F720 X152.832 Y134.518 E49.48816
G0 F9000 X152.836 Y134.027
G1 F720 X153.675 Y134.866 E49.49991
G0 F9000 X153.675 Y134.371
G1 F720 X153.331 Y134.027 E49.50473
G0 F9000 X152.507 Y134.027
G1 F720 X150.646 Y140.972 E49.57593
G0 F9000 X150.872 Y140.973
G1 F720 X149.876 Y139.977 E49.58988
G0 F9000 X150.346 Y139.951
G1 F720 X147.652 Y137.257 E49.62761
G0 F9000 X147.652 Y136.762
G1 F720 X150.346 Y139.457 E49.66535
G0 F9000 X150.346 Y138.962
G1 F720 X147.652 Y136.267 E49.70309
G0 F9000 X147.652 Y135.772
G1 F720 X150.346 Y138.467 E49.74082
G0 F9000 X150.346 Y137.972
G1 F720 X147.652 Y135.278 E49.77855
G0 F9000 X148.382 Y134.027
G1 F720 X150.346 Y135.992 E49.80606
G0 F9000 X150.346 Y135.497
G1 F720 X148.877 Y134.027 E49.82664
G0 F9000 X149.372 Y134.027
G1 F720 X150.346 Y135.002 E49.84029
G0 F9000 X149.876 Y135.026
G1 F720 X153.675 Y138.826 E49.8935
G0 F9000 X153.675 Y138.826
G1 F720 X152.832 Y137.983 E49.90531
G0 F9000 X152.832 Y137.488
G1 F720 X153.675 Y138.331 E49.91712
G0 F9000 X153.675 Y137.836
G1 F720 X152.832 Y136.993 E49.92892
G0 F9000 X152.832 Y136.498
G1 F720 X153.675 Y137.341 E49.94073
G0 F9000 X153.675 Y136.846
G1 F720 X152.832 Y136.003 E49.95253
G0 F9000 X152.832 Y138.478
G1 F720 X153.675 Y139.321 E49.96434
G0 F9000 X153.675 Y139.816
G1 F720 X152.832 Y138.973 E49.97615
G0 F9000 X152.832 Y139.468
G1 F720 X153.675 Y140.311 E49.98795
G0 F9000 X153.676 Y139.995
G1 F720 X150.03 Y140.972 E50.02533
G0 F9000 X149.882 Y140.973
G1 F720 X147.652 Y138.742 E50.05657
G0 F9000 X147.652 Y138.247
G1 F720 X150.346 Y140.941 E50.0943
G0 F9000 X150.346 Y140.446
G1 F720 X147.652 Y137.752 E50.13203
G0 F9000 X148.122 Y136.87
G1 F720 X147.023 Y140.972 E50.17408
G0 F9000 X147.652 Y140.722
G1 F720 X147.902 Y140.973 E50.17759
G0 F9000 X148.397 Y140.973
G1 F720 X147.652 Y140.227 E50.18803
G0 F9000 X147.652 Y139.732
G1 F720 X148.892 Y140.973 E50.20541
G0 F9000 X149.387 Y140.973
G1 F720 X147.652 Y139.237 E50.22971
G0 F9000 X145.922 Y140.973
G1 F720 X144.324 Y139.374 E50.2521
G0 F9000 X144.324 Y139.374
G1 F720 X145.167 Y140.217 E50.2639
G0 F9000 X145.167 Y140.712
G1 F720 X144.324 Y139.869 E50.27571
G0 F9000 X144.324 Y140.364
G1 F720 X144.932 Y140.973 E50.28423
G0 F9000 X144.437 Y140.973
G1 F720 X144.324 Y140.859 E50.28582
G0 F9000 X145.167 Y137.742
G1 F720 X144.324 Y136.9 E50.29762
G0 F9000 X144.324 Y136.405
G1 F720 X145.167 Y137.248 E50.30943
G0 F9000 X145.167 Y136.753
G1 F720 X144.324 Y135.91 E50.32123
G0 F9000 X149.867 Y134.027
G1 F720 X150.346 Y134.507 E50.32795
G0 F9000 X152.832 Y139.963
G1 F720 X153.675 Y140.806 E50.33975
G0 F9000 X153.347 Y140.973
G1 F720 X152.832 Y140.458 E50.34697
G0 F9000 X152.832 Y140.953
G1 F720 X152.852 Y140.973 E50.34725
G0 F9000 X138.306 Y142.549
; TYPE:SUPPORT
G1 F720 X135.487 Y139.729 E50.38673
G0 F9000 X135.647 Y139.729
G0 X138.147 Y138.306
G0 X138.147 Y138.306
G0 X138.306 Y138.306
G1 F720 X135.486 Y135.486 E50.42623
G0 F9000 X135.647 Y135.486
G0 X138.083 Y134.001
G0 X138.083 Y134.001
G0 X138.083 Y133.841
G1 F720 X138.305 Y134.063 E50.42934
G0 F9000 X144.686 Y131.958
G1 F720 X145.125 Y132.397 E50.43549
G0 F9000 X145.125 Y132.238
G0 X149.368 Y132.238
G0 X149.368 Y132.238
G0 X149.368 Y132.397
G1 F720 X144.686 Y127.715 E50.50106
G0 F9000 X144.847 Y127.777
G0 X148.653 Y127.601
G0 X148.653 Y127.601
G0 X148.653 Y127.44
G1 F720 X153.106 Y131.893 E50.56342
G0 F9000 X151.088 Y142.602
G1 F720 X153.106 Y144.621 E50.59169
G0 F9000 X152.947 Y144.621
G0 X151.673 Y147.29
G0 X151.673 Y147.29
G0 X151.692 Y147.449
G1 F720 X146.845 Y142.602 E50.65957
G0 F9000 X146.845 Y142.763
G0 X144.847 Y144.686
G0 X144.847 Y144.686
G0 X144.686 Y144.686
G1 F720 X147.56 Y147.56 E50.69982
G0 F9000 X159.486 Y142.515
G1 F720 X160.531 Y143.561 E50.71446
G0 F9000 X160.531 Y143.401
G0 X162.347 Y141.293
G0 X162.347 Y141.293
G0 X162.506 Y141.293
G1 F720 X159.486 Y138.273 E50.75676
G0 F9000 X159.647 Y138.273
G0 X162.347 Y137.05
G0 X162.347 Y137.05
G0 X162.505 Y137.05
G1 F720 X159.486 Y134.03 E50.79905
G0 F9000 X159.647 Y134.03
G0 X162.139 Y132.601
G0 X162.139 Y132.601
G0 X162.139 Y132.441
G1 F720 X162.505 Y132.807 E50.80417
; LAYER:9
G0 F9000 X154.441 Y133.51 Z2.05
; TYPE:WALL-INNER
G1 F720 X154.441 Y141.491 E50.88321
G1 X143.56 Y141.491 E50.99096
G1 X143.56 Y133.51 E51.07
G1 X154.441 Y133.51 E51.17775
G0 F9000 X154.091 Y133.86
G1 F720 X154.091 Y141.141 E51.24986
G1 X143.91 Y141.141 E51.35068
G1 X143.91 Y133.86 E51.42278
G1 X154.091 Y133.86 E51.5236
G0 F9000 X154.791 Y133.16
; TYPE:WALL-OUTER
G1 F600 X154.791 Y141.841 E51.60957
G1 X143.21 Y141.841 E51.72426
G1 X143.21 Y133.16 E51.81022
G1 X154.791 Y133.16 E51.92491
G0 F9000 X153.975 Y134.099
; TYPE:FILL
G1 F720 X153.132 Y134.942 E51.93672
G0 F9000 X153.132 Y134.447
G1 F720 X153.689 Y133.975 E51.94331
G1 X153.975 Y134.176 E51.94677
G0 F9000 X153.975 Y134.594
G1 F720 X153.132 Y135.437 E51.95857
G0 F9000 X153.132 Y135.932
G1 F720 X153.975 Y135.089 E51.97038
G0 F9000 X153.975 Y135.584
G1 F720 X153.132 Y136.427 E51.98219
G0 F9000 X153.132 Y136.922
G1 F720 X153.975 Y136.079 E51.99399
G0 F9000 X153.975 Y136.292
G1 F720 X150.883 Y137.12 E52.02569
G0 F9000 X151.353 Y137.216
G1 F720 X147.544 Y141.026 E52.07904
G0 F9000 X147.049 Y141.026
G1 F720 X151.353 Y136.721 E52.13933
G0 F9000 X151.353 Y136.226
G1 F720 X146.646 Y140.934 E52.20526
G0 F9000 X147.009 Y141.025
G1 F720 X147.116 Y140.623 E52.20938
G0 F9000 X146.646 Y140.439
G1 F720 X151.353 Y135.731 E52.2753
G0 F9000 X151.353 Y135.237
G1 F720 X146.646 Y139.944 E52.34123
G0 F9000 X146.646 Y139.449
G1 F720 X151.353 Y134.742 E52.40715
G0 F9000 X151.353 Y134.247
G1 F720 X146.646 Y138.954 E52.47307
G0 F9000 X146.646 Y138.459
G1 F720 X151.129 Y133.975 E52.53586
G0 F9000 X150.634 Y133.975
G1 F720 X146.646 Y137.964 E52.59172
G0 F9000 X146.646 Y137.469
G1 F720 X150.139 Y133.975 E52.64064
G0 F9000 X149.645 Y133.975
G1 F720 X146.646 Y136.974 E52.68264
G0 F9000 X146.646 Y136.479
G1 F720 X149.15 Y133.975 E52.71771
G0 F9000 X148.655 Y133.974
G1 F720 X146.646 Y135.984 E52.74586
G0 F9000 X146.646 Y135.489
G1 F720 X148.16 Y133.974 E52.76707
G0 F9000 X147.665 Y133.974
G1 F720 X146.646 Y134.994 E52.78134
G0 F9000 X146.646 Y134.499
G1 F720 X147.17 Y133.974 E52.78869
G0 F9000 X146.675 Y133.974
G1 F720 X146.646 Y134.004 E52.7891
G0 F9000 X147.115 Y134.506
G1 F720 X144.024 Y135.335 E52.82079
G0 F9000 X144.024 Y135.141
G1 F720 X144.867 Y134.298 E52.8326
G0 F9000 X144.695 Y133.974
G1 F720 X144.024 Y134.646 E52.84201
G0 F9000 X144.024 Y134.151
G1 F720 X144.2 Y133.974 E52.84448
G0 F9000 X144.024 Y134.124
G1 F720 X147.116 Y137.216 E52.88778
G0 F9000 X147.115 Y138.13
G1 F720 X144.024 Y138.958 E52.91947
G0 F9000 X144.024 Y139.074
G1 F720 X145.975 Y141.026 E52.9468
G0 F9000 X144.867 Y140.733
G1 F720 X144.574 Y141.026 E52.9509
G0 F9000 X144.079 Y141.026
G1 F720 X144.867 Y140.238 E52.96194
G0 F9000 X144.867 Y139.743
G1 F720 X144.024 Y140.586 E52.97375
G0 F9000 X144.024 Y140.091
G1 F720 X144.867 Y139.248 E52.98555
G0 F9000 X144.867 Y138.753
G1 F720 X144.024 Y139.596 E52.99736
G0 F9000 X144.024 Y139.101
G1 F720 X144.867 Y138.258 E53.00916
G0 F9000 X144.867 Y137.763
G1 F720 X144.024 Y138.606 E53.02097
G0 F9000 X144.024 Y138.641
G1 F720 X145.275 Y133.974 E53.06882
G0 F9000 X144.867 Y134.793
G1 F720 X144.024 Y135.636 E53.08063
G0 F9000 X144.024 Y136.131
G1 F720 X144.867 Y135.288 E53.09243
G0 F9000 X144.867 Y135.783
G1 F720 X144.024 Y136.626 E53.10424
G0 F9000 X144.024 Y137.121
G1 F720 X144.867 Y136.278 E53.11604
G0 F9000 X144.867 Y136.773
G1 F720 X144.024 Y137.616 E53.12785
G0 F9000 X144.024 Y138.111
G1 F720 X144.867 Y137.268 E53.13966
G0 F9000 X148.039 Y141.026
G1 F720 X151.352 Y137.712 E53.18606
G0 F9000 X151.352 Y138.207
G1 F720 X148.534 Y141.026 E53.22553
G0 F9000 X149.029 Y141.026
G1 F720 X151.352 Y138.702 E53.25807
G0 F9000 X151.352 Y139.197
G1 F720 X149.524 Y141.026 E53.28368
G0 F9000 X150.019 Y141.026
G1 F720 X151.352 Y139.692 E53.30236
G0 F9000 X151.352 Y140.187
G1 F720 X150.514 Y141.026 E53.3141
G0 F9000 X150.883 Y140.983
G1 F720 X150.967 Y141.026 E53.3147
G1 X151.352 Y140.682 E53.31981
G0 F9000 X150.883 Y140.744
G1 F720 X153.975 Y139.915 E53.35151
G0 F9000 X153.975 Y140.039
G1 F720 X153.131 Y140.883 E53.36333
G0 F9000 X153.483 Y141.026
G1 F720 X153.975 Y140.534 E53.37022
G0 F9000 X153.131 Y140.388
G1 F720 X153.975 Y139.544 E53.38204
G0 F9000 X153.975 Y139.126
G1 F720 X150.883 Y136.033 E53.42535
G0 F9000 X152.521 Y133.974
G1 F720 X150.883 Y140.089 E53.48804
G0 F9000 X153.131 Y139.893
G1 F720 X153.975 Y139.049 E53.49986
G0 F9000 X153.975 Y138.554
G1 F720 X153.131 Y139.398 E53.51168
G0 F9000 X153.131 Y138.903
G1 F720 X153.975 Y138.059 E53.5235
G0 F9000 X153.975 Y137.564
G1 F720 X153.131 Y138.408 E53.53532
G0 F9000 X153.131 Y137.913
G1 F720 X153.975 Y137.069 E53.54714
G0 F9000 X153.975 Y136.574
G1 F720 X153.132 Y137.417 E53.55895
G0 F9000 X159.486 Y138.273
; TYPE:SUPPORT
G1 F720 X162.506 Y141.293 E53.60125
G0 F9000 X162.347 Y141.293
G0 X160.531 Y143.401
G0 X160.531 Y143.401
G0 X160.531 Y143.561
G1 F720 X159.486 Y142.515 E53.61589
G0 F9000 X159.647 Y142.515
G0 X162.347 Y137.05
G0 X162.347 Y137.05
G0 X162.505 Y137.05
G1 F720 X159.486 Y134.03 E53.65818
G0 F9000 X159.647 Y134.03
G0 X162.139 Y132.601
G0 X162.139 Y132.601
G0 X162.139 Y132.441
G1 F720 X162.505 Y132.807 E53.6633
G0 F9000 X153.106 Y131.893
G1 F720 X148.653 Y127.44 E53.72566
G0 F9000 X148.653 Y127.601
G0 X144.847 Y127.777
G0 X144.847 Y127.777
G0 X144.686 Y127.715
G1 F720 X149.316 Y132.345 E53.79051
G0 F9000 X149.316 Y132.185
G0 X145.072 Y132.185
G0 X145.072 Y132.185
G0 X145.072 Y132.344
G1 F720 X144.686 Y131.958 E53.79591
G0 F9000 X146.898 Y142.655
G1 F720 X151.692 Y147.449 E53.86305
G0 F9000 X151.673 Y147.29
G0 X152.947 Y144.621
G0 X152.947 Y144.621
G0 X153.106 Y144.621
G1 F720 X151.141 Y142.656 E53.89057
G0 F9000 X151.141 Y142.816
G0 X147.56 Y147.401
G0 X147.56 Y147.401
G0 X147.56 Y147.56
G1 F720 X144.686 Y144.686 E53.93082
G0 F9000 X138.306 Y142.549
G1 F720 X135.487 Y139.729 E53.97031
G0 F9000 X135.647 Y139.729
G0 X138.147 Y138.306
G0 X138.147 Y138.306
G0 X138.306 Y138.306
G1 F720 X135.486 Y135.486 E54.0098
G0 F9000 X135.647 Y135.486
G0 X138.083 Y134.001
G0 X138.083 Y134.001
G0 X138.083 Y133.841
G1 F720 X138.305 Y134.063 E54.01291
; LAYER:10
G0 F9000 X143.261 Y133.457 Z2.25
; TYPE:WALL-INNER
G1 F720 X154.74 Y133.457 E54.12659
G1 X154.74 Y141.544 E54.20667
G1 X143.261 Y141.544 E54.32035
G1 X143.261 Y133.457 E54.40044
G0 F9000 X143.611 Y133.807
G1 F720 X154.39 Y133.807 E54.50718
G1 X154.39 Y141.194 E54.58033
G1 X143.611 Y141.194 E54.68708
G1 X143.611 Y133.807 E54.76023
G0 F9000 X142.911 Y133.107
; TYPE:WALL-OUTER
G1 F600 X155.09 Y133.107 E54.88084
G1 X155.09 Y141.894 E54.96786
G1 X142.911 Y141.894 E55.08846
G1 X142.911 Y133.107 E55.17548
G0 F9000 X143.821 Y133.921
; TYPE:FILL
G1 F720 X144.567 Y134.668 E55.18594
G0 F9000 X144.567 Y135.163
G1 F720 X143.725 Y134.32 E55.19774
G0 F9000 X143.821 Y133.921
G1 F720 X146.11 Y136.21 E55.22979
G0 F9000 X145.639 Y136.235
G1 F720 X150.483 Y141.079 E55.29763
G0 F9000 X150.978 Y141.079
G1 F720 X145.639 Y135.74 E55.37241
G0 F9000 X145.639 Y135.245
G1 F720 X151.473 Y141.079 E55.45411
G0 F9000 X151.968 Y141.079
G1 F720 X145.639 Y134.75 E55.54275
G0 F9000 X146.11 Y134.776
G1 F720 X143.725 Y135.415 E55.5672
G0 F9000 X143.725 Y135.31
G1 F720 X144.567 Y136.153 E55.579
G0 F9000 X144.567 Y135.658
G1 F720 X143.725 Y134.815 E55.5908
G0 F9000 X143.725 Y135.805
G1 F720 X144.567 Y136.648 E55.6026
G0 F9000 X144.567 Y137.143
G1 F720 X143.725 Y136.3 E55.6144
G0 F9000 X143.725 Y136.795
G1 F720 X144.567 Y137.638 E55.62619
G0 F9000 X144.567 Y138.133
G1 F720 X143.725 Y137.29 E55.63799
G0 F9000 X143.725 Y137.785
G1 F720 X144.567 Y138.628 E55.64979
G0 F9000 X144.567 Y139.123
G1 F720 X143.725 Y138.28 E55.66159
G0 F9000 X143.725 Y138.775
G1 F720 X144.567 Y139.618 E55.67339
G0 F9000 X144.567 Y140.113
G1 F720 X143.725 Y139.27 E55.68519
G0 F9000 X143.725 Y139.038
G1 F720 X146.11 Y138.399 E55.70964
G0 F9000 X145.639 Y138.215
G1 F720 X148.503 Y141.079 E55.74975
G0 F9000 X148.998 Y141.079
G1 F720 X145.639 Y137.72 E55.79679
G0 F9000 X145.639 Y137.225
G1 F720 X149.493 Y141.079 E55.85077
G0 F9000 X149.988 Y141.079
G1 F720 X145.639 Y136.73 E55.91168
G0 F9000 X145.639 Y138.71
G1 F720 X148.008 Y141.079 E55.94485
G0 F9000 X147.513 Y141.079
G1 F720 X145.639 Y139.205 E55.9711
G0 F9000 X145.639 Y139.7
G1 F720 X147.018 Y141.079 E55.99041
G0 F9000 X146.523 Y141.079
G1 F720 X145.639 Y140.195 E56.00279
G0 F9000 X145.639 Y140.69
G1 F720 X146.028 Y141.079 E56.00824
G0 F9000 X146.028 Y141.078
G1 F720 X143.725 Y138.775 E56.04049
G0 F9000 X143.725 Y139.756
G1 F720 X145.289 Y133.92 E56.10033
G0 F9000 X145.639 Y134.255
G1 F720 X152.358 Y140.974 E56.19443
G0 F9000 X152.358 Y140.479
G1 F720 X145.801 Y133.921 E56.28626
G0 F9000 X146.296 Y133.921
G1 F720 X152.358 Y139.984 E56.37117
G0 F9000 X152.358 Y139.489
G1 F720 X146.791 Y133.921 E56.44914
G0 F9000 X147.286 Y133.921
G1 F720 X152.358 Y138.994 E56.52018
G0 F9000 X152.358 Y138.499
G1 F720 X147.781 Y133.921 E56.58429
G0 F9000 X148.276 Y133.921
G1 F720 X152.358 Y138.004 E56.64146
G0 F9000 X152.358 Y137.509
G1 F720 X148.771 Y133.921 E56.69171
G0 F9000 X149.265 Y133.921
G1 F720 X152.358 Y137.014 E56.73502
G0 F9000 X151.889 Y137.04
G1 F720 X154.273 Y139.424 E56.76841
G0 F9000 X154.273 Y139.424
G1 F720 X153.43 Y138.581 E56.78022
G0 F9000 X153.43 Y138.086
G1 F720 X154.273 Y138.929 E56.79202
G0 F9000 X154.273 Y138.434
G1 F720 X153.43 Y137.591 E56.80383
G0 F9000 X153.43 Y137.096
G1 F720 X154.273 Y137.939 E56.81564
G0 F9000 X154.274 Y137.445
G1 F720 X153.43 Y136.601 E56.82746
G0 F9000 X153.43 Y136.106
G1 F720 X154.274 Y136.95 E56.83928
G0 F9000 X154.274 Y136.455
G1 F720 X153.43 Y135.611 E56.8511
G0 F9000 X153.43 Y135.116
G1 F720 X154.274 Y135.96 E56.86292
G0 F9000 X154.274 Y136.212
G1 F720 X151.889 Y136.851 E56.88737
G0 F9000 X151.89 Y136.332
G1 F720 X152.536 Y133.921 E56.91209
G0 F9000 X152.358 Y134.044
G1 F720 X152.235 Y133.921 E56.91381
G0 F9000 X151.74 Y133.921
G1 F720 X152.358 Y134.539 E56.92246
G0 F9000 X152.358 Y135.034
G1 F720 X151.245 Y133.921 E56.93805
G0 F9000 X150.75 Y133.921
G1 F720 X152.358 Y135.529 E56.96057
G0 F9000 X152.358 Y136.024
G1 F720 X150.255 Y133.921 E56.99002
G0 F9000 X149.76 Y133.921
G1 F720 X152.358 Y136.519 E57.02641
G0 F9000 X153.43 Y134.621
G1 F720 X154.274 Y135.465 E57.03823
G0 F9000 X154.274 Y134.97
G1 F720 X153.43 Y134.126 E57.05005
G0 F9000 X153.72 Y133.921
G1 F720 X154.274 Y134.475 E57.05781
G0 F9000 X154.274 Y134.475
G1 F720 X153.721 Y133.922 E57.06555
G0 F9000 X154.216 Y133.922
G1 F720 X154.274 Y133.98 E57.06636
G0 F9000 X153.43 Y139.076
G1 F720 X154.273 Y139.919 E57.07817
G0 F9000 X154.274 Y139.835
G1 F720 X151.889 Y140.474 E57.10262
G0 F9000 X153.43 Y140.561
G1 F720 X153.948 Y141.079 E57.10988
G0 F9000 X154.241 Y141.078
G1 F720 X154.274 Y140.955 E57.11114
G0 F9000 X154.273 Y140.909
G1 F720 X153.43 Y140.066 E57.12294
G0 F9000 X153.43 Y139.571
G1 F720 X154.273 Y140.414 E57.13475
G0 F9000 X153.453 Y141.079
G1 F720 X153.43 Y141.056 E57.13507
G0 F9000 X144.567 Y140.608
G1 F720 X143.725 Y139.765 E57.14687
G0 F9000 X143.725 Y140.26
G1 F720 X144.543 Y141.079 E57.15833
G0 F9000 X144.048 Y141.079
G1 F720 X143.725 Y140.755 E57.16287
G0 F9000 X144.567 Y134.173
G1 F720 X144.316 Y133.921 E57.16639
G0 F9000 X138.305 Y134.063
; TYPE:SUPPORT
G1 F720 X138.083 Y133.841 E57.1695
G0 F9000 X138.083 Y134.001
G0 X135.647 Y135.486
G0 X135.647 Y135.486
G0 X135.486 Y135.486
G1 F720 X138.306 Y138.306 E57.20899
G0 F9000 X138.147 Y138.306
G0 X135.647 Y139.729
G0 X135.647 Y139.729
G0 X135.487 Y139.729
G1 F720 X138.306 Y142.549 E57.24848
G0 F9000 X145.019 Y132.291
G1 F720 X144.686 Y131.958 E57.25314
G0 F9000 X144.847 Y131.958
G0 X144.847 Y127.777
G0 X144.847 Y127.777
G0 X144.686 Y127.715
G1 F720 X149.262 Y132.291 E57.31723
G0 F9000 X149.262 Y132.132
G0 X152.947 Y131.893
G0 X152.947 Y131.893
G0 X153.106 Y131.893
G1 F720 X148.653 Y127.44 E57.37959
G0 F9000 X146.951 Y142.708
G1 F720 X151.692 Y147.449 E57.44599
G0 F9000 X151.673 Y147.29
G0 X152.947 Y144.621
G0 X152.947 Y144.621
G0 X153.106 Y144.621
G1 F720 X151.194 Y142.708 E57.47277
G0 F9000 X151.194 Y142.869
G0 X147.56 Y147.401
G0 X147.56 Y147.401
G0 X147.56 Y147.56
G1 F720 X144.686 Y144.686 E57.51302
G0 F9000 X159.486 Y142.515
G1 F720 X160.531 Y143.561 E57.52767
G0 F9000 X160.531 Y143.401
G0 X162.347 Y141.293
G0 X162.347 Y141.293
G0 X162.506 Y141.293
G1 F720 X159.486 Y138.273 E57.56996
G0 F9000 X159.647 Y138.273
G0 X162.347 Y137.05
G0 X162.347 Y137.05
G0 X162.505 Y137.05
G1 F720 X159.486 Y134.03 E57.61225
G0 F9000 X159.647 Y134.03
G0 X162.139 Y132.601
G0 X162.139 Y132.601
G0 X162.139 Y132.441
G1 F720 X162.505 Y132.807 E57.61737
; LAYER:11
G0 F9000 X148.063 Y133.404 Z2.45
; TYPE:WALL-INNER
G1 F780 X148.063 Y141.597 E57.69851
G1 X142.962 Y141.597 E57.74902
G1 X142.962 Y133.404 E57.83016
G1 X148.063 Y133.404 E57.88067
G0 F9000 X147.713 Y133.754
G1 F780 X147.713 Y141.247 E57.95488
G1 X143.312 Y141.247 E57.99846
G1 X143.312 Y133.754 E58.07266
G1 X147.713 Y133.754 E58.11625
G0 F9000 X148.413 Y133.054
; TYPE:WALL-OUTER
G1 F660 X148.413 Y141.947 E58.20431
G1 X142.612 Y141.947 E58.26176
G1 X142.612 Y133.054 E58.34983
G1 X148.413 Y133.054 E58.40727
G0 F9000 X147.597 Y134.043
; TYPE:FILL
G1 F780 X144.634 Y137.006 E58.44877
G0 F9000 X144.268 Y136.876
G1 F780 X143.426 Y137.719 E58.46057
G0 F9000 X143.426 Y137.224
G1 F780 X144.268 Y136.381 E58.47237
G0 F9000 X144.634 Y136.511
G1 F780 X147.276 Y133.869 E58.50937
G0 F9000 X146.781 Y133.869
G1 F780 X144.634 Y136.016 E58.53944
G0 F9000 X144.268 Y135.886
G1 F780 X143.426 Y136.729 E58.55124
G0 F9000 X143.426 Y136.234
G1 F780 X144.268 Y135.391 E58.56304
G0 F9000 X144.634 Y135.521
G1 F780 X146.286 Y133.869 E58.58617
G0 F9000 X145.791 Y133.869
G1 F780 X144.634 Y135.026 E58.60238
G0 F9000 X144.268 Y134.896
G1 F780 X143.426 Y135.739 E58.61418
G0 F9000 X143.425 Y135.495
G1 F780 X145.103 Y135.045 E58.63138
G0 F9000 X145.104 Y135.205
G1 F780 X143.768 Y133.868 E58.6501
G0 F9000 X143.812 Y133.868
G1 F780 X143.426 Y134.254 E58.6555
G0 F9000 X143.426 Y134.749
G1 F780 X144.268 Y133.906 E58.6673
G0 F9000 X144.634 Y134.036
G1 F780 X144.801 Y133.869 E58.66964
G0 F9000 X145.296 Y133.869
G1 F780 X144.634 Y134.531 E58.67891
G0 F9000 X144.268 Y134.401
G1 F780 X143.426 Y135.244 E58.69071
G0 F9000 X145.104 Y134.61
G1 F780 X143.426 Y140.872 E58.75491
G0 F9000 X143.426 Y140.689
G1 F780 X144.268 Y139.846 E58.76671
G0 F9000 X144.633 Y139.976
G1 F780 X147.597 Y137.013 E58.80822
G0 F9000 X147.597 Y136.518
G1 F780 X144.633 Y139.481 E58.84972
G0 F9000 X144.268 Y139.351
G1 F780 X143.426 Y140.194 E58.86152
G0 F9000 X143.426 Y139.699
G1 F780 X144.268 Y138.856 E58.87332
G0 F9000 X144.633 Y138.986
G1 F780 X147.597 Y136.023 E58.91482
G0 F9000 X147.597 Y135.528
G1 F780 X144.633 Y138.491 E58.95632
G0 F9000 X144.268 Y138.361
G1 F780 X143.426 Y139.204 E58.96812
G0 F9000 X143.426 Y139.118
G1 F780 X145.104 Y138.669 E58.98533
G0 F9000 X144.633 Y137.996
G1 F780 X147.597 Y135.033 E59.02683
G0 F9000 X147.597 Y134.538
G1 F780 X144.633 Y137.501 E59.06833
G0 F9000 X144.268 Y137.371
G1 F780 X143.426 Y138.214 E59.08013
G0 F9000 X143.426 Y138.476
G1 F780 X145.104 Y140.154 E59.10363
G0 F9000 X144.633 Y140.471
G1 F780 X147.597 Y137.508 E59.14514
G0 F9000 X147.597 Y138.003
G1 F780 X144.633 Y140.966 E59.18664
G0 F9000 X144.963 Y141.132
G1 F780 X147.597 Y138.498 E59.22353
G0 F9000 X147.597 Y138.993
G1 F780 X145.458 Y141.132 E59.25348
G0 F9000 X145.953 Y141.132
G1 F780 X147.597 Y139.488 E59.27651
G0 F9000 X147.597 Y139.983
G1 F780 X146.448 Y141.131 E59.29259
G0 F9000 X146.943 Y141.131
G1 F780 X147.597 Y140.478 E59.30175
G0 F9000 X147.597 Y140.973
G1 F780 X147.438 Y141.131 E59.30397
G0 F9000 X144.268 Y140.836
G1 F780 X143.973 Y141.132 E59.3081
G0 F9000 X143.478 Y141.132
G1 F780 X144.268 Y140.341 E59.31917
G0 F9000 X143.426 Y138.709
G1 F780 X144.268 Y137.866 E59.33097
G1 F1800 E56.33097
G1 Z3.45
G0 F9000 X149.937 Y141.597
; TYPE:WALL-INNER
G1 Z2.45
G1 F1800 E59.33097
G1 F780 X149.937 Y133.404 E59.41211
G1 X155.039 Y133.404 E59.46263
G1 X155.039 Y141.597 E59.54377
G1 X149.937 Y141.597 E59.59429
G0 F9000 X150.287 Y141.247
G1 F780 X150.287 Y133.754 E59.6685
G1 X154.689 Y133.754 E59.71209
G1 X154.689 Y141.247 E59.78629
G1 X150.287 Y141.247 E59.82989
G0 F9000 X149.587 Y141.947
; TYPE:WALL-OUTER
G1 F660 X149.587 Y133.054 E59.91795
G1 X155.389 Y133.054 E59.97541
G1 X155.389 Y141.947 E60.06348
G1 X149.587 Y141.947 E60.12093
G0 F9000 X150.407 Y141.132
; TYPE:FILL
G1 F780 X153.365 Y138.175 E60.16235
G0 F9000 X153.729 Y138.305
G1 F780 X154.573 Y137.461 E60.17417
G0 F9000 X154.573 Y136.966
G1 F780 X153.729 Y137.81 E60.18599
G0 F9000 X153.365 Y137.68
G1 F780 X150.4 Y140.644 E60.22751
G0 F9000 X150.4 Y140.149
G1 F780 X153.365 Y137.185 E60.26903
G0 F9000 X153.729 Y137.315
G1 F780 X154.573 Y136.471 E60.28085
G0 F9000 X154.573 Y136.132
G1 F780 X152.895 Y136.581 E60.29805
G0 F9000 X153.365 Y136.69
G1 F780 X150.4 Y139.654 E60.33957
G0 F9000 X150.4 Y139.159
G1 F780 X153.365 Y136.195 E60.38109
G0 F9000 X153.729 Y136.325
G1 F780 X154.573 Y135.481 E60.39291
G0 F9000 X154.573 Y134.986
G1 F780 X153.729 Y135.83 E60.40473
G0 F9000 X153.365 Y135.7
G1 F780 X150.4 Y138.664 E60.44624
G0 F9000 X150.4 Y138.169
G1 F780 X153.365 Y135.205 E60.48776
G0 F9000 X153.729 Y135.335
G1 F780 X154.573 Y134.491 E60.49958
G0 F9000 X154.573 Y134.774
G1 F780 X153.667 Y133.868 E60.51227
G0 F9000 X153.216 Y133.868
G1 F780 X150.4 Y136.684 E60.55171
G0 F9000 X150.4 Y137.179
G1 F780 X153.365 Y134.215 E60.59323
G0 F9000 X153.729 Y134.345
G1 F780 X154.205 Y133.869 E60.59989
G0 F9000 X154.573 Y133.996
G1 F780 X153.729 Y134.84 E60.61171
G0 F9000 X153.365 Y134.71
G1 F780 X150.4 Y137.674 E60.65323
G0 F9000 X150.4 Y136.189
G1 F780 X152.721 Y133.868 E60.68574
G0 F9000 X152.226 Y133.868
G1 F780 X150.4 Y135.694 E60.71131
G0 F9000 X150.4 Y135.199
G1 F780 X151.731 Y133.868 E60.72995
G0 F9000 X151.236 Y133.868
G1 F780 X150.4 Y134.704 E60.74166
G0 F9000 X150.4 Y134.209
G1 F780 X150.741 Y133.868 E60.74643
G0 F9000 X153.729 Y136.82
G1 F780 X154.573 Y135.976 E60.75825
G0 F9000 X154.572 Y137.957
G1 F780 X153.729 Y138.8 E60.77006
G0 F9000 X153.365 Y138.67
G1 F780 X150.902 Y141.132 E60.80455
G0 F9000 X151.397 Y141.132
G1 F780 X153.365 Y139.164 E60.83211
G0 F9000 X153.729 Y139.295
G1 F780 X154.572 Y138.452 E60.84391
G0 F9000 X154.572 Y138.947
G1 F780 X153.729 Y139.79 E60.85572
G0 F9000 X153.365 Y139.659
G1 F780 X151.892 Y141.132 E60.87635
G0 F9000 X152.387 Y141.132
G1 F780 X153.365 Y140.154 E60.89005
G0 F9000 X153.729 Y140.285
G1 F780 X154.572 Y139.442 E60.90185
G0 F9000 X154.572 Y139.723
G1 F780 X152.895 Y138.046 E60.92534
G0 F9000 X152.895 Y140.205
G1 F780 X154.573 Y139.755 E60.94254
G0 F9000 X154.573 Y139.841
G1 F780 X154.227 Y141.131 E60.95577
G0 F9000 X154.367 Y141.132
G1 F780 X154.572 Y140.927 E60.95864
G0 F9000 X154.572 Y140.432
G1 F780 X153.872 Y141.132 E60.96844
G0 F9000 X153.729 Y140.78
G1 F780 X154.572 Y139.937 E60.98025
G0 F9000 X153.365 Y140.649
G1 F780 X152.882 Y141.132 E60.98701
G0 F9000 X159.486 Y142.515
; TYPE:SUPPORT
G1 F780 X160.531 Y143.561 E61.00166
G0 F9000 X160.531 Y143.401
G0 X162.347 Y141.293
G0 X162.347 Y141.293
G0 X162.506 Y141.293
G1 F780 X159.486 Y138.273 E61.04395
G0 F9000 X159.647 Y138.273
G0 X162.347 Y137.05
G0 X162.347 Y137.05
G0 X162.505 Y137.05
G1 F780 X159.486 Y134.03 E61.08624
G0 F9000 X159.647 Y134.03
G0 X162.139 Y132.601
G0 X162.139 Y132.601
G0 X162.139 Y132.441
G1 F780 X162.505 Y132.807 E61.09136
G0 F9000 X153.106 Y131.893
G1 F780 X148.653 Y127.44 E61.15373
G0 F9000 X148.653 Y127.601
G0 X144.847 Y127.777
G0 X144.847 Y127.777
G0 X144.686 Y127.715
G1 F780 X149.21 Y132.239 E61.21709
G0 F9000 X149.21 Y132.079
G0 X144.966 Y132.079
G0 X144.966 Y132.079
G0 X144.966 Y132.238
G1 F780 X144.686 Y131.958 E61.22101
G0 F9000 X147.004 Y142.762
G1 F780 X151.692 Y147.449 E61.28666
G0 F9000 X151.673 Y147.29
G0 X152.947 Y144.621
G0 X152.947 Y144.621
G0 X153.106 Y144.621
G1 F780 X151.246 Y142.761 E61.31271
G0 F9000 X151.246 Y142.922
G0 X147.56 Y147.401
G0 X147.56 Y147.401
G0 X147.56 Y147.56
G1 F780 X144.686 Y144.686 E61.35296
G0 F9000 X138.306 Y142.549
G1 F780 X135.487 Y139.729 E61.39244
G0 F9000 X135.647 Y139.729
G0 X138.147 Y138.306
G0 X138.147 Y138.306
G0 X138.306 Y138.306
G1 F780 X135.486 Y135.486 E61.43194
G0 F9000 X135.647 Y135.486
G0 X138.083 Y134.001
G0 X138.083 Y134.001
G0 X138.083 Y133.841
G1 F780 X138.305 Y134.063 E61.43505
; LAYER:12
G0 F9000 X142.663 Y133.351 Z2.65
; TYPE:WALL-INNER
G1 F720 X147.057 Y133.351 E61.47856
G1 X147.057 Y141.65 E61.56074
G1 X142.663 Y141.65 E61.60426
G1 X142.663 Y133.351 E61.68644
G0 F9000 X143.013 Y133.701
G1 F720 X146.707 Y133.701 E61.72302
G1 X146.707 Y141.3 E61.79828
G1 X143.013 Y141.3 E61.83486
G1 X143.013 Y133.701 E61.91011
G0 F9000 X142.313 Y133.001
; TYPE:WALL-OUTER
G1 F600 X147.407 Y133.001 E61.96056
G1 X147.407 Y142 E62.04967
G1 X142.313 Y142 E62.10012
G1 X142.313 Y133.001 E62.18924
G0 F9000 X143.22 Y133.815
; TYPE:FILL
G1 F720 X143.969 Y134.564 E62.19973
G0 F9000 X144.307 Y134.407
G1 F720 X146.591 Y136.691 E62.23171
G0 F9000 X146.591 Y136.196
G1 F720 X144.307 Y133.912 E62.2637
G0 F9000 X143.969 Y134.069
G1 F720 X143.715 Y133.816 E62.26725
G0 F9000 X143.715 Y133.815
G1 F720 X144.777 Y134.877 E62.28212
G0 F9000 X144.777 Y135.133
G1 F720 X143.127 Y135.575 E62.29904
G0 F9000 X143.126 Y135.702
G1 F720 X143.969 Y136.544 E62.31084
G0 F9000 X144.307 Y136.387
G1 F720 X146.591 Y138.672 E62.34283
G0 F9000 X146.591 Y138.177
G1 F720 X144.307 Y135.892 E62.37483
G0 F9000 X143.969 Y136.049
G1 F720 X143.126 Y135.207 E62.38663
G0 F9000 X143.126 Y134.712
G1 F720 X143.969 Y135.554 E62.39843
G0 F9000 X144.307 Y135.397
G1 F720 X146.591 Y137.682 E62.43042
G0 F9000 X146.591 Y137.186
G1 F720 X144.307 Y134.902 E62.46241
G0 F9000 X143.969 Y135.059
G1 F720 X143.126 Y134.217 E62.47421
G0 F9000 X144.705 Y133.816
G1 F720 X146.591 Y135.701 E62.50061
G0 F9000 X146.591 Y135.206
G1 F720 X145.2 Y133.816 E62.52009
G0 F9000 X145.695 Y133.816
G1 F720 X146.591 Y134.711 E62.53263
G0 F9000 X146.591 Y134.216
G1 F720 X146.19 Y133.816 E62.53824
G0 F9000 X144.777 Y135.831
G1 F720 X143.343 Y141.183 E62.59311
G0 F9000 X143.165 Y141.185
G1 F720 X143.126 Y141.146 E62.59365
G0 F9000 X143.126 Y140.652
G1 F720 X143.66 Y141.185 E62.60113
G0 F9000 X143.969 Y140.999
G1 F720 X143.126 Y140.157 E62.61292
G0 F9000 X143.126 Y139.662
G1 F720 X143.969 Y140.504 E62.62472
G0 F9000 X144.307 Y140.347
G1 F720 X145.144 Y141.185 E62.63645
G0 F9000 X144.65 Y141.185
G1 F720 X144.307 Y140.842 E62.64126
G0 F9000 X143.969 Y140.009
G1 F720 X143.126 Y139.167 E62.65306
G0 F9000 X143.127 Y139.199
G1 F720 X144.777 Y138.756 E62.66997
G0 F9000 X144.307 Y138.863
G1 F720 X146.591 Y141.146 E62.70195
G0 F9000 X146.134 Y141.185
G1 F720 X144.307 Y139.358 E62.72754
G0 F9000 X143.969 Y139.514
G1 F720 X143.126 Y138.672 E62.73934
G0 F9000 X143.126 Y138.177
G1 F720 X143.969 Y139.02 E62.75115
G0 F9000 X143.969 Y138.525
G1 F720 X143.126 Y137.682 E62.76295
G0 F9000 X143.126 Y137.187
G1 F720 X143.969 Y138.03 E62.77476
G0 F9000 X144.307 Y137.873
G1 F720 X146.591 Y140.157 E62.80675
G0 F9000 X146.591 Y139.662
G1 F720 X144.307 Y137.377 E62.83874
G0 F9000 X143.969 Y137.535
G1 F720 X143.126 Y136.692 E62.85055
G0 F9000 X143.126 Y136.197
G1 F720 X143.969 Y137.039 E62.86235
G0 F9000 X144.307 Y136.882
G1 F720 X146.591 Y139.167 E62.89434
G0 F9000 X146.591 Y140.652
G1 F720 X144.307 Y138.368 E62.92633
G0 F9000 X143.126 Y138.177
G1 F720 X144.777 Y139.827 E62.94944
G0 F9000 X144.307 Y139.852
G1 F720 X145.639 Y141.185 E62.9681
G1 F1800 E59.9681
G1 Z3.65
G0 F9000 X150.944 Y141.65
; TYPE:WALL-INNER
G1 Z2.65
G1 F1800 E62.9681
G1 F720 X150.944 Y133.351 E63.05029
G1 X155.338 Y133.351 E63.0938
G1 X155.338 Y141.65 E63.17599
G1 X150.944 Y141.65 E63.2195
G0 F9000 X151.294 Y141.3
G1 F720 X151.294 Y133.701 E63.29475
G1 X154.988 Y133.701 E63.33133
G1 X154.988 Y141.3 E63.40659
G1 X151.294 Y141.3 E63.44317
G0 F9000 X150.594 Y142
; TYPE:WALL-OUTER
G1 F600 X150.594 Y133.001 E63.53229
G1 X155.688 Y133.001 E63.58273
G1 X155.688 Y142 E63.67185
G1 X150.594 Y142 E63.72229
G0 F9000 X151.579 Y141.185
; TYPE:FILL
G1 F720 X151.408 Y141.014 E63.72469
G0 F9000 X151.408 Y140.519
G1 F720 X152.074 Y141.185 E63.73402
G0 F9000 X152.569 Y141.185
G1 F720 X151.408 Y140.024 E63.75028
G0 F9000 X151.408 Y139.529
G1 F720 X153.064 Y141.185 E63.77347
G0 F9000 X153.559 Y141.185
G1 F720 X151.408 Y139.034 E63.80359
G0 F9000 X151.408 Y138.539
G1 F720 X153.692 Y140.823 E63.83558
G0 F9000 X154.03 Y140.666
G1 F720 X154.549 Y141.185 E63.84285
G0 F9000 X154.213 Y141.185
G1 F720 X154.872 Y138.724 E63.86808
G0 F9000 X154.871 Y138.537
G1 F720 X154.03 Y137.696 E63.87986
G0 F9000 X153.692 Y137.853
G1 F720 X151.408 Y135.569 E63.91184
G0 F9000 X151.408 Y135.074
G1 F720 X153.692 Y137.358 E63.94383
G0 F9000 X154.03 Y137.201
G1 F720 X154.871 Y138.042 E63.95561
G0 F9000 X154.871 Y137.547
G1 F720 X154.03 Y136.706 E63.96739
G0 F9000 X153.692 Y136.863
G1 F720 X151.408 Y134.579 E63.99937
G0 F9000 X151.408 Y134.084
G1 F720 X153.692 Y136.368 E64.03136
G0 F9000 X154.03 Y136.211
G1 F720 X154.871 Y137.052 E64.04314
G0 F9000 X154.871 Y136.557
G1 F720 X154.03 Y135.716 E64.05492
G0 F9000 X153.692 Y135.873
G1 F720 X151.634 Y133.815 E64.08374
G0 F9000 X152.129 Y133.815
G1 F720 X153.692 Y135.378 E64.10563
G0 F9000 X154.03 Y135.221
G1 F720 X154.871 Y136.062 E64.11741
G0 F9000 X154.871 Y136.052
G1 F720 X153.222 Y136.494 E64.13431
G0 F9000 X153.692 Y134.883
G1 F720 X152.624 Y133.815 E64.14927
G0 F9000 X153.119 Y133.815
G1 F720 X153.692 Y134.388 E64.1573
G0 F9000 X154.03 Y134.231
G1 F720 X154.871 Y135.072 E64.16907
G0 F9000 X154.871 Y135.072
G1 F720 X153.615 Y133.816 E64.18667
G0 F9000 X153.614 Y133.815
G1 F720 X153.692 Y133.893 E64.18776
G0 F9000 X154.109 Y133.815
G1 F720 X154.871 Y134.577 E64.19843
G0 F9000 X154.871 Y134.083
G1 F720 X154.604 Y133.815 E64.20218
G0 F9000 X154.03 Y134.726
G1 F720 X154.871 Y135.567 E64.21395
G0 F9000 X154.03 Y138.191
G1 F720 X154.871 Y139.032 E64.22573
G0 F9000 X154.871 Y139.527
G1 F720 X154.03 Y138.686 E64.23751
G0 F9000 X153.692 Y138.843
G1 F720 X151.408 Y136.559 E64.2695
G0 F9000 X151.408 Y136.064
G1 F720 X153.692 Y138.348 E64.30148
G0 F9000 X153.222 Y138.373
G1 F720 X154.871 Y140.022 E64.32458
G0 F9000 X154.871 Y140.022
G1 F720 X154.03 Y139.181 E64.33636
G0 F9000 X153.692 Y139.338
G1 F720 X151.408 Y137.054 E64.36834
G0 F9000 X151.408 Y137.549
G1 F720 X153.692 Y139.833 E64.40033
G0 F9000 X154.03 Y139.676
G1 F720 X154.871 Y140.517 E64.41211
G0 F9000 X154.871 Y141.012
G1 F720 X154.03 Y140.171 E64.42389
G0 F9000 X153.692 Y140.328
G1 F720 X151.408 Y138.044 E64.45587
G0 F9000 X153.222 Y140.117
G1 F720 X154.872 Y139.675 E64.47279
G0 F9000 X154.03 Y141.161
G1 F720 X154.054 Y141.185 E64.47313
G0 F9000 X138.306 Y142.549
; TYPE:SUPPORT
G1 F720 X135.487 Y139.729 E64.51261
G0 F9000 X135.647 Y139.729
G0 X138.147 Y138.306
G0 X138.147 Y138.306
G0 X138.306 Y138.306
G1 F720 X135.486 Y135.486 E64.55211
G0 F9000 X135.647 Y135.486
G0 X138.083 Y134.001
G0 X138.083 Y134.001
G0 X138.083 Y133.841
G1 F720 X138.305 Y134.063 E64.55522
G0 F9000 X144.686 Y131.958
G1 F720 X144.913 Y132.185 E64.5584
G0 F9000 X144.913 Y132.026
G0 X144.847 Y127.777
G0 X144.847 Y127.777
G0 X144.686 Y127.715
G1 F720 X149.778 Y132.808 E64.62972
G0 F9000 X149.619 Y132.808
G0 X149.526 Y132.832
G0 X149.578 Y131.985
G0 X152.947 Y131.893
G0 X153.106 Y131.893
G1 F720 X148.653 Y127.44 E64.69208
G0 F9000 X147.057 Y142.815
G1 F720 X151.692 Y147.449 E64.75699
G0 F9000 X151.673 Y147.29
G0 X152.947 Y144.621
G0 X152.947 Y144.621
G0 X153.106 Y144.621
G1 F720 X151.3 Y142.815 E64.78228
G0 F9000 X151.3 Y142.975
G0 X147.56 Y147.401
G0 X147.56 Y147.401
G0 X147.56 Y147.56
G1 F720 X144.686 Y144.686 E64.82253
G0 F9000 X159.486 Y142.515
G1 F720 X160.531 Y143.561 E64.83717
G0 F9000 X160.531 Y143.401
G0 X162.347 Y141.293
G0 X162.347 Y141.293
G0 X162.506 Y141.293
G1 F720 X159.486 Y138.273 E64.87947
G0 F9000 X159.647 Y138.273
G0 X162.347 Y137.05
G0 X162.347 Y137.05
G0 X162.505 Y137.05
G1 F720 X159.486 Y134.03 E64.92175
G0 F9000 X159.647 Y134.03
G0 X162.139 Y132.601
G0 X162.139 Y132.601
G0 X162.139 Y132.441
G1 F720 X162.505 Y132.807 E64.92688
; LAYER:13
G0 F9000 X146.051 Y133.298 Z2.85
; TYPE:WALL-INNER
G1 F720 X146.051 Y141.703 E65.01011
G1 X142.363 Y141.703 E65.04664
G1 X142.363 Y133.298 E65.12987
G1 X146.051 Y133.298 E65.16639
G0 F9000 X145.701 Y133.648
G1 F720 X145.701 Y141.353 E65.2427
G1 X142.713 Y141.353 E65.27229
G1 X142.713 Y133.648 E65.34859
G1 X145.701 Y133.648 E65.37818
G0 F9000 X146.401 Y132.948
; TYPE:WALL-OUTER
G1 F600 X146.401 Y142.053 E65.46834
G1 X142.013 Y142.053 E65.5118
G1 X142.013 Y132.948 E65.60197
G1 X146.401 Y132.948 E65.64542
G0 F9000 X145.403 Y133.762
; TYPE:FILL
G1 F720 X144.008 Y135.157 E65.66496
G0 F9000 X143.67 Y135
G1 F720 X142.827 Y135.843 E65.67676
G0 F9000 X142.827 Y135.656
G1 F720 X144.478 Y135.213 E65.69369
G0 F9000 X144.478 Y134.578
G1 F720 X143.662 Y133.762 E65.70512
G0 F9000 X143.423 Y133.762
G1 F720 X142.827 Y134.358 E65.71347
G0 F9000 X142.827 Y134.853
G1 F720 X143.67 Y134.01 E65.72527
G0 F9000 X144.008 Y134.167
G1 F720 X144.413 Y133.762 E65.73094
G0 F9000 X144.908 Y133.762
G1 F720 X144.008 Y134.662 E65.74355
G0 F9000 X143.67 Y134.505
G1 F720 X142.827 Y135.348 E65.75535
G0 F9000 X143.67 Y135.495
G1 F720 X142.827 Y136.338 E65.76716
G0 F9000 X142.827 Y136.833
G1 F720 X143.67 Y135.99 E65.77897
G0 F9000 X144.008 Y136.147
G1 F720 X145.585 Y134.57 E65.80105
G0 F9000 X145.585 Y134.075
G1 F720 X144.008 Y135.652 E65.82314
G0 F9000 X143.67 Y136.485
G1 F720 X142.827 Y137.328 E65.83494
G0 F9000 X142.827 Y137.823
G1 F720 X143.67 Y136.98 E65.84675
G0 F9000 X144.008 Y137.136
G1 F720 X145.585 Y135.56 E65.86883
G0 F9000 X145.585 Y135.065
G1 F720 X144.008 Y136.642 E65.89091
G0 F9000 X144.478 Y136.946
G1 F720 X143.329 Y141.236 E65.9349
G0 F9000 X143.372 Y141.238
G1 F720 X143.67 Y140.939 E65.93908
G0 F9000 X144.008 Y141.096
G1 F720 X145.585 Y139.519 E65.96116
G0 F9000 X145.585 Y139.024
G1 F720 X144.008 Y140.601 E65.98325
G0 F9000 X143.67 Y140.444
G1 F720 X142.877 Y141.237 E65.99435
G0 F9000 X142.827 Y140.793
G1 F720 X143.67 Y139.949 E66.00617
G0 F9000 X144.008 Y140.106
G1 F720 X145.585 Y138.529 E66.02825
G0 F9000 X145.585 Y138.035
G1 F720 X144.008 Y139.611 E66.05033
G0 F9000 X143.67 Y139.454
G1 F720 X142.827 Y140.298 E66.06214
G0 F9000 X142.827 Y139.803
G1 F720 X143.67 Y138.959 E66.07396
G0 F9000 X144.008 Y139.116
G1 F720 X145.585 Y137.54 E66.09604
G0 F9000 X145.585 Y137.045
G1 F720 X144.008 Y138.621 E66.11812
G0 F9000 X143.67 Y138.464
G1 F720 X142.827 Y139.308 E66.12993
G0 F9000 X142.827 Y139.279
G1 F720 X144.478 Y138.836 E66.14686
G0 F9000 X144.478 Y139.528
G1 F720 X142.827 Y137.877 E66.16998
G0 F9000 X142.827 Y138.318
G1 F720 X143.67 Y137.474 E66.18179
G0 F9000 X144.008 Y137.631
G1 F720 X145.585 Y136.055 E66.20387
G0 F9000 X145.585 Y136.55
G1 F720 X144.008 Y138.126 E66.22595
G0 F9000 X143.67 Y137.969
G1 F720 X142.827 Y138.813 E66.23776
G0 F9000 X144.362 Y141.238
G1 F720 X145.585 Y140.014 E66.2549
G0 F9000 X145.585 Y140.509
G1 F720 X144.857 Y141.238 E66.2651
G0 F9000 X145.352 Y141.238
G1 F720 X145.585 Y141.004 E66.26837
G0 F9000 X142.827 Y133.863
G1 F720 X142.927 Y133.763 E66.26977
G1 F1800 E63.26977
G1 Z3.85
G0 F9000 X151.95 Y133.298
; TYPE:WALL-INNER
G1 Z2.85
G1 F1800 E66.26977
G1 F720 X155.638 Y133.298 E66.30629
G1 X155.638 Y141.703 E66.38953
G1 X151.95 Y141.703 E66.42605
G1 X151.95 Y133.298 E66.50928
G0 F9000 X152.3 Y133.648
G1 F720 X155.288 Y133.648 E66.53887
G1 X155.288 Y141.353 E66.61518
G1 X152.3 Y141.353 E66.64477
G1 X152.3 Y133.648 E66.72107
G0 F9000 X151.6 Y132.948
; TYPE:WALL-OUTER
G1 F600 X155.988 Y132.948 E66.76452
G1 X155.988 Y142.053 E66.85469
G1 X151.6 Y142.053 E66.89814
G1 X151.6 Y132.948 E66.98831
G0 F9000 X152.826 Y133.763
; TYPE:FILL
G1 F720 X152.414 Y134.176 E66.99409
G0 F9000 X152.414 Y134.671
G1 F720 X153.322 Y133.762 E67.00681
G0 F9000 X153.562 Y133.763
G1 F720 X155.172 Y135.373 E67.02936
G0 F9000 X155.172 Y135.377
G1 F720 X154.329 Y136.22 E67.04117
G0 F9000 X153.991 Y136.063
G1 F720 X152.414 Y137.64 E67.06325
G0 F9000 X152.414 Y137.146
G1 F720 X153.991 Y135.568 E67.08534
G0 F9000 X154.329 Y135.725
G1 F720 X155.172 Y134.882 E67.09715
G0 F9000 X155.172 Y134.387
G1 F720 X154.329 Y135.23 E67.10896
G0 F9000 X153.991 Y135.073
G1 F720 X152.414 Y136.651 E67.13105
G0 F9000 X152.414 Y136.156
G1 F720 X153.991 Y134.578 E67.15314
G0 F9000 X154.329 Y134.735
G1 F720 X155.172 Y133.892 E67.16495
G0 F9000 X154.807 Y133.762
G1 F720 X154.329 Y134.24 E67.17164
G0 F9000 X153.991 Y134.083
G1 F720 X152.414 Y135.661 E67.19373
G0 F9000 X152.414 Y135.166
G1 F720 X153.817 Y133.762 E67.21339
G0 F9000 X155.172 Y135.872
G1 F720 X154.329 Y136.715 E67.2252
G0 F9000 X153.991 Y136.558
G1 F720 X152.414 Y138.135 E67.24728
G0 F9000 X152.414 Y138.63
G1 F720 X153.991 Y137.053 E67.26937
G0 F9000 X154.329 Y137.21
G1 F720 X155.172 Y136.367 E67.28117
G0 F9000 X155.172 Y135.971
G1 F720 X153.521 Y136.413 E67.2981
G0 F9000 X153.991 Y137.548
G1 F720 X152.414 Y139.125 E67.32019
G0 F9000 X152.414 Y139.62
G1 F720 X153.991 Y138.043 E67.34227
G0 F9000 X154.329 Y138.2
G1 F720 X155.172 Y137.357 E67.35408
G0 F9000 X155.172 Y137.604
G1 F720 X154.199 Y141.237 E67.39132
G0 F9000 X154.329 Y141.17
G1 F720 X155.172 Y140.327 E67.40313
G0 F9000 X155.172 Y140.323
G1 F720 X153.521 Y138.672 E67.42625
G0 F9000 X153.991 Y138.538
G1 F720 X152.414 Y140.115 E67.44834
G0 F9000 X152.414 Y140.61
G1 F720 X153.991 Y139.033 E67.47042
G0 F9000 X154.329 Y139.19
G1 F720 X155.172 Y138.347 E67.48223
G0 F9000 X155.172 Y137.852
G1 F720 X154.329 Y138.695 E67.49404
G0 F9000 X155.172 Y138.842
G1 F720 X154.329 Y139.685 E67.50584
G0 F9000 X153.991 Y139.528
G1 F720 X152.414 Y141.105 E67.52793
G0 F9000 X152.776 Y141.238
G1 F720 X153.991 Y140.023 E67.54494
G0 F9000 X154.329 Y140.18
G1 F720 X155.172 Y139.337 E67.55675
G0 F9000 X155.172 Y139.595
G1 F720 X153.521 Y140.037 E67.57368
G0 F9000 X153.991 Y140.518
G1 F720 X153.271 Y141.238 E67.58376
G0 F9000 X153.766 Y141.238
G1 F720 X153.991 Y141.013 E67.58691
G0 F9000 X154.329 Y140.675
G1 F720 X155.172 Y139.832 E67.59872
G0 F9000 X155.172 Y140.822
G1 F720 X154.756 Y141.238 E67.60454
G0 F9000 X154.329 Y137.705
G1 F720 X155.172 Y136.862 E67.61635
G0 F9000 X159.486 Y138.273
; TYPE:SUPPORT
G1 F720 X162.506 Y141.293 E67.65864
G0 F9000 X162.347 Y141.293
G0 X160.531 Y143.401
G0 X160.531 Y143.401
G0 X160.531 Y143.561
G1 F720 X159.486 Y142.515 E67.67329
G0 F9000 X159.647 Y142.515
G0 X162.347 Y137.05
G0 X162.347 Y137.05
G0 X162.505 Y137.05
G1 F720 X159.486 Y134.03 E67.71557
G0 F9000 X159.647 Y134.03
G0 X162.139 Y132.601
G0 X162.139 Y132.601
G0 X162.139 Y132.441
G1 F720 X162.505 Y132.807 E67.7207
G0 F9000 X153.106 Y131.893
G1 F720 X148.653 Y127.44 E67.78306
G0 F9000 X148.653 Y127.601
G0 X144.847 Y127.777
G0 X144.847 Y127.777
G0 X144.686 Y127.715
G1 F720 X150.531 Y133.56 E67.86492
G0 F9000 X150.531 Y133.401
G0 X147.469 Y132.629
G0 X147.417 Y131.932
G0 X144.86 Y131.973
G0 X144.86 Y132.132
G1 F720 X144.686 Y131.958 E67.86736
G0 F9000 X149.925 Y141.44
G1 F720 X150.784 Y142.299 E67.87939
G0 F9000 X151.353 Y142.868
G1 F720 X153.106 Y144.621 E67.90394
G0 F9000 X152.947 Y144.621
G0 X151.673 Y147.29
G0 X151.673 Y147.29
G0 X151.692 Y147.449
G1 F720 X147.11 Y142.868 E67.9681
G0 F9000 X147.11 Y143.028
G0 X144.847 Y144.686
G0 X144.847 Y144.686
G0 X144.686 Y144.686
G1 F720 X147.56 Y147.56 E68.00835
G0 F9000 X138.306 Y142.549
G1 F720 X135.487 Y139.729 E68.04784
G0 F9000 X135.647 Y139.729
G0 X138.147 Y138.306
G0 X138.147 Y138.306
G0 X138.306 Y138.306
G1 F720 X135.486 Y135.486 E68.08733
G0 F9000 X135.647 Y135.486
G0 X138.083 Y134.001
G0 X138.083 Y134.001
G0 X138.083 Y133.841
G1 F720 X138.305 Y134.063 E68.09044
; LAYER:14
G0 F9000 X142.064 Y133.245 Z3.05
; TYPE:WALL-INNER
G1 F720 X145.045 Y133.245 E68.11996
G1 X145.045 Y141.756 E68.20425
G1 X142.064 Y141.756 E68.23377
G1 X142.064 Y133.245 E68.31805
G0 F9000 X142.414 Y133.595
G1 F720 X144.695 Y133.595 E68.34064
G1 X144.695 Y141.406 E68.41799
G1 X142.414 Y141.406 E68.44058
G1 X142.414 Y133.595 E68.51793
G0 F9000 X141.714 Y132.895
; TYPE:WALL-OUTER
G1 F600 X145.395 Y132.895 E68.55439
G1 X145.395 Y142.106 E68.6456
G1 X141.714 Y142.106 E68.68206
G1 X141.714 Y132.895 E68.77327
G0 F9000 X142.619 Y133.71
; TYPE:FILL
G1 F720 X143.371 Y134.462 E68.7838
G0 F9000 X143.709 Y134.305
G1 F720 X144.579 Y135.174 E68.79598
G0 F9000 X144.579 Y135.186
G1 F720 X142.528 Y135.735 E68.81701
G0 F9000 X142.527 Y135.598
G1 F720 X143.371 Y136.441 E68.82882
G0 F9000 X143.709 Y136.284
G1 F720 X144.579 Y137.154 E68.84101
G0 F9000 X144.579 Y136.659
G1 F720 X143.709 Y135.789 E68.85319
G0 F9000 X143.371 Y135.946
G1 F720 X142.527 Y135.103 E68.865
G0 F9000 X142.527 Y134.608
G1 F720 X143.371 Y135.451 E68.87682
G0 F9000 X143.709 Y135.294
G1 F720 X144.579 Y136.164 E68.889
G0 F9000 X144.579 Y136.568
G1 F720 X143.314 Y141.29 E68.93741
G0 F9000 X143.271 Y141.291
G1 F720 X142.528 Y140.548 E68.94782
G0 F9000 X142.528 Y140.053
G1 F720 X143.371 Y140.896 E68.95962
G0 F9000 X143.709 Y140.739
G1 F720 X144.261 Y141.291 E68.96735
G0 F9000 X144.579 Y141.114
G1 F720 X143.709 Y140.244 E68.97954
G0 F9000 X143.371 Y140.401
G1 F720 X142.528 Y139.558 E68.99134
G0 F9000 X142.528 Y139.359
G1 F720 X144.579 Y138.81 E69.01237
G0 F9000 X144.579 Y138.639
G1 F720 X143.709 Y137.769 E69.02455
G0 F9000 X143.371 Y137.926
G1 F720 X142.527 Y137.083 E69.03637
G0 F9000 X142.527 Y136.588
G1 F720 X143.371 Y137.431 E69.04818
G0 F9000 X143.709 Y137.274
G1 F720 X144.579 Y138.144 E69.06036
G0 F9000 X144.579 Y137.649
G1 F720 X143.709 Y136.779 E69.07255
G0 F9000 X143.371 Y136.936
G1 F720 X142.527 Y136.093 E69.08436
G0 F9000 X143.371 Y134.956
G1 F720 X142.527 Y134.113 E69.09618
G0 F9000 X143.114 Y133.709
G1 F720 X143.371 Y133.967 E69.09978
G0 F9000 X143.609 Y133.709
G1 F720 X144.579 Y134.679 E69.11337
G0 F9000 X144.579 Y134.679
G1 F720 X143.709 Y133.81 E69.12554
G0 F9000 X144.104 Y133.709
G1 F720 X144.579 Y134.184 E69.1322
G0 F9000 X143.709 Y134.8
G1 F720 X144.579 Y135.669 E69.14437
G0 F9000 X143.709 Y138.264
G1 F720 X144.579 Y139.134 E69.15656
G0 F9000 X144.579 Y139.629
G1 F720 X143.709 Y138.759 E69.16874
G0 F9000 X143.371 Y138.916
G1 F720 X142.528 Y138.073 E69.18055
G0 F9000 X142.528 Y137.578
G1 F720 X143.371 Y138.421 E69.19235
G0 F9000 X142.528 Y138.568
G1 F720 X143.371 Y139.411 E69.20416
G0 F9000 X143.709 Y139.254
G1 F720 X144.579 Y140.124 E69.21634
G0 F9000 X144.579 Y140.619
G1 F720 X143.709 Y139.749 E69.22853
G0 F9000 X143.371 Y139.906
G1 F720 X142.528 Y139.063 E69.24033
G0 F9000 X142.528 Y137.578
G1 F720 X144.579 Y139.629 E69.26906
G0 F9000 X143.709 Y141.234
G1 F720 X143.766 Y141.291 E69.26986
G0 F9000 X142.776 Y141.291
G1 F720 X142.528 Y141.043 E69.27333
G1 F1800 E66.27333
G1 Z4.05
G0 F9000 X152.956 Y141.756
; TYPE:WALL-INNER
G1 Z3.05
G1 F1800 E69.27333
G1 F720 X152.956 Y133.245 E69.35761
G1 X155.937 Y133.245 E69.38714
G1 X155.937 Y141.756 E69.47142
G1 X152.956 Y141.756 E69.50094
G0 F9000 X153.306 Y141.406
G1 F720 X153.306 Y133.595 E69.57829
G1 X155.587 Y133.595 E69.60088
G1 X155.587 Y141.406 E69.67823
G1 X153.306 Y141.406 E69.70082
G0 F9000 X152.606 Y142.106
; TYPE:WALL-OUTER
G1 F600 X152.606 Y132.895 E69.79204
G1 X156.287 Y132.895 E69.82849
G1 X156.287 Y142.106 E69.91971
G1 X152.606 Y142.106 E69.95616
G0 F9000 X153.664 Y141.29
; TYPE:FILL
G1 F720 X153.42 Y141.045 E69.95958
G0 F9000 X153.42 Y140.55
G1 F720 X154.16 Y141.291 E69.96996
G0 F9000 X154.185 Y141.29
G1 F720 X155.471 Y136.487 E70.01919
G0 F9000 X155.471 Y136.662
G1 F720 X154.627 Y135.818 E70.03101
G0 F9000 X154.289 Y135.975
G1 F720 X153.42 Y135.106 E70.04318
G0 F9000 X153.42 Y134.611
G1 F720 X154.289 Y135.48 E70.05536
G0 F9000 X154.627 Y135.323
G1 F720 X155.471 Y136.167 E70.06718
G0 F9000 X155.47 Y135.891
G1 F720 X153.42 Y136.441 E70.08819
G0 F9000 X153.42 Y136.591
G1 F720 X154.289 Y137.46 E70.10036
G0 F9000 X154.627 Y137.303
G1 F720 X155.471 Y138.147 E70.11218
G0 F9000 X155.471 Y137.652
G1 F720 X154.627 Y136.808 E70.124
G0 F9000 X154.289 Y136.965
G1 F720 X153.42 Y136.096 E70.13618
G0 F9000 X153.42 Y135.601
G1 F720 X154.289 Y136.47 E70.14835
G0 F9000 X154.627 Y136.313
G1 F720 X155.471 Y137.157 E70.16017
G0 F9000 X154.628 Y137.799
G1 F720 X155.471 Y138.642 E70.17197
G0 F9000 X155.471 Y139.137
G1 F720 X154.628 Y138.294 E70.18378
G0 F9000 X154.29 Y138.451
G1 F720 X153.42 Y137.581 E70.19596
G0 F9000 X153.42 Y137.086
G1 F720 X154.29 Y137.956 E70.20815
G0 F9000 X153.42 Y138.076
G1 F720 X154.29 Y138.946 E70.22033
G0 F9000 X154.628 Y138.789
G1 F720 X155.471 Y139.632 E70.23214
G0 F9000 X155.471 Y139.514
G1 F720 X153.42 Y140.064 E70.25317
G0 F9000 X153.42 Y140.055
G1 F720 X154.29 Y140.926 E70.26536
G0 F9000 X154.628 Y140.769
G1 F720 X155.15 Y141.291 E70.27267
G0 F9000 X155.471 Y141.117
G1 F720 X154.628 Y140.274 E70.28447
G0 F9000 X154.29 Y140.431
G1 F720 X153.42 Y139.56 E70.29666
G0 F9000 X153.42 Y139.065
G1 F720 X154.29 Y139.936 E70.30886
G0 F9000 X154.628 Y139.779
G1 F720 X155.471 Y140.622 E70.32066
G0 F9000 X155.471 Y140.622
G1 F720 X153.42 Y138.571 E70.34939
G0 F9000 X153.42 Y138.571
G1 F720 X154.29 Y139.441 E70.36157
G0 F9000 X154.628 Y139.284
G1 F720 X155.471 Y140.127 E70.37338
G0 F9000 X154.628 Y141.264
G1 F720 X154.655 Y141.291 E70.37375
G0 F9000 X155.471 Y135.672
G1 F720 X154.627 Y134.828 E70.38558
G0 F9000 X154.289 Y134.985
G1 F720 X153.42 Y134.116 E70.39775
G0 F9000 X153.509 Y133.71
G1 F720 X154.289 Y134.491 E70.40868
G0 F9000 X154.627 Y134.334
G1 F720 X155.471 Y135.177 E70.42049
G0 F9000 X155.471 Y134.682
G1 F720 X154.627 Y133.839 E70.4323
G0 F9000 X154.289 Y133.996
G1 F720 X154.004 Y133.71 E70.4363
G0 F9000 X153.509 Y133.71
G1 F720 X155.471 Y135.672 E70.46378
G0 F9000 X155.471 Y134.187
G1 F720 X154.994 Y133.71 E70.47046
G0 F9000 X138.305 Y134.063
; TYPE:SUPPORT
G1 F720 X138.083 Y133.841 E70.47357
G0 F9000 X138.083 Y134.001
G0 X135.647 Y135.486
G0 X135.647 Y135.486
G0 X135.486 Y135.486
G1 F720 X138.306 Y138.306 E70.51306
G0 F9000 X138.147 Y138.306
G0 X135.647 Y139.729
G0 X135.647 Y139.729
G0 X135.487 Y139.729
G1 F720 X138.306 Y142.549 E70.55255
G0 F9000 X144.807 Y132.079
G1 F720 X144.686 Y131.958 E70.55424
G0 F9000 X144.847 Y131.958
G0 X144.847 Y127.777
G0 X144.847 Y127.777
G0 X144.686 Y127.715
G1 F720 X150.531 Y133.561 E70.63611
G0 F9000 X150.531 Y133.401
G0 X151.561 Y132.757
G0 X151.59 Y131.879
G0 X152.947 Y131.893
G0 X153.106 Y131.893
G1 F720 X148.653 Y127.44 E70.69847
G0 F9000 X149.926 Y141.441
G1 F720 X153.106 Y144.621 E70.74301
G0 F9000 X152.947 Y144.621
G0 X151.673 Y147.29
G0 X151.673 Y147.29
G0 X151.692 Y147.449
G1 F720 X146.209 Y141.966 E70.8198
G0 F9000 X146.37 Y141.966
G0 X146.367 Y141.968
G0 X146.411 Y143.122
G0 X144.847 Y144.686
G0 X144.686 Y144.686
G1 F720 X147.56 Y147.56 E70.86005
G0 F9000 X159.486 Y142.515
G1 F720 X160.531 Y143.561 E70.87469
G0 F9000 X160.531 Y143.401
G0 X162.347 Y141.293
G0 X162.347 Y141.293
G0 X162.506 Y141.293
G1 F720 X159.486 Y138.273 E70.91698
G0 F9000 X159.647 Y138.273
G0 X162.347 Y137.05
G0 X162.347 Y137.05
G0 X162.505 Y137.05
G1 F720 X159.486 Y134.03 E70.95927
G0 F9000 X159.647 Y134.03
G0 X162.139 Y132.601
G0 X162.139 Y132.601
G0 X162.139 Y132.441
G1 F720 X162.505 Y132.807 E70.9644
; LAYER:15
G0 F9000 X144.718 Y133.192 Z3.25
; TYPE:WALL-INNER
G1 F720 X144.718 Y141.809 E71.04973
G1 X141.765 Y141.809 E71.07898
G1 X141.765 Y133.192 E71.16431
G1 X144.718 Y133.192 E71.19355
G0 F9000 X144.368 Y133.542
G1 F720 X144.368 Y141.459 E71.27196
G1 X142.115 Y141.459 E71.29427
G1 X142.115 Y133.542 E71.37267
G1 X144.368 Y133.542 E71.39498
G0 F9000 X145.068 Y132.842
; TYPE:WALL-OUTER
G1 F600 X145.068 Y142.159 E71.48725
G1 X141.415 Y142.159 E71.52342
G1 X141.415 Y132.842 E71.61569
G1 X145.068 Y132.842 E71.65186
G0 F9000 X144.023 Y133.657
; TYPE:FILL
G1 F720 X143.409 Y134.271 E71.66046
G0 F9000 X143.072 Y134.113
G1 F720 X142.229 Y134.956 E71.67227
G0 F9000 X142.229 Y134.461
G1 F720 X143.034 Y133.656 E71.68354
G0 F9000 X143.409 Y133.776
G1 F720 X143.529 Y133.656 E71.68522
G0 F9000 X143.556 Y133.657
G1 F720 X144.252 Y134.353 E71.69497
G0 F9000 X144.252 Y134.418
G1 F720 X143.409 Y135.261 E71.70678
G0 F9000 X143.072 Y135.103
G1 F720 X142.229 Y135.946 E71.71858
G0 F9000 X142.229 Y135.816
G1 F720 X144.252 Y135.273 E71.73933
G0 F9000 X144.252 Y135.408
G1 F720 X143.409 Y136.251 E71.75113
G0 F9000 X143.072 Y136.093
G1 F720 X142.229 Y136.936 E71.76294
G0 F9000 X142.229 Y137.279
G1 F720 X144.251 Y139.302 E71.79126
G0 F9000 X144.251 Y139.368
G1 F720 X143.409 Y140.211 E71.80306
G0 F9000 X143.072 Y140.053
G1 F720 X142.229 Y140.895 E71.81486
G0 F9000 X142.276 Y141.344
G1 F720 X143.072 Y140.548 E71.82601
G0 F9000 X143.409 Y140.706
G1 F720 X144.251 Y139.863 E71.83781
G0 F9000 X144.251 Y140.358
G1 F720 X143.409 Y141.201 E71.84961
G0 F9000 X143.3 Y141.343
G1 F720 X144.252 Y137.789 E71.88604
G0 F9000 X144.251 Y137.883
G1 F720 X143.409 Y138.726 E71.89784
G0 F9000 X143.072 Y138.568
G1 F720 X142.229 Y139.411 E71.90965
G0 F9000 X142.229 Y139.439
G1 F720 X144.252 Y138.897 E71.93039
G0 F9000 X144.251 Y138.873
G1 F720 X143.409 Y139.716 E71.94219
G0 F9000 X143.072 Y139.558
G1 F720 X142.229 Y140.401 E71.95399
G0 F9000 X142.229 Y139.906
G1 F720 X143.072 Y139.063 E71.9658
G0 F9000 X143.409 Y139.221
G1 F720 X144.251 Y138.378 E71.9776
G0 F9000 X143.409 Y138.231
G1 F720 X144.252 Y137.388 E71.98941
G0 F9000 X144.252 Y136.893
G1 F720 X143.409 Y137.736 E72.00121
G0 F9000 X143.072 Y137.578
G1 F720 X142.229 Y138.421 E72.01302
G0 F9000 X142.229 Y137.926
G1 F720 X143.072 Y137.083 E72.02482
G0 F9000 X143.409 Y137.241
G1 F720 X144.252 Y136.398 E72.03663
G0 F9000 X144.252 Y135.903
G1 F720 X143.409 Y136.746 E72.04844
G0 F9000 X143.072 Y136.588
G1 F720 X142.229 Y137.431 E72.06024
G0 F9000 X142.229 Y136.441
G1 F720 X143.072 Y135.598 E72.07205
G0 F9000 X143.409 Y135.756
G1 F720 X144.252 Y134.913 E72.08385
G0 F9000 X143.409 Y134.766
G1 F720 X144.252 Y133.923 E72.09566
G0 F9000 X143.072 Y134.608
G1 F720 X142.229 Y135.451 E72.10747
G0 F9000 X142.229 Y133.966
G1 F720 X142.539 Y133.656 E72.11181
G0 F9000 X143.072 Y138.073
G1 F720 X142.229 Y138.916 E72.12361
G0 F9000 X143.072 Y141.043
G1 F720 X142.771 Y141.344 E72.12783
G0 F9000 X143.761 Y141.344
G1 F720 X144.251 Y140.853 E72.1347
G1 F1800 E69.1347
G1 Z4.25
G0 F9000 X153.283 Y141.809
; TYPE:WALL-INNER
G1 Z3.25
G1 F1800 E72.1347
G1 F720 X153.283 Y133.192 E72.22003
G1 X156.236 Y133.192 E72.24928
G1 X156.236 Y141.809 E72.33461
G1 X153.283 Y141.809 E72.36385
G0 F9000 X153.633 Y141.459
G1 F720 X153.633 Y133.542 E72.44226
G1 X155.886 Y133.542 E72.46457
G1 X155.886 Y141.459 E72.54297
G1 X153.633 Y141.459 E72.56528
G0 F9000 X152.933 Y142.159
; TYPE:WALL-OUTER
G1 F600 X152.933 Y132.842 E72.65755
G1 X156.586 Y132.842 E72.69372
G1 X156.586 Y142.159 E72.78599
G1 X152.933 Y142.159 E72.82216
G0 F9000 X153.746 Y141.258
; TYPE:FILL
G1 F720 X154.59 Y140.414 E72.83398
G0 F9000 X154.927 Y140.572
G1 F720 X155.77 Y139.729 E72.84579
G0 F9000 X155.77 Y139.434
G1 F720 X153.747 Y139.976 E72.86653
G0 F9000 X153.746 Y139.773
G1 F720 X154.59 Y138.929 E72.87835
G0 F9000 X154.927 Y139.087
G1 F720 X155.77 Y138.244 E72.89016
G0 F9000 X155.77 Y137.749
G1 F720 X154.927 Y138.592 E72.90196
G0 F9000 X154.59 Y138.434
G1 F720 X153.746 Y139.278 E72.91378
G0 F9000 X153.746 Y138.897
G1 F720 X155.77 Y140.921 E72.94213
G0 F9000 X155.77 Y140.719
G1 F720 X155.146 Y141.343 E72.95087
G0 F9000 X154.927 Y141.067
G1 F720 X155.77 Y140.224 E72.96267
G0 F9000 X154.927 Y140.077
G1 F720 X155.77 Y139.234 E72.97448
G0 F9000 X155.77 Y138.739
G1 F720 X154.927 Y139.582 E72.98629
G0 F9000 X154.59 Y139.424
G1 F720 X153.746 Y140.268 E72.99811
G0 F9000 X153.746 Y140.763
G1 F720 X154.59 Y139.919 E73.00993
G0 F9000 X154.59 Y140.909
G1 F720 X154.155 Y141.344 E73.01602
G0 F9000 X154.17 Y141.343
G1 F720 X155.77 Y135.372 E73.07724
G0 F9000 X155.769 Y135.275
G1 F720 X154.927 Y136.118 E73.08903
G0 F9000 X154.59 Y135.959
G1 F720 X153.747 Y136.802 E73.10084
G0 F9000 X153.747 Y136.353
G1 F720 X155.77 Y135.811 E73.12158
G0 F9000 X155.769 Y135.77
G1 F720 X154.927 Y136.613 E73.13338
G0 F9000 X154.59 Y136.454
G1 F720 X153.747 Y137.297 E73.14519
G0 F9000 X153.746 Y137.793
G1 F720 X154.59 Y136.949 E73.15701
G0 F9000 X154.927 Y137.108
G1 F720 X155.769 Y136.265 E73.16881
G0 F9000 X155.769 Y135.97
G1 F720 X153.747 Y133.948 E73.19712
G0 F9000 X153.747 Y133.832
G1 F720 X153.923 Y133.657 E73.19958
G0 F9000 X154.417 Y133.657
G1 F720 X153.747 Y134.327 E73.20896
G0 F9000 X153.747 Y134.822
G1 F720 X154.59 Y133.979 E73.22077
G0 F9000 X154.927 Y134.138
G1 F720 X155.407 Y133.657 E73.2275
G0 F9000 X155.769 Y133.79
G1 F720 X154.927 Y134.633 E73.2393
G0 F9000 X154.59 Y134.474
G1 F720 X153.747 Y135.317 E73.25111
G0 F9000 X153.747 Y135.812
G1 F720 X154.59 Y134.969 E73.26291
G0 F9000 X154.927 Y135.128
G1 F720 X155.769 Y134.285 E73.27471
G0 F9000 X155.769 Y134.78
G1 F720 X154.927 Y135.623 E73.28651
G0 F9000 X154.59 Y135.464
G1 F720 X153.747 Y136.307 E73.29832
G0 F9000 X154.59 Y137.444
G1 F720 X153.746 Y138.288 E73.31014
G0 F9000 X153.746 Y138.783
G1 F720 X154.59 Y137.939 E73.32196
G0 F9000 X154.927 Y138.097
G1 F720 X155.769 Y137.255 E73.33375
G0 F9000 X155.769 Y136.76
G1 F720 X154.927 Y137.602 E73.34554
G0 F9000 X155.77 Y141.214
G1 F720 X155.64 Y141.344 E73.34736
G0 F9000 X159.486 Y142.515
; TYPE:SUPPORT
G1 F720 X160.531 Y143.561 E73.362
G0 F9000 X160.531 Y143.401
G0 X162.347 Y141.293
G0 X162.347 Y141.293
G0 X162.506 Y141.293
G1 F720 X159.486 Y138.273 E73.4043
G0 F9000 X159.647 Y138.273
G0 X162.347 Y137.05
G0 X162.347 Y137.05
G0 X162.505 Y137.05
G1 F720 X159.486 Y134.03 E73.44659
G0 F9000 X159.647 Y134.03
G0 X162.139 Y132.601
G0 X162.139 Y132.601
G0 X162.139 Y132.441
G1 F720 X162.505 Y132.807 E73.45171
G0 F9000 X153.106 Y131.893
G1 F720 X148.653 Y127.44 E73.51408
G0 F9000 X148.653 Y127.601
G0 X144.847 Y127.777
G0 X144.847 Y127.777
G0 X144.686 Y127.715
G1 F720 X150.531 Y133.561 E73.59594
G0 F9000 X150.531 Y133.401
G0 X146.191 Y133.288
G0 X146.191 Y133.288
G0 X146.174 Y133.446
G1 F720 X145.881 Y133.153 E73.60005
G0 F9000 X146.043 Y133.153
G0 X146.084 Y133.194
G0 X146.084 Y131.826
G0 X144.757 Y131.867
G0 X144.755 Y132.027
G1 F720 X144.686 Y131.958 E73.60101
G0 F9000 X145.882 Y141.639
G1 F720 X151.692 Y147.449 E73.68238
